;FLAVOR:Marlin
;TIME:3311
;Filament used: 5.17225m
;Layer height: 0.3
;MINX:64.995
;MINY:80.483
;MINZ:0.3
;MAXX:163.421
;MAXY:132.116
;MAXZ:21
;Generated with Cura_SteamEngine 4.5.0
M140 S60
M105
M190 S60
M104 S200
M105
M109 S200
M82 ;absolute extrusion mode
G28 ;Home
G1 Z15.0 F6000 ;Move the platform down 15mm
;Prime the extruder
G92 E0
G1 F200 E3
G92 E0
G92 E0
G92 E0
G1 F1500 E-6.5
;LAYER_COUNT:70
;LAYER:0
M107
G0 F3600 X66.19 Y81.434 Z0.3
;TYPE:SKIRT
G1 F1500 E0
G1 F1800 X66.583 Y81.116 E0.03153
G1 X67.021 Y80.864 E0.06304
G1 X67.493 Y80.683 E0.09457
G1 X67.988 Y80.58 E0.1261
G1 X68.638 Y80.546 E0.16669
G1 X108.633 Y80.716 E2.66091
G1 X110.163 Y80.744 E2.75634
G1 X112.948 Y80.756 E2.93002
G1 X115.668 Y80.689 E3.0997
G1 X118.462 Y80.543 E3.27418
G1 X119.14 Y80.498 E3.31655
G1 X119.686 Y80.483 E3.35062
G1 X159.533 Y80.654 E5.83561
G1 X160.273 Y80.668 E5.88176
G1 X160.776 Y80.717 E5.91328
G1 X161.265 Y80.845 E5.9448
G1 X161.728 Y81.048 E5.97633
G1 X162.153 Y81.322 E6.00787
G1 X162.53 Y81.659 E6.0394
G1 X162.848 Y82.052 E6.07093
G1 X163.101 Y82.49 E6.10247
G1 X163.282 Y82.962 E6.134
G1 X163.387 Y83.456 E6.16549
G1 X163.421 Y84.097 E6.20552
G1 X163.234 Y128.219 E8.95712
G1 X163.222 Y128.86 E8.9971
G1 X163.173 Y129.363 E9.02862
G1 X163.045 Y129.852 E9.06014
G1 X162.842 Y130.315 E9.09167
G1 X162.568 Y130.74 E9.1232
G1 X162.231 Y131.117 E9.15474
G1 X161.839 Y131.436 E9.18625
G1 X161.401 Y131.689 E9.2178
G1 X160.929 Y131.87 E9.24932
G1 X160.434 Y131.974 E9.28087
G1 X159.061 Y132.018 E9.36654
G1 X119.817 Y131.851 E11.81392
G1 X118.702 Y131.83 E11.88347
G1 X115.914 Y131.816 E12.05734
G1 X113.197 Y131.88 E12.22682
G1 X110.403 Y132.025 E12.4013
G1 X109.475 Y132.093 E12.45933
G1 X108.884 Y132.116 E12.49621
G1 X68.878 Y131.947 E14.99112
G1 X68.143 Y131.933 E15.03696
G1 X67.639 Y131.884 E15.06854
G1 X67.15 Y131.756 E15.10007
G1 X66.688 Y131.552 E15.13156
G1 X66.263 Y131.279 E15.16306
G1 X65.886 Y130.941 E15.19464
G1 X65.567 Y130.549 E15.22616
G1 X65.314 Y130.111 E15.2577
G1 X65.134 Y129.639 E15.2892
G1 X65.029 Y129.144 E15.32076
G1 X64.995 Y128.521 E15.35967
G1 X65.181 Y84.386 E18.11207
G1 X65.195 Y83.69 E18.15549
G1 X65.245 Y83.187 E18.18701
G1 X65.373 Y82.698 E18.21853
G1 X65.577 Y82.235 E18.25009
G1 X65.852 Y81.81 E18.28165
G1 X66.19 Y81.434 E18.31318
G1 F1500 E11.81318
;MESH:CrystalMaker_mold_3_faceB.stl
G0 F3600 X67.717 Y84.185
G0 X68.995 Y84.361
G0 X108.405 Y128.116
G0 X108.504 Y128.116
;TYPE:WALL-INNER
G1 F1500 E18.31318
G1 F1800 X108.504 Y128.316 E18.32566
G1 X108.304 Y128.316 E18.33373
G1 X68.795 Y128.147 E20.79765
G1 X68.981 Y84.347 E23.52916
G1 X108.49 Y84.515 E25.99307
G1 X108.69 Y84.515 E26.00554
G1 X108.69 Y84.715 E26.01362
G1 X108.504 Y128.116 E28.72025
G0 F3600 X108.902 Y128.503
;TYPE:WALL-OUTER
G1 F1800 X108.902 Y128.688 E28.73179
G1 X108.902 Y128.718 E28.73366
G1 X108.717 Y128.718 E28.74143
G1 X68.393 Y128.545 E31.25617
G1 X68.583 Y83.945 E34.03757
G1 X108.792 Y84.116 E36.54514
G1 X108.892 Y84.116 E36.55138
G1 X109.092 Y84.118 E36.56385
G1 X109.092 Y84.218 E36.57009
G1 X108.902 Y128.503 E39.33185
G0 F3600 X108.902 Y128.688
G0 X108.902 Y128.703
G0 X108.434 Y128.245
G0 X108.116 Y127.924
;TYPE:SKIN
G1 F1800 X69.187 Y127.759 E41.75959
G1 X69.369 Y84.739 E44.44246
G1 X108.298 Y84.903 E46.8702
G1 X108.116 Y127.924 E49.55313
G0 F3600 X69.37 Y127.069
G1 F1800 X69.881 Y127.581 E49.59824
G0 F3600 X70.449 Y127.583
G1 F1800 X69.372 Y126.506 E49.69323
G0 F3600 X69.374 Y125.942
G1 F1800 X71.017 Y127.586 E49.83817
G0 F3600 X71.586 Y127.588
G1 F1800 X69.377 Y125.379 E50.033
G0 F3600 X69.379 Y124.816
G1 F1800 X72.153 Y127.591 E50.27769
G0 F3600 X72.721 Y127.593
G1 F1800 X69.381 Y124.252 E50.5723
G0 F3600 X69.384 Y123.689
G1 F1800 X73.29 Y127.596 E50.91683
G0 F3600 X73.858 Y127.598
G1 F1800 X69.386 Y123.126 E51.31124
G0 F3600 X69.388 Y122.562
G1 F1800 X74.426 Y127.6 E51.75556
G0 F3600 X74.994 Y127.603
G1 F1800 X69.391 Y121.999 E52.24976
G0 F3600 X69.393 Y121.436
G1 F1800 X75.562 Y127.605 E52.79383
G0 F3600 X76.13 Y127.608
G1 F1800 X69.396 Y120.873 E53.38777
G0 F3600 X69.398 Y120.309
G1 F1800 X76.698 Y127.61 E54.03164
G0 F3600 X77.266 Y127.612
G1 F1800 X69.4 Y119.746 E54.72537
G0 F3600 X69.403 Y119.183
G1 F1800 X77.834 Y127.615 E55.46898
G0 F3600 X78.402 Y127.617
G1 F1800 X69.405 Y118.619 E56.26251
G0 F3600 X69.407 Y118.056
G1 F1800 X78.971 Y127.62 E57.106
G0 F3600 X79.538 Y127.622
G1 F1800 X69.41 Y117.493 E57.99927
G0 F3600 X69.412 Y116.93
G1 F1800 X80.106 Y127.624 E58.94242
G0 F3600 X80.675 Y127.627
G1 F1800 X69.415 Y116.367 E59.93549
G0 F3600 X69.417 Y115.803
G1 F1800 X81.243 Y127.629 E60.97848
G0 F3600 X81.81 Y127.631
G1 F1800 X69.419 Y115.24 E62.07129
G0 F3600 X69.422 Y114.677
G1 F1800 X82.379 Y127.634 E63.21402
G0 F3600 X82.947 Y127.636
G1 F1800 X69.424 Y114.113 E64.40667
G0 F3600 X69.426 Y113.55
G1 F1800 X83.515 Y127.639 E65.64924
G0 F3600 X84.083 Y127.641
G1 F1800 X69.429 Y112.987 E66.94164
G0 F3600 X69.431 Y112.423
G1 F1800 X84.651 Y127.643 E68.28396
G0 F3600 X85.219 Y127.646
G1 F1800 X69.433 Y111.86 E69.67619
G0 F3600 X69.436 Y111.297
G1 F1800 X85.787 Y127.648 E71.11826
G0 F3600 X86.355 Y127.65
G1 F1800 X69.438 Y110.733 E72.61024
G0 F3600 X69.441 Y110.17
G1 F1800 X86.923 Y127.653 E74.1521
G0 F3600 X87.491 Y127.655
G1 F1800 X69.443 Y109.607 E75.74383
G0 F3600 X69.445 Y109.043
G1 F1800 X88.059 Y127.657 E77.38547
G0 F3600 X88.628 Y127.66
G1 F1800 X69.448 Y108.48 E79.07704
G0 F3600 X69.45 Y107.917
G1 F1800 X89.195 Y127.662 E80.81843
G0 F3600 X89.764 Y127.665
G1 F1800 X69.452 Y107.353 E82.60984
G0 F3600 X69.455 Y106.79
G1 F1800 X90.332 Y127.667 E84.45107
G0 F3600 X90.899 Y127.669
G1 F1800 X69.457 Y106.227 E86.34213
G0 F3600 X69.459 Y105.663
G1 F1800 X91.468 Y127.672 E88.2832
G0 F3600 X92.036 Y127.674
G1 F1800 X69.462 Y105.1 E90.27409
G0 F3600 X69.464 Y104.537
G1 F1800 X92.604 Y127.676 E92.31486
G0 F3600 X93.172 Y127.679
G1 F1800 X69.467 Y103.974 E94.40551
G0 F3600 X69.469 Y103.41
G1 F1800 X93.74 Y127.681 E96.54607
G0 F3600 X94.308 Y127.684
G1 F1800 X69.471 Y102.847 E98.73655
G0 F3600 X69.474 Y102.284
G1 F1800 X94.876 Y127.686 E100.97686
G0 F3600 X95.444 Y127.688
G1 F1800 X69.476 Y101.72 E103.26709
G0 F3600 X69.478 Y101.157
G1 F1800 X96.013 Y127.691 E105.60728
G0 F3600 X96.58 Y127.693
G1 F1800 X69.481 Y100.594 E107.99726
G0 F3600 X69.483 Y100.03
G1 F1800 X97.148 Y127.695 E110.43715
G0 F3600 X97.717 Y127.698
G1 F1800 X69.486 Y99.468 E112.92692
G0 F3600 X69.488 Y98.904
G1 F1800 X98.285 Y127.7 E115.4666
G0 F3600 X98.853 Y127.703
G1 F1800 X69.49 Y98.34 E118.05625
G0 F3600 X69.493 Y97.778
G1 F1800 X99.421 Y127.705 E120.69569
G0 F3600 X99.989 Y127.707
G1 F1800 X69.495 Y97.214 E123.38504
G0 F3600 X69.497 Y96.65
G1 F1800 X100.557 Y127.71 E126.12435
G0 F3600 X101.125 Y127.712
G1 F1800 X69.5 Y96.088 E128.91345
G0 F3600 X69.502 Y95.524
G1 F1800 X101.693 Y127.714 E131.75247
G0 F3600 X102.261 Y127.717
G1 F1800 X69.505 Y94.96 E134.6414
G0 F3600 X69.507 Y94.398
G1 F1800 X102.829 Y127.719 E137.58017
G0 F3600 X103.398 Y127.722
G1 F1800 X69.51 Y93.834 E140.56889
G0 F3600 X69.512 Y93.271
G1 F1800 X103.965 Y127.724 E143.60745
G0 F3600 X104.533 Y127.726
G1 F1800 X69.514 Y92.708 E146.69588
G0 F3600 X69.517 Y92.144
G1 F1800 X105.102 Y127.729 E149.83427
G0 F3600 X105.67 Y127.731
G1 F1800 X69.519 Y91.581 E153.02254
G0 F3600 X69.522 Y91.018
G1 F1800 X106.237 Y127.733 E156.26059
G0 F3600 X106.806 Y127.736
G1 F1800 X69.524 Y90.454 E159.54865
G0 F3600 X69.526 Y89.891
G1 F1800 X107.374 Y127.738 E162.88658
G0 F3600 X107.937 Y127.736
G1 F1800 X69.529 Y89.328 E166.27395
G0 F3600 X69.531 Y88.765
G1 F1800 X107.939 Y127.173 E169.66131
G0 F3600 X107.941 Y126.609
G1 F1800 X69.534 Y88.201 E173.04863
G0 F3600 X69.536 Y87.638
G1 F1800 X107.944 Y126.046 E176.436
G0 F3600 X107.946 Y125.483
G1 F1800 X69.539 Y87.075 E179.82332
G0 F3600 X69.541 Y86.511
G1 F1800 X107.949 Y124.919 E183.21068
G0 F3600 X107.951 Y124.356
G1 F1800 X69.543 Y85.948 E186.59805
G0 F3600 X69.546 Y85.385
G1 F1800 X107.953 Y123.793 E189.98537
G0 F3600 X107.956 Y123.229
G1 F1800 X69.646 Y84.919 E193.36409
G0 F3600 X70.214 Y84.922
G1 F1800 X107.958 Y122.666 E196.69289
G0 F3600 X107.961 Y122.103
G1 F1800 X70.782 Y84.924 E199.97187
G0 F3600 X71.35 Y84.927
G1 F1800 X107.963 Y121.539 E203.20088
G0 F3600 X107.966 Y120.976
G1 F1800 X71.919 Y84.929 E206.38002
G0 F3600 X72.486 Y84.932
G1 F1800 X107.968 Y120.413 E209.50928
G0 F3600 X107.97 Y119.849
G1 F1800 X73.054 Y84.934 E212.58863
G0 F3600 X73.623 Y84.936
G1 F1800 X107.973 Y119.286 E215.6181
G0 F3600 X107.975 Y118.723
G1 F1800 X74.191 Y84.939 E218.59765
G0 F3600 X74.759 Y84.941
G1 F1800 X107.978 Y118.16 E221.52738
G0 F3600 X107.98 Y117.596
G1 F1800 X75.327 Y84.944 E224.40714
G0 F3600 X75.895 Y84.946
G1 F1800 X107.982 Y117.033 E227.23703
G0 F3600 X107.985 Y116.47
G1 F1800 X76.463 Y84.948 E230.01709
G0 F3600 X77.031 Y84.951
G1 F1800 X107.987 Y115.906 E232.74719
G0 F3600 X107.989 Y115.343
G1 F1800 X77.6 Y84.953 E235.42737
G0 F3600 X78.167 Y84.956
G1 F1800 X107.992 Y114.78 E238.05772
G0 F3600 X107.994 Y114.216
G1 F1800 X78.735 Y84.958 E240.63815
G0 F3600 X79.304 Y84.961
G1 F1800 X107.996 Y113.653 E243.16862
G0 F3600 X107.999 Y113.09
G1 F1800 X79.871 Y84.963 E245.6493
G0 F3600 X80.439 Y84.965
G1 F1800 X108.001 Y112.526 E248.08007
G0 F3600 X108.003 Y111.963
G1 F1800 X81.008 Y84.968 E250.46087
G0 F3600 X81.576 Y84.97
G1 F1800 X108.006 Y111.4 E252.79184
G0 F3600 X108.008 Y110.836
G1 F1800 X82.144 Y84.973 E255.07286
G0 F3600 X82.712 Y84.975
G1 F1800 X108.011 Y110.274 E257.30408
G0 F3600 X108.013 Y109.71
G1 F1800 X83.28 Y84.977 E259.48539
G0 F3600 X83.848 Y84.98
G1 F1800 X108.015 Y109.146 E261.61674
G0 F3600 X108.018 Y108.584
G1 F1800 X84.416 Y84.982 E263.6983
G0 F3600 X84.985 Y84.985
G1 F1800 X108.02 Y108.02 E265.72985
G0 F3600 X108.022 Y107.456
G1 F1800 X85.552 Y84.987 E267.71153
G0 F3600 X86.12 Y84.989
G1 F1800 X108.025 Y106.894 E269.64343
G0 F3600 X108.027 Y106.33
G1 F1800 X86.689 Y84.992 E271.52532
G0 F3600 X87.256 Y84.994
G1 F1800 X108.029 Y105.766 E273.35733
G0 F3600 X108.032 Y105.204
G1 F1800 X87.824 Y84.996 E275.13956
G0 F3600 X88.393 Y84.999
G1 F1800 X108.034 Y104.64 E276.87179
G0 F3600 X108.036 Y104.076
G1 F1800 X88.961 Y85.001 E278.55409
G0 F3600 X89.529 Y85.004
G1 F1800 X108.039 Y103.514 E280.18657
G0 F3600 X108.041 Y102.95
G1 F1800 X90.097 Y85.006 E281.76912
G0 F3600 X90.665 Y85.008
G1 F1800 X108.043 Y102.386 E283.30176
G0 F3600 X108.046 Y101.824
G1 F1800 X91.233 Y85.011 E284.78457
G0 F3600 X91.801 Y85.013
G1 F1800 X108.048 Y101.26 E286.21747
G0 F3600 X108.051 Y100.697
G1 F1800 X92.37 Y85.016 E287.60044
G0 F3600 X92.937 Y85.018
G1 F1800 X108.053 Y100.134 E288.93358
G0 F3600 X108.055 Y99.57
G1 F1800 X93.505 Y85.02 E290.21681
G0 F3600 X94.074 Y85.023
G1 F1800 X108.058 Y99.007 E291.45012
G0 F3600 X108.06 Y98.444
G1 F1800 X94.642 Y85.025 E292.63355
G0 F3600 X95.21 Y85.028
G1 F1800 X108.062 Y97.88 E293.76703
G0 F3600 X108.065 Y97.317
G1 F1800 X95.778 Y85.03 E294.85067
G0 F3600 X96.346 Y85.032
G1 F1800 X108.067 Y96.754 E295.88444
G0 F3600 X108.069 Y96.19
G1 F1800 X96.914 Y85.035 E296.86824
G0 F3600 X97.482 Y85.037
G1 F1800 X108.072 Y95.627 E297.80222
G0 F3600 X108.074 Y95.064
G1 F1800 X98.05 Y85.039 E298.68633
G0 F3600 X98.618 Y85.042
G1 F1800 X108.077 Y94.5 E299.52051
G0 F3600 X108.079 Y93.937
G1 F1800 X99.186 Y85.044 E300.30482
G0 F3600 X99.755 Y85.047
G1 F1800 X108.081 Y93.374 E301.03917
G0 F3600 X108.084 Y92.81
G1 F1800 X100.322 Y85.049 E301.72369
G0 F3600 X100.89 Y85.051
G1 F1800 X108.086 Y92.247 E302.35834
G0 F3600 X108.089 Y91.684
G1 F1800 X101.459 Y85.054 E302.94306
G0 F3600 X102.027 Y85.056
G1 F1800 X108.091 Y91.121 E303.47792
G0 F3600 X108.093 Y90.557
G1 F1800 X102.595 Y85.059 E303.96281
G0 F3600 X103.163 Y85.061
G1 F1800 X108.096 Y89.994 E304.39787
G0 F3600 X108.098 Y89.431
G1 F1800 X103.731 Y85.063 E304.78306
G0 F3600 X104.299 Y85.066
G1 F1800 X108.101 Y88.867 E305.11833
G0 F3600 X108.103 Y88.304
G1 F1800 X104.867 Y85.068 E305.40373
G0 F3600 X105.435 Y85.071
G1 F1800 X108.106 Y87.741 E305.63925
G0 F3600 X108.108 Y87.177
G1 F1800 X106.003 Y85.073 E305.82486
G0 F3600 X106.571 Y85.075
G1 F1800 X108.11 Y86.614 E305.96059
G0 F3600 X108.113 Y86.051
G1 F1800 X107.14 Y85.078 E306.0464
G0 F3600 X107.707 Y85.08
G1 F1800 X108.115 Y85.487 E306.08234
G1 F1500 E299.58234
;MESH:CrystalMaker_mold_3_faceA.stl
G0 F3600 X108.486 Y127.902
G0 X109.771 Y127.907
G0 X118.492 Y127.946
G0 X119.778 Y127.951
G0 X119.958 Y128.051
;TYPE:WALL-INNER
G1 F1500 E306.08234
G1 F1800 X119.758 Y128.051 E306.09481
G1 X119.758 Y127.851 E306.10289
G1 X119.944 Y84.285 E308.81981
G1 X159.421 Y84.453 E311.28172
G1 X159.621 Y84.453 E311.2942
G1 X159.621 Y84.653 E311.30227
G1 X159.434 Y128.219 E314.01919
G1 X119.958 Y128.051 E316.48105
G0 F3600 X119.556 Y128.449
;TYPE:WALL-OUTER
G1 F1800 X119.356 Y128.449 E316.49352
G1 X119.356 Y128.249 E316.5016
G1 X119.546 Y83.883 E319.26841
G1 X159.801 Y84.054 E321.77884
G1 X160.022 Y84.056 E321.79263
G1 X160.019 Y84.896 E321.84501
G1 X159.832 Y128.621 E324.57185
G1 X119.556 Y128.449 E327.08359
G0 F3600 X119.356 Y128.449
G0 X119.829 Y127.981
G0 X120.15 Y127.663
;TYPE:SKIN
G1 F1800 X120.332 Y84.677 E329.76434
G1 X159.229 Y84.841 E332.19009
G1 X159.046 Y127.827 E334.87084
G1 X120.15 Y127.663 E337.29652
G0 F3600 X120.332 Y127.12
G1 F1800 X120.696 Y127.484 E337.32862
G0 F3600 X121.263 Y127.486
G1 F1800 X120.334 Y126.557 E337.41056
G0 F3600 X120.336 Y125.993
G1 F1800 X121.831 Y127.488 E337.54241
G0 F3600 X122.4 Y127.491
G1 F1800 X120.339 Y125.43 E337.72417
G0 F3600 X120.341 Y124.867
G1 F1800 X122.967 Y127.493 E337.95577
G0 F3600 X123.536 Y127.496
G1 F1800 X120.343 Y124.303 E338.23738
G0 F3600 X120.346 Y123.74
G1 F1800 X124.104 Y127.498 E338.56881
G0 F3600 X124.672 Y127.501
G1 F1800 X120.348 Y123.177 E338.95016
G0 F3600 X120.35 Y122.613
G1 F1800 X125.24 Y127.503 E339.38143
G0 F3600 X125.808 Y127.505
G1 F1800 X120.353 Y122.05 E339.86253
G0 F3600 X120.355 Y121.487
G1 F1800 X126.376 Y127.508 E340.39355
G0 F3600 X126.944 Y127.51
G1 F1800 X120.358 Y120.923 E340.97444
G0 F3600 X120.36 Y120.36
G1 F1800 X127.513 Y127.513 E341.60529
G0 F3600 X128.081 Y127.515
G1 F1800 X120.363 Y119.797 E342.28598
G0 F3600 X120.365 Y119.233
G1 F1800 X128.648 Y127.517 E343.01654
G0 F3600 X129.217 Y127.52
G1 F1800 X120.367 Y118.67 E343.79705
G0 F3600 X120.37 Y118.107
G1 F1800 X129.785 Y127.522 E344.6274
G0 F3600 X130.353 Y127.525
G1 F1800 X120.372 Y117.543 E345.50771
G0 F3600 X120.375 Y116.98
G1 F1800 X130.921 Y127.527 E346.43785
G0 F3600 X131.489 Y127.529
G1 F1800 X120.377 Y116.417 E347.41787
G0 F3600 X120.379 Y115.854
G1 F1800 X132.057 Y127.532 E348.4478
G0 F3600 X132.625 Y127.534
G1 F1800 X120.382 Y115.29 E349.52761
G0 F3600 X120.384 Y114.727
G1 F1800 X133.194 Y127.537 E350.65738
G0 F3600 X133.761 Y127.539
G1 F1800 X120.387 Y114.164 E351.83693
G0 F3600 X120.389 Y113.6
G1 F1800 X134.329 Y127.541 E353.0664
G0 F3600 X134.898 Y127.544
G1 F1800 X120.391 Y113.037 E354.34584
G0 F3600 X120.394 Y112.474
G1 F1800 X135.466 Y127.546 E355.6751
G0 F3600 X136.034 Y127.549
G1 F1800 X120.396 Y111.91 E357.05433
G0 F3600 X120.398 Y111.347
G1 F1800 X136.602 Y127.551 E358.48343
G0 F3600 X137.17 Y127.553
G1 F1800 X120.401 Y110.784 E359.96235
G0 F3600 X120.403 Y110.22
G1 F1800 X137.738 Y127.556 E361.49125
G0 F3600 X138.306 Y127.558
G1 F1800 X120.405 Y109.657 E363.07001
G0 F3600 X120.408 Y109.094
G1 F1800 X138.875 Y127.561 E364.69869
G0 F3600 X139.442 Y127.563
G1 F1800 X120.41 Y108.53 E366.37725
G0 F3600 X120.412 Y107.967
G1 F1800 X140.01 Y127.565 E368.10568
G0 F3600 X140.579 Y127.568
G1 F1800 X120.415 Y107.404 E369.88403
G0 F3600 X120.417 Y106.841
G1 F1800 X141.146 Y127.57 E371.71221
G0 F3600 X141.715 Y127.573
G1 F1800 X120.419 Y106.277 E373.5904
G0 F3600 X120.422 Y105.714
G1 F1800 X142.283 Y127.575 E375.51841
G0 F3600 X142.851 Y127.578
G1 F1800 X120.424 Y105.151 E377.49634
G0 F3600 X120.426 Y104.587
G1 F1800 X143.419 Y127.58 E379.52419
G0 F3600 X143.987 Y127.582
G1 F1800 X120.429 Y104.024 E381.60187
G0 F3600 X120.431 Y103.461
G1 F1800 X144.555 Y127.585 E383.72947
G0 F3600 X145.123 Y127.587
G1 F1800 X120.433 Y102.897 E385.90699
G0 F3600 X120.436 Y102.334
