;FLAVOR:Marlin
;TIME:1007
;Filament used: 1.27441m
;Layer height: 0.2
;MINX:100.2
;MINY:100.2
;MINZ:0.3
;MAXX:119.8
;MAXY:119.8
;MAXZ:19.9
;Generated with Cura_SteamEngine 4.5.0
M140 S60
M105
M190 S60
M104 S200
M105
M109 S200
M82 ;absolute extrusion mode
G28 ;Home
G1 Z15.0 F6000 ;Move the platform down 15mm
;Prime the extruder
G92 E0
G1 F200 E3
G92 E0
G92 E0
G92 E0
G1 F1500 E-6.5
;LAYER_COUNT:99
;LAYER:0
M107
;MESH:2cmcube.stl
G0 F3600 X100.6 Y119.4 Z0.3
;TYPE:WALL-INNER
G1 F1500 E0
G1 F1800 X100.6 Y100.6 E0.93794
G1 X119.4 Y100.6 E1.87587
G1 X119.4 Y119.4 E2.81381
G1 X100.6 Y119.4 E3.75174
G0 F3600 X100.2 Y119.8
;TYPE:WALL-OUTER
G1 F1800 X100.2 Y100.2 E4.72959
G1 X119.8 Y100.2 E5.70744
G1 X119.8 Y119.8 E6.68529
G1 X100.2 Y119.8 E7.66314
G0 F3600 X100.2 Y119.6
G0 X100.99 Y119.01
;TYPE:SKIN
G1 F1800 X100.99 Y100.99 E8.56216
G1 X119.01 Y100.99 E9.46118
G1 X119.01 Y119.01 E10.3602
G1 X100.99 Y119.01 E11.25922
G0 F3600 X109.79 Y110.21
G1 F1800 X109.79 Y109.79 E11.28017
G1 X110.21 Y109.79 E11.30113
G1 X110.21 Y110.21 E11.32208
G1 X109.79 Y110.21 E11.34304
G0 F3600 X109.39 Y110.61
G1 F1800 X109.39 Y109.39 E11.4039
G1 X110.61 Y109.39 E11.46477
G1 X110.61 Y110.61 E11.52563
G1 X109.39 Y110.61 E11.5865
G0 F3600 X108.99 Y111.01
G1 F1800 X108.99 Y108.99 E11.68728
G1 X111.01 Y108.99 E11.78806
G1 X111.01 Y111.01 E11.88884
G1 X108.99 Y111.01 E11.98961
G0 F3600 X108.59 Y111.41
G1 F1800 X108.59 Y108.59 E12.1303
G1 X111.41 Y108.59 E12.27099
G1 X111.41 Y111.41 E12.41168
G1 X108.59 Y111.41 E12.55237
G0 F3600 X108.19 Y111.81
G1 F1800 X108.19 Y108.19 E12.73298
G1 X111.81 Y108.19 E12.91358
G1 X111.81 Y111.81 E13.09418
G1 X108.19 Y111.81 E13.27479
G0 F3600 X107.79 Y112.21
G1 F1800 X107.79 Y107.79 E13.4953
G1 X112.21 Y107.79 E13.71581
G1 X112.21 Y112.21 E13.93633
G1 X107.79 Y112.21 E14.15684
G0 F3600 X107.39 Y112.61
G1 F1800 X107.39 Y107.39 E14.41727
G1 X112.61 Y107.39 E14.6777
G1 X112.61 Y112.61 E14.93812
G1 X107.39 Y112.61 E15.19855
G0 F3600 X106.99 Y113.01
G1 F1800 X106.99 Y106.99 E15.49889
G1 X113.01 Y106.99 E15.79923
G1 X113.01 Y113.01 E16.09957
G1 X106.99 Y113.01 E16.39991
G0 F3600 X106.59 Y113.41
G1 F1800 X106.59 Y106.59 E16.74016
G1 X113.41 Y106.59 E17.08041
G1 X113.41 Y113.41 E17.42066
G1 X106.59 Y113.41 E17.76091
G0 F3600 X106.19 Y113.81
G1 F1800 X106.19 Y106.19 E18.14108
G1 X113.81 Y106.19 E18.52124
G1 X113.81 Y113.81 E18.9014
G1 X106.19 Y113.81 E19.28157
G0 F3600 X105.79 Y114.21
G1 F1800 X105.79 Y105.79 E19.70164
G1 X114.21 Y105.79 E20.12172
G1 X114.21 Y114.21 E20.54179
G1 X105.79 Y114.21 E20.96187
G0 F3600 X105.39 Y114.61
G1 F1800 X105.39 Y105.39 E21.42186
G1 X114.61 Y105.39 E21.88184
G1 X114.61 Y114.61 E22.34183
G1 X105.39 Y114.61 E22.80182
G0 F3600 X104.99 Y115.01
G1 F1800 X104.99 Y104.99 E23.30172
G1 X115.01 Y104.99 E23.80162
G1 X115.01 Y115.01 E24.30152
G1 X104.99 Y115.01 E24.80142
G0 F3600 X104.59 Y115.41
G1 F1800 X104.59 Y104.59 E25.34123
G1 X115.41 Y104.59 E25.88104
G1 X115.41 Y115.41 E26.42085
G1 X104.59 Y115.41 E26.96067
G0 F3600 X104.19 Y115.81
G1 F1800 X104.19 Y104.19 E27.54039
G1 X115.81 Y104.19 E28.12011
G1 X115.81 Y115.81 E28.69984
G1 X104.19 Y115.81 E29.27956
G0 F3600 X103.79 Y116.21
G1 F1800 X103.79 Y103.79 E29.8992
G1 X116.21 Y103.79 E30.51883
G1 X116.21 Y116.21 E31.13847
G1 X103.79 Y116.21 E31.75811
G0 F3600 X103.39 Y116.61
G1 F1800 X103.39 Y103.39 E32.41766
G1 X116.61 Y103.39 E33.0772
G1 X116.61 Y116.61 E33.73675
G1 X103.39 Y116.61 E34.3963
G0 F3600 X102.99 Y117.01
G1 F1800 X102.99 Y102.99 E35.09576
G1 X117.01 Y102.99 E35.79522
G1 X117.01 Y117.01 E36.49468
G1 X102.99 Y117.01 E37.19414
G0 F3600 X102.59 Y117.41
G1 F1800 X102.59 Y102.59 E37.93352
G1 X117.41 Y102.59 E38.67289
G1 X117.41 Y117.41 E39.41226
G1 X102.59 Y117.41 E40.15164
G0 F3600 X102.19 Y117.81
G1 F1800 X102.19 Y102.19 E40.93092
G1 X117.81 Y102.19 E41.7102
G1 X117.81 Y117.81 E42.48949
G1 X102.19 Y117.81 E43.26877
G0 F3600 X101.79 Y118.21
G1 F1800 X101.79 Y101.79 E44.08797
G1 X118.21 Y101.79 E44.90717
G1 X118.21 Y118.21 E45.72637
G1 X101.79 Y118.21 E46.54556
G0 F3600 X101.39 Y118.61
G1 F1800 X101.39 Y101.39 E47.40467
G1 X118.61 Y101.39 E48.26378
G1 X118.61 Y118.61 E49.12289
G1 X101.39 Y118.61 E49.982
;MESH:NONMESH
G0 F600 X101.39 Y118.61 Z0.5
G0 F3600 X100.67 Y119.33
G0 X100.6 Y119.4
;TIME_ELAPSED:38.703726
;LAYER:1
M140 S60
M106 S255
;TYPE:WALL-INNER
;MESH:2cmcube.stl
G1 F2700 X100.6 Y100.6 E50.60729
G1 X119.4 Y100.6 E51.23258
G1 X119.4 Y119.4 E51.85787
G1 X100.6 Y119.4 E52.48316
G0 F5400 X100.2 Y119.8
;TYPE:WALL-OUTER
G1 F1800 X100.2 Y100.2 E53.13506
G1 X119.8 Y100.2 E53.78696
G1 X119.8 Y119.8 E54.43886
G1 X100.2 Y119.8 E55.09076
G0 F5400 X100.2 Y119.6
G0 X100.99 Y119.01
;TYPE:SKIN
G1 F1800 X100.99 Y100.99 E55.6901
G1 X119.01 Y100.99 E56.28945
G1 X119.01 Y119.01 E56.8888
G1 X100.99 Y119.01 E57.48815
G0 F5400 X109.79 Y110.21
G1 F1800 X109.79 Y109.79 E57.50212
G1 X110.21 Y109.79 E57.51609
G1 X110.21 Y110.21 E57.53006
G1 X109.79 Y110.21 E57.54402
G0 F5400 X109.39 Y110.61
G1 F1800 X109.39 Y109.39 E57.5846
G1 X110.61 Y109.39 E57.62518
G1 X110.61 Y110.61 E57.66576
G1 X109.39 Y110.61 E57.70633
G0 F5400 X108.99 Y111.01
G1 F1800 X108.99 Y108.99 E57.77352
G1 X111.01 Y108.99 E57.84071
G1 X111.01 Y111.01 E57.90789
G1 X108.99 Y111.01 E57.97508
G0 F5400 X108.59 Y111.41
G1 F1800 X108.59 Y108.59 E58.06887
G1 X111.41 Y108.59 E58.16266
G1 X111.41 Y111.41 E58.25646
G1 X108.59 Y111.41 E58.35025
G0 F5400 X108.19 Y111.81
G1 F1800 X108.19 Y108.19 E58.47065
G1 X111.81 Y108.19 E58.59105
G1 X111.81 Y111.81 E58.71146
G1 X108.19 Y111.81 E58.83186
G0 F5400 X107.79 Y112.21
G1 F1800 X107.79 Y107.79 E58.97887
G1 X112.21 Y107.79 E59.12588
G1 X112.21 Y112.21 E59.27289
G1 X107.79 Y112.21 E59.4199
G0 F5400 X107.39 Y112.61
G1 F1800 X107.39 Y107.39 E59.59351
G1 X112.61 Y107.39 E59.76713
G1 X112.61 Y112.61 E59.94075
G1 X107.39 Y112.61 E60.11437
G0 F5400 X106.99 Y113.01
G1 F1800 X106.99 Y106.99 E60.31459
G1 X113.01 Y106.99 E60.51482
G1 X113.01 Y113.01 E60.71505
G1 X106.99 Y113.01 E60.91527
G0 F5400 X106.59 Y113.41
G1 F1800 X106.59 Y106.59 E61.14211
G1 X113.41 Y106.59 E61.36894
G1 X113.41 Y113.41 E61.59577
G1 X106.59 Y113.41 E61.82261
G0 F5400 X106.19 Y113.81
G1 F1800 X106.19 Y106.19 E62.07605
G1 X113.81 Y106.19 E62.32949
G1 X113.81 Y113.81 E62.58294
G1 X106.19 Y113.81 E62.83638
G0 F5400 X105.79 Y114.21
G1 F1800 X105.79 Y105.79 E63.11643
G1 X114.21 Y105.79 E63.39648
G1 X114.21 Y114.21 E63.67653
G1 X105.79 Y114.21 E63.95658
G0 F5400 X105.39 Y114.61
G1 F1800 X105.39 Y105.39 E64.26324
G1 X114.61 Y105.39 E64.5699
G1 X114.61 Y114.61 E64.87655
G1 X105.39 Y114.61 E65.18321
G0 F5400 X104.99 Y115.01
G1 F1800 X104.99 Y104.99 E65.51648
G1 X115.01 Y104.99 E65.84975
G1 X115.01 Y115.01 E66.18301
G1 X104.99 Y115.01 E66.51628
G0 F5400 X104.59 Y115.41
G1 F1800 X104.59 Y104.59 E66.87615
G1 X115.41 Y104.59 E67.23603
G1 X115.41 Y115.41 E67.5959
G1 X104.59 Y115.41 E67.95578
G0 F5400 X104.19 Y115.81
G1 F1800 X104.19 Y104.19 E68.34226
G1 X115.81 Y104.19 E68.72874
G1 X115.81 Y115.81 E69.11523
G1 X104.19 Y115.81 E69.50171
G0 F5400 X103.79 Y116.21
G1 F1800 X103.79 Y103.79 E69.9148
G1 X116.21 Y103.79 E70.32789
G1 X116.21 Y116.21 E70.74098
G1 X103.79 Y116.21 E71.15407
G0 F5400 X103.39 Y116.61
G1 F1800 X103.39 Y103.39 E71.59377
G1 X116.61 Y103.39 E72.03347
G1 X116.61 Y116.61 E72.47317
G1 X103.39 Y116.61 E72.91287
G0 F5400 X102.99 Y117.01
G1 F1800 X102.99 Y102.99 E73.37918
G1 X117.01 Y102.99 E73.84548
G1 X117.01 Y117.01 E74.31179
G1 X102.99 Y117.01 E74.7781
G0 F5400 X102.59 Y117.41
G1 F1800 X102.59 Y102.59 E75.27101
G1 X117.41 Y102.59 E75.76393
G1 X117.41 Y117.41 E76.25684
G1 X102.59 Y117.41 E76.74976
G0 F5400 X102.19 Y117.81
G1 F1800 X102.19 Y102.19 E77.26928
G1 X117.81 Y102.19 E77.7888
G1 X117.81 Y117.81 E78.30833
G1 X102.19 Y117.81 E78.82785
G0 F5400 X101.79 Y118.21
G1 F1800 X101.79 Y101.79 E79.37398
G1 X118.21 Y101.79 E79.92011
G1 X118.21 Y118.21 E80.46624
G1 X101.79 Y118.21 E81.01238
G0 F5400 X101.39 Y118.61
G1 F1800 X101.39 Y101.39 E81.58512
G1 X118.61 Y101.39 E82.15786
G1 X118.61 Y118.61 E82.73059
G1 X101.39 Y118.61 E83.30333
;MESH:NONMESH
G0 F600 X101.39 Y118.61 Z0.7
G0 F5400 X100.67 Y119.33
G0 X100.6 Y119.4
;TIME_ELAPSED:72.176701
;LAYER:2
;TYPE:WALL-INNER
;MESH:2cmcube.stl
G1 F3600 X100.6 Y100.6 E83.92862
G1 X119.4 Y100.6 E84.55392
G1 X119.4 Y119.4 E85.17921
G1 X100.6 Y119.4 E85.8045
G0 F7200 X100.2 Y119.8
;TYPE:WALL-OUTER
G1 F1800 X100.2 Y100.2 E86.4564
G1 X119.8 Y100.2 E87.10829
G1 X119.8 Y119.8 E87.76019
G1 X100.2 Y119.8 E88.41209
G0 F7200 X100.2 Y119.6
G0 X100.99 Y119.01
;TYPE:SKIN
G1 F1800 X100.99 Y100.99 E89.01144
G1 X119.01 Y100.99 E89.61079
G1 X119.01 Y119.01 E90.21013
G1 X100.99 Y119.01 E90.80948
G0 F7200 X109.79 Y110.21
G1 F1800 X109.79 Y109.79 E90.82345
G1 X110.21 Y109.79 E90.83742
G1 X110.21 Y110.21 E90.85139
G1 X109.79 Y110.21 E90.86536
G0 F7200 X109.39 Y110.61
G1 F1800 X109.39 Y109.39 E90.90594
G1 X110.61 Y109.39 E90.94651
G1 X110.61 Y110.61 E90.98709
G1 X109.39 Y110.61 E91.02767
G0 F7200 X108.99 Y111.01
G1 F1800 X108.99 Y108.99 E91.09485
G1 X111.01 Y108.99 E91.16204
G1 X111.01 Y111.01 E91.22922
G1 X108.99 Y111.01 E91.29641
G0 F7200 X108.59 Y111.41
G1 F1800 X108.59 Y108.59 E91.3902
G1 X111.41 Y108.59 E91.484
G1 X111.41 Y111.41 E91.57779
G1 X108.59 Y111.41 E91.67158
G0 F7200 X108.19 Y111.81
G1 F1800 X108.19 Y108.19 E91.79199
G1 X111.81 Y108.19 E91.91239
G1 X111.81 Y111.81 E92.03279
G1 X108.19 Y111.81 E92.15319
G0 F7200 X107.79 Y112.21
G1 F1800 X107.79 Y107.79 E92.3002
G1 X112.21 Y107.79 E92.44721
G1 X112.21 Y112.21 E92.59422
G1 X107.79 Y112.21 E92.74123
G0 F7200 X107.39 Y112.61
G1 F1800 X107.39 Y107.39 E92.91485
G1 X112.61 Y107.39 E93.08847
G1 X112.61 Y112.61 E93.26208
G1 X107.39 Y112.61 E93.4357
G0 F7200 X106.99 Y113.01
G1 F1800 X106.99 Y106.99 E93.63593
G1 X113.01 Y106.99 E93.83615
G1 X113.01 Y113.01 E94.03638
G1 X106.99 Y113.01 E94.23661
G0 F7200 X106.59 Y113.41
G1 F1800 X106.59 Y106.59 E94.46344
G1 X113.41 Y106.59 E94.69027
G1 X113.41 Y113.41 E94.91711
G1 X106.59 Y113.41 E95.14394
G0 F7200 X106.19 Y113.81
G1 F1800 X106.19 Y106.19 E95.39738
G1 X113.81 Y106.19 E95.65083
G1 X113.81 Y113.81 E95.90427
G1 X106.19 Y113.81 E96.15771
G0 F7200 X105.79 Y114.21
G1 F1800 X105.79 Y105.79 E96.43776
G1 X114.21 Y105.79 E96.71781
G1 X114.21 Y114.21 E96.99786
G1 X105.79 Y114.21 E97.27791
G0 F7200 X105.39 Y114.61
G1 F1800 X105.39 Y105.39 E97.58457
G1 X114.61 Y105.39 E97.89123
G1 X114.61 Y114.61 E98.19789
G1 X105.39 Y114.61 E98.50455
G0 F7200 X104.99 Y115.01
G1 F1800 X104.99 Y104.99 E98.83781
G1 X115.01 Y104.99 E99.17108
G1 X115.01 Y115.01 E99.50435
G1 X104.99 Y115.01 E99.83761
G0 F7200 X104.59 Y115.41
G1 F1800 X104.59 Y104.59 E100.19749
G1 X115.41 Y104.59 E100.55736
G1 X115.41 Y115.41 E100.91724
G1 X104.59 Y115.41 E101.27711
G0 F7200 X104.19 Y115.81
G1 F1800 X104.19 Y104.19 E101.66359
G1 X115.81 Y104.19 E102.05008
G1 X115.81 Y115.81 E102.43656
G1 X104.19 Y115.81 E102.82304
G0 F7200 X103.79 Y116.21
G1 F1800 X103.79 Y103.79 E103.23613
G1 X116.21 Y103.79 E103.64922
G1 X116.21 Y116.21 E104.06231
G1 X103.79 Y116.21 E104.47541
G0 F7200 X103.39 Y116.61
G1 F1800 X103.39 Y103.39 E104.9151
G1 X116.61 Y103.39 E105.3548
G1 X116.61 Y116.61 E105.7945
G1 X103.39 Y116.61 E106.2342
G0 F7200 X102.99 Y117.01
G1 F1800 X102.99 Y102.99 E106.70051
G1 X117.01 Y102.99 E107.16682
G1 X117.01 Y117.01 E107.63312
G1 X102.99 Y117.01 E108.09943
G0 F7200 X102.59 Y117.41
G1 F1800 X102.59 Y102.59 E108.59235
G1 X117.41 Y102.59 E109.08526
G1 X117.41 Y117.41 E109.57818
G1 X102.59 Y117.41 E110.07109
G0 F7200 X102.19 Y117.81
G1 F1800 X102.19 Y102.19 E110.59061
G1 X117.81 Y102.19 E111.11014
G1 X117.81 Y117.81 E111.62966
G1 X102.19 Y117.81 E112.14918
G0 F7200 X101.79 Y118.21
G1 F1800 X101.79 Y101.79 E112.69532
G1 X118.21 Y101.79 E113.24145
G1 X118.21 Y118.21 E113.78758
G1 X101.79 Y118.21 E114.33371
G0 F7200 X101.39 Y118.61
G1 F1800 X101.39 Y101.39 E114.90645
G1 X118.61 Y101.39 E115.47919
G1 X118.61 Y118.61 E116.05193
G1 X101.39 Y118.61 E116.62467
;MESH:NONMESH
G0 F600 X101.39 Y118.61 Z0.9
G0 F7200 X100.67 Y119.33
G0 X100.6 Y119.4
;TIME_ELAPSED:105.232116
;LAYER:3
;TYPE:WALL-INNER
;MESH:2cmcube.stl
G1 F3600 X100.6 Y100.6 E117.24996
G1 X119.4 Y100.6 E117.87525
G1 X119.4 Y119.4 E118.50054
G1 X100.6 Y119.4 E119.12583
G0 F7200 X100.2 Y119.8
;TYPE:WALL-OUTER
G1 F1800 X100.2 Y100.2 E119.77773
G1 X119.8 Y100.2 E120.42963
G1 X119.8 Y119.8 E121.08153
G1 X100.2 Y119.8 E121.73342
G0 F7200 X100.2 Y119.6
G0 X100.99 Y119.01
;TYPE:SKIN
G1 F1800 X100.99 Y100.99 E122.33277
G1 X119.01 Y100.99 E122.93212
G1 X119.01 Y119.01 E123.53147
G1 X100.99 Y119.01 E124.13082
G0 F7200 X109.79 Y110.21
G1 F1800 X109.79 Y109.79 E124.14478
G1 X110.21 Y109.79 E124.15875
G1 X110.21 Y110.21 E124.17272
G1 X109.79 Y110.21 E124.18669
G0 F7200 X109.39 Y110.61
G1 F1800 X109.39 Y109.39 E124.22727
G1 X110.61 Y109.39 E124.26785
G1 X110.61 Y110.61 E124.30842
G1 X109.39 Y110.61 E124.349
G0 F7200 X108.99 Y111.01
G1 F1800 X108.99 Y108.99 E124.41619
G1 X111.01 Y108.99 E124.48337
G1 X111.01 Y111.01 E124.55056
G1 X108.99 Y111.01 E124.61774
G0 F7200 X108.59 Y111.41
G1 F1800 X108.59 Y108.59 E124.71154
G1 X111.41 Y108.59 E124.80533
G1 X111.41 Y111.41 E124.89912
G1 X108.59 Y111.41 E124.99292
G0 F7200 X108.19 Y111.81
G1 F1800 X108.19 Y108.19 E125.11332
G1 X111.81 Y108.19 E125.23372
G1 X111.81 Y111.81 E125.35412
G1 X108.19 Y111.81 E125.47452
G0 F7200 X107.79 Y112.21
G1 F1800 X107.79 Y107.79 E125.62153
G1 X112.21 Y107.79 E125.76854
G1 X112.21 Y112.21 E125.91555
G1 X107.79 Y112.21 E126.06256
G0 F7200 X107.39 Y112.61
G1 F1800 X107.39 Y107.39 E126.23618
G1 X112.61 Y107.39 E126.4098
G1 X112.61 Y112.61 E126.58342
G1 X107.39 Y112.61 E126.75704
G0 F7200 X106.99 Y113.01
G1 F1800 X106.99 Y106.99 E126.95726
G1 X113.01 Y106.99 E127.15749
G1 X113.01 Y113.01 E127.35771
G1 X106.99 Y113.01 E127.55794
G0 F7200 X106.59 Y113.41
G1 F1800 X106.59 Y106.59 E127.78477
G1 X113.41 Y106.59 E128.01161
G1 X113.41 Y113.41 E128.23844
G1 X106.59 Y113.41 E128.46528
G0 F7200 X106.19 Y113.81
G1 F1800 X106.19 Y106.19 E128.71872
G1 X113.81 Y106.19 E128.97216
G1 X113.81 Y113.81 E129.2256
G1 X106.19 Y113.81 E129.47904
G0 F7200 X105.79 Y114.21
G1 F1800 X105.79 Y105.79 E129.7591
G1 X114.21 Y105.79 E130.03915
G1 X114.21 Y114.21 E130.3192
G1 X105.79 Y114.21 E130.59925
G0 F7200 X105.39 Y114.61
G1 F1800 X105.39 Y105.39 E130.9059
G1 X114.61 Y105.39 E131.21256
G1 X114.61 Y114.61 E131.51922
G1 X105.39 Y114.61 E131.82588
G0 F7200 X104.99 Y115.01
G1 F1800 X104.99 Y104.99 E132.15915
G1 X115.01 Y104.99 E132.49241
G1 X115.01 Y115.01 E132.82568
G1 X104.99 Y115.01 E133.15895
G0 F7200 X104.59 Y115.41
G1 F1800 X104.59 Y104.59 E133.51882
G1 X115.41 Y104.59 E133.8787
G1 X115.41 Y115.41 E134.23857
G1 X104.59 Y115.41 E134.59844
G0 F7200 X104.19 Y115.81
G1 F1800 X104.19 Y104.19 E134.98493
G1 X115.81 Y104.19 E135.37141
G1 X115.81 Y115.81 E135.75789
G1 X104.19 Y115.81 E136.14438
G0 F7200 X103.79 Y116.21
G1 F1800 X103.79 Y103.79 E136.55747
G1 X116.21 Y103.79 E136.97056
G1 X116.21 Y116.21 E137.38365
G1 X103.79 Y116.21 E137.79674
G0 F7200 X103.39 Y116.61
G1 F1800 X103.39 Y103.39 E138.23644
G1 X116.61 Y103.39 E138.67614
G1 X116.61 Y116.61 E139.11584
G1 X103.39 Y116.61 E139.55554
G0 F7200 X102.99 Y117.01
G1 F1800 X102.99 Y102.99 E140.02184
G1 X117.01 Y102.99 E140.48815
G1 X117.01 Y117.01 E140.95446
G1 X102.99 Y117.01 E141.42076
G0 F7200 X102.59 Y117.41
G1 F1800 X102.59 Y102.59 E141.91368
G1 X117.41 Y102.59 E142.40659
G1 X117.41 Y117.41 E142.89951
G1 X102.59 Y117.41 E143.39242
G0 F7200 X102.19 Y117.81
G1 F1800 X102.19 Y102.19 E143.91195
G1 X117.81 Y102.19 E144.43147
G1 X117.81 Y117.81 E144.95099
G1 X102.19 Y117.81 E145.47052
G0 F7200 X101.79 Y118.21
G1 F1800 X101.79 Y101.79 E146.01665
G1 X118.21 Y101.79 E146.56278
G1 X118.21 Y118.21 E147.10891
G1 X101.79 Y118.21 E147.65504
G0 F7200 X101.39 Y118.61
G1 F1800 X101.39 Y101.39 E148.22778
G1 X118.61 Y101.39 E148.80052
G1 X118.61 Y118.61 E149.37326
G1 X101.39 Y118.61 E149.946
;MESH:NONMESH
G0 F600 X101.39 Y118.61 Z1.1
G0 F7200 X100.759 Y100.759
;TIME_ELAPSED:138.432940
;LAYER:4
;TYPE:FILL
;MESH:2cmcube.stl
G1 F3600 X119.239 Y119.239 E150.81524
G1 X119.309 Y119.309
G0 F7200 X119.3 Y119.309
G0 X117.73 Y119.239
