;FLAVOR:Marlin
;TIME:1086
;Filament used: 1.3803m
;Layer height: 0.2
;MINX:92.2
;MINY:92.2
;MINZ:0.3
;MAXX:127.8
;MAXY:127.8
;MAXZ:19.9
;Generated with Cura_SteamEngine 4.5.0
M140 S60
M105
M190 S60
M104 S200
M105
M109 S200
M82 ;absolute extrusion mode
G28 ;Home
G1 Z15.0 F6000 ;Move the platform down 15mm
;Prime the extruder
G92 E0
G1 F200 E3
G92 E0
G92 E0
G92 E0
G1 F1500 E-6.5
;LAYER_COUNT:99
;LAYER:0
M107
G0 F3600 X94.623 Y94.349 Z0.3
;TYPE:SKIRT
G1 F1500 E0
G1 F1800 X95.222 Y93.834 E0.03941
G1 X95.87 Y93.383 E0.0788
G1 X96.561 Y92.999 E0.11824
G1 X97.286 Y92.687 E0.15762
G1 X98.039 Y92.45 E0.197
G1 X98.813 Y92.291 E0.23642
G1 X99.598 Y92.21 E0.27579
G1 X120 Y92.2 E1.29365
G1 X120.789 Y92.24 E1.33307
G1 X121.569 Y92.359 E1.37243
G1 X122.334 Y92.557 E1.41186
G1 X123.074 Y92.831 E1.45122
G1 X123.783 Y93.179 E1.49063
G1 X124.454 Y93.597 E1.53007
G1 X125.078 Y94.08 E1.56944
G1 X125.651 Y94.623 E1.60882
G1 X126.166 Y95.222 E1.64823
G1 X126.617 Y95.87 E1.68762
G1 X127.001 Y96.561 E1.72706
G1 X127.313 Y97.286 E1.76644
G1 X127.55 Y98.039 E1.80582
G1 X127.709 Y98.813 E1.84524
G1 X127.79 Y99.598 E1.88461
G1 X127.8 Y120 E2.90247
G1 X127.76 Y120.789 E2.94189
G1 X127.641 Y121.569 E2.98125
G1 X127.443 Y122.334 E3.02068
G1 X127.169 Y123.074 E3.06004
G1 X126.821 Y123.783 E3.09945
G1 X126.403 Y124.454 E3.13889
G1 X125.92 Y125.078 E3.17826
G1 X125.377 Y125.651 E3.21764
G1 X124.778 Y126.166 E3.25705
G1 X124.13 Y126.617 E3.29644
G1 X123.439 Y127.001 E3.33588
G1 X122.714 Y127.313 E3.37526
G1 X121.961 Y127.55 E3.41464
G1 X121.187 Y127.709 E3.45406
G1 X120.402 Y127.79 E3.49343
G1 X100 Y127.8 E4.51129
G1 X99.211 Y127.76 E4.55071
G1 X98.431 Y127.641 E4.59007
G1 X97.666 Y127.443 E4.6295
G1 X96.926 Y127.169 E4.66886
G1 X96.217 Y126.821 E4.70827
G1 X95.546 Y126.403 E4.74771
G1 X94.922 Y125.92 E4.78708
G1 X94.349 Y125.377 E4.82646
G1 X93.834 Y124.778 E4.86587
G1 X93.383 Y124.13 E4.90526
G1 X92.999 Y123.439 E4.9447
G1 X92.687 Y122.714 E4.98408
G1 X92.45 Y121.961 E5.02346
G1 X92.291 Y121.187 E5.06288
G1 X92.21 Y120.402 E5.10225
G1 X92.2 Y100 E6.12011
G1 X92.24 Y99.211 E6.15953
G1 X92.359 Y98.431 E6.19889
G1 X92.557 Y97.666 E6.23832
G1 X92.831 Y96.926 E6.27768
G1 X93.179 Y96.217 E6.31709
G1 X93.597 Y95.546 E6.35653
G1 X94.08 Y94.922 E6.3959
G1 X94.623 Y94.349 E6.43528
G0 F3600 X95.016 Y94.53
G1 F1800 X95.611 Y94.042 E6.47367
G1 X96.253 Y93.619 E6.51203
G1 X96.936 Y93.264 E6.55043
G1 X97.651 Y92.983 E6.58876
G1 X98.393 Y92.777 E6.62718
G1 X99.151 Y92.649 E6.66553
G1 X100 Y92.6 E6.70796
G1 X120 Y92.6 E7.70576
G1 X120.768 Y92.64 E7.74413
G1 X121.528 Y92.759 E7.78251
G1 X122.271 Y92.957 E7.82087
G1 X122.99 Y93.231 E7.85926
G1 X123.676 Y93.578 E7.89761
G1 X124.323 Y93.994 E7.93599
G1 X124.923 Y94.475 E7.97435
G1 X125.47 Y95.016 E8.01273
G1 X125.958 Y95.611 E8.05113
G1 X126.381 Y96.253 E8.08948
G1 X126.736 Y96.936 E8.12789
G1 X127.017 Y97.651 E8.16621
G1 X127.223 Y98.393 E8.20463
G1 X127.351 Y99.151 E8.24298
G1 X127.4 Y100 E8.28541
G1 X127.4 Y120 E9.28322
G1 X127.36 Y120.768 E9.32158
G1 X127.241 Y121.528 E9.35996
G1 X127.043 Y122.271 E9.39832
G1 X126.769 Y122.99 E9.43671
G1 X126.422 Y123.676 E9.47507
G1 X126.006 Y124.323 E9.51344
G1 X125.525 Y124.923 E9.55181
G1 X124.984 Y125.47 E9.59019
G1 X124.389 Y125.958 E9.62858
G1 X123.747 Y126.381 E9.66694
G1 X123.064 Y126.736 E9.70534
G1 X122.349 Y127.017 E9.74367
G1 X121.607 Y127.223 E9.78209
G1 X120.849 Y127.351 E9.82044
G1 X120 Y127.4 E9.86287
G1 X100 Y127.4 E10.86067
G1 X99.232 Y127.36 E10.89904
G1 X98.472 Y127.241 E10.93742
G1 X97.729 Y127.043 E10.97578
G1 X97.01 Y126.769 E11.01417
G1 X96.324 Y126.422 E11.05252
G1 X95.677 Y126.006 E11.0909
G1 X95.077 Y125.525 E11.12926
G1 X94.53 Y124.984 E11.16764
G1 X94.042 Y124.389 E11.20604
G1 X93.619 Y123.747 E11.24439
G1 X93.264 Y123.064 E11.2828
G1 X92.983 Y122.349 E11.32112
G1 X92.777 Y121.607 E11.35954
G1 X92.649 Y120.849 E11.39789
G1 X92.6 Y120 E11.44032
G1 X92.6 Y100 E12.43813
G1 X92.64 Y99.232 E12.47649
G1 X92.759 Y98.472 E12.51487
G1 X92.957 Y97.729 E12.55323
G1 X93.231 Y97.01 E12.59162
G1 X93.578 Y96.324 E12.62997
G1 X93.994 Y95.677 E12.66835
G1 X94.475 Y95.077 E12.70672
G1 X95.016 Y94.53 E12.7451
G0 F3600 X95.408 Y94.716
G1 F1800 X95.998 Y94.257 E12.78239
G1 X96.634 Y93.862 E12.81974
G1 X97.308 Y93.538 E12.85705
G1 X98.013 Y93.288 E12.89437
G1 X98.741 Y93.114 E12.93172
G1 X99.483 Y93.019 E12.96904
G1 X100 Y93 E12.99485
G1 X120 Y93 E13.99265
G1 X120.747 Y93.04 E14.02997
G1 X121.485 Y93.159 E14.06727
G1 X122.207 Y93.357 E14.10462
G1 X122.903 Y93.63 E14.14192
G1 X123.566 Y93.977 E14.17925
G1 X124.189 Y94.392 E14.2166
G1 X124.763 Y94.871 E14.25389
G1 X125.284 Y95.408 E14.29122
G1 X125.743 Y95.998 E14.32852
G1 X126.138 Y96.634 E14.36587
G1 X126.462 Y97.308 E14.40318
G1 X126.712 Y98.013 E14.4405
G1 X126.886 Y98.741 E14.47784
G1 X126.981 Y99.483 E14.51516
G1 X127 Y100 E14.54097
G1 X127 Y120 E15.53877
G1 X126.96 Y120.747 E15.5761
G1 X126.841 Y121.485 E15.61339
G1 X126.643 Y122.207 E15.65074
G1 X126.37 Y122.903 E15.68804
G1 X126.023 Y123.566 E15.72537
G1 X125.608 Y124.189 E15.76272
G1 X125.129 Y124.763 E15.80002
G1 X124.592 Y125.284 E15.83735
G1 X124.002 Y125.743 E15.87464
G1 X123.366 Y126.138 E15.91199
G1 X122.692 Y126.462 E15.9493
G1 X121.987 Y126.712 E15.98662
G1 X121.259 Y126.886 E16.02396
G1 X120.517 Y126.981 E16.06128
G1 X120 Y127 E16.08709
G1 X100 Y127 E17.0849
G1 X99.253 Y126.96 E17.12222
G1 X98.515 Y126.841 E17.15951
G1 X97.793 Y126.643 E17.19687
G1 X97.097 Y126.37 E17.23416
G1 X96.434 Y126.023 E17.2715
G1 X95.811 Y125.608 E17.30884
G1 X95.237 Y125.129 E17.34614
G1 X94.716 Y124.592 E17.38347
G1 X94.257 Y124.002 E17.42076
G1 X93.862 Y123.366 E17.45812
G1 X93.538 Y122.692 E17.49543
G1 X93.288 Y121.987 E17.53274
G1 X93.114 Y121.259 E17.57009
G1 X93.019 Y120.517 E17.60741
G1 X93 Y120 E17.63322
G1 X93 Y100 E18.63102
G1 X93.04 Y99.253 E18.66834
G1 X93.159 Y98.515 E18.70564
G1 X93.357 Y97.793 E18.74299
G1 X93.63 Y97.097 E18.78029
G1 X93.977 Y96.434 E18.81762
G1 X94.392 Y95.811 E18.85497
G1 X94.871 Y95.237 E18.89227
G1 X95.408 Y94.716 E18.92959
G0 F3600 X95.265 Y95.402
G1 F1800 X95.799 Y94.909 E18.96585
G1 X96.384 Y94.479 E19.00208
G1 X97.013 Y94.115 E19.03833
G1 X97.678 Y93.822 E19.07459
G1 X98.371 Y93.604 E19.11083
G1 X99.083 Y93.464 E19.14703
G1 X100 Y93.4 E19.19289
G1 X120 Y93.4 E20.1907
G1 X120.725 Y93.44 E20.22692
G1 X121.442 Y93.559 E20.26318
G1 X122.141 Y93.757 E20.29943
G1 X122.814 Y94.03 E20.33566
G1 X123.453 Y94.375 E20.37189
G1 X124.05 Y94.789 E20.40814
G1 X124.598 Y95.265 E20.44435
G1 X125.091 Y95.799 E20.48061
G1 X125.521 Y96.384 E20.51683
G1 X125.885 Y97.013 E20.55309
G1 X126.178 Y97.678 E20.58934
G1 X126.396 Y98.371 E20.62559
G1 X126.536 Y99.083 E20.66179
G1 X126.6 Y100 E20.70765
G1 X126.6 Y120 E21.70545
G1 X126.56 Y120.725 E21.74168
G1 X126.441 Y121.442 E21.77794
G1 X126.243 Y122.141 E21.81419
G1 X125.97 Y122.814 E21.85042
G1 X125.625 Y123.453 E21.88665
G1 X125.211 Y124.05 E21.92289
G1 X124.735 Y124.598 E21.95911
G1 X124.201 Y125.091 E21.99537
G1 X123.616 Y125.521 E22.03159
G1 X122.987 Y125.885 E22.06785
G1 X122.322 Y126.178 E22.1041
G1 X121.629 Y126.396 E22.14034
G1 X120.917 Y126.536 E22.17655
G1 X120 Y126.6 E22.22241
G1 X100 Y126.6 E23.22021
G1 X99.275 Y126.56 E23.25644
G1 X98.558 Y126.441 E23.2927
G1 X97.859 Y126.243 E23.32894
G1 X97.186 Y125.97 E23.36518
G1 X96.547 Y125.625 E23.40141
G1 X95.95 Y125.211 E23.43765
G1 X95.402 Y124.735 E23.47386
G1 X94.909 Y124.201 E23.51012
G1 X94.479 Y123.616 E23.54635
G1 X94.115 Y122.987 E23.5826
G1 X93.822 Y122.322 E23.61886
G1 X93.604 Y121.629 E23.6551
G1 X93.464 Y120.917 E23.6913
G1 X93.4 Y120 E23.73716
G1 X93.4 Y100 E24.73497
G1 X93.44 Y99.275 E24.77119
G1 X93.559 Y98.558 E24.80745
G1 X93.757 Y97.859 E24.8437
G1 X94.03 Y97.186 E24.87993
G1 X94.375 Y96.547 E24.91616
G1 X94.789 Y95.95 E24.95241
G1 X95.265 Y95.402 E24.98862
G0 F3600 X95.659 Y95.573
G1 F1800 X96.189 Y95.109 E25.02376
G1 X96.768 Y94.709 E25.05887
G1 X97.389 Y94.377 E25.094
G1 X98.043 Y94.117 E25.12912
G1 X98.723 Y93.933 E25.16426
G1 X99.419 Y93.827 E25.19939
G1 X100 Y93.8 E25.2284
G1 X120 Y93.8 E26.22621
G1 X120.703 Y93.84 E26.26134
G1 X121.397 Y93.959 E26.29647
G1 X122.072 Y94.157 E26.33156
G1 X122.721 Y94.429 E26.36667
G1 X123.335 Y94.774 E26.40181
G1 X123.906 Y95.185 E26.43691
G1 X124.427 Y95.659 E26.47205
G1 X124.891 Y96.189 E26.50719
G1 X125.291 Y96.768 E26.5423
G1 X125.623 Y97.389 E26.57743
G1 X125.883 Y98.043 E26.61254
G1 X126.067 Y98.723 E26.64769
G1 X126.173 Y99.419 E26.68281
G1 X126.2 Y100 E26.71183
G1 X126.2 Y120 E27.70963
G1 X126.16 Y120.703 E27.74476
G1 X126.041 Y121.397 E27.77989
G1 X125.843 Y122.072 E27.81499
G1 X125.571 Y122.721 E27.85009
G1 X125.226 Y123.335 E27.88523
G1 X124.815 Y123.906 E27.92033
G1 X124.341 Y124.427 E27.95547
G1 X123.811 Y124.891 E27.99061
G1 X123.232 Y125.291 E28.02572
G1 X122.611 Y125.623 E28.06085
G1 X121.957 Y125.883 E28.09597
G1 X121.277 Y126.067 E28.13111
G1 X120.581 Y126.173 E28.16624
G1 X120 Y126.2 E28.19525
G1 X100 Y126.2 E29.19306
G1 X99.297 Y126.16 E29.22819
G1 X98.603 Y126.041 E29.26332
G1 X97.928 Y125.843 E29.29841
G1 X97.279 Y125.571 E29.33352
G1 X96.665 Y125.226 E29.36866
G1 X96.094 Y124.815 E29.40376
G1 X95.573 Y124.341 E29.4389
G1 X95.109 Y123.811 E29.47404
G1 X94.709 Y123.232 E29.50915
G1 X94.377 Y122.611 E29.54428
G1 X94.117 Y121.957 E29.57939
G1 X93.933 Y121.277 E29.61454
G1 X93.827 Y120.581 E29.64966
G1 X93.8 Y120 E29.67868
G1 X93.8 Y100 E30.67648
G1 X93.84 Y99.297 E30.71161
G1 X93.959 Y98.603 E30.74674
G1 X94.157 Y97.928 E30.78184
G1 X94.429 Y97.279 E30.81694
G1 X94.774 Y96.665 E30.85208
G1 X95.185 Y96.094 E30.88718
G1 X95.659 Y95.573 E30.92232
G0 F3600 X96.053 Y95.751
G1 F1800 X96.578 Y95.317 E30.9563
G1 X97.15 Y94.948 E30.99026
G1 X97.762 Y94.649 E31.02425
G1 X98.404 Y94.424 E31.05819
G1 X99.069 Y94.275 E31.09219
G1 X100 Y94.2 E31.13878
G1 X120 Y94.2 E32.13659
G1 X120.68 Y94.24 E32.17057
G1 X121.35 Y94.359 E32.20452
G1 X122.002 Y94.556 E32.2385
G1 X122.626 Y94.828 E32.27246
G1 X123.214 Y95.172 E32.30645
G1 X123.758 Y95.582 E32.34043
G1 X124.249 Y96.053 E32.37438
G1 X124.683 Y96.578 E32.40836
G1 X125.052 Y97.15 E32.44232
G1 X125.351 Y97.762 E32.4763
G1 X125.576 Y98.404 E32.51024
G1 X125.725 Y99.069 E32.54424
G1 X125.8 Y100 E32.59084
G1 X125.8 Y120 E33.58865
G1 X125.76 Y120.68 E33.62263
G1 X125.641 Y121.35 E33.65658
G1 X125.444 Y122.002 E33.69056
G1 X125.172 Y122.626 E33.72452
G1 X124.828 Y123.214 E33.75851
G1 X124.418 Y123.758 E33.79249
G1 X123.947 Y124.249 E33.82644
G1 X123.422 Y124.683 E33.86042
G1 X122.85 Y125.052 E33.89438
G1 X122.238 Y125.351 E33.92836
G1 X121.596 Y125.576 E33.9623
G1 X120.931 Y125.725 E33.9963
G1 X120 Y125.8 E34.0429
G1 X100 Y125.8 E35.0407
G1 X99.32 Y125.76 E35.07469
G1 X98.65 Y125.641 E35.10864
G1 X97.998 Y125.444 E35.14262
G1 X97.374 Y125.172 E35.17658
G1 X96.786 Y124.828 E35.21057
G1 X96.242 Y124.418 E35.24455
G1 X95.751 Y123.947 E35.2785
G1 X95.317 Y123.422 E35.31248
G1 X94.948 Y122.85 E35.34644
G1 X94.649 Y122.238 E35.38042
G1 X94.424 Y121.596 E35.41436
G1 X94.275 Y120.931 E35.44836
G1 X94.2 Y120 E35.49496
G1 X94.2 Y100 E36.49276
G1 X94.24 Y99.32 E36.52675
G1 X94.359 Y98.65 E36.5607
G1 X94.556 Y97.998 E36.59468
G1 X94.828 Y97.374 E36.62864
G1 X95.172 Y96.786 E36.66262
G1 X95.582 Y96.242 E36.69661
G1 X96.053 Y95.751 E36.73055
G0 F3600 X96.445 Y95.935
G1 F1800 X96.965 Y95.534 E36.76331
G1 X97.529 Y95.198 E36.79607
G1 X98.131 Y94.934 E36.82886
G1 X98.76 Y94.744 E36.86164
G1 X99.407 Y94.633 E36.89439
G1 X100 Y94.6 E36.92403
G1 X120 Y94.6 E37.92183
G1 X120.656 Y94.64 E37.95462
G1 X121.302 Y94.759 E37.98739
G1 X121.929 Y94.956 E38.02018
G1 X122.527 Y95.228 E38.05295
G1 X123.088 Y95.57 E38.08573
G1 X123.603 Y95.978 E38.11851
G1 X124.065 Y96.445 E38.15129
G1 X124.466 Y96.965 E38.18405
G1 X124.802 Y97.529 E38.2168
G1 X125.066 Y98.131 E38.24959
G1 X125.256 Y98.76 E38.28238
G1 X125.367 Y99.407 E38.31513
G1 X125.4 Y100 E38.34476
G1 X125.4 Y120 E39.34256
G1 X125.36 Y120.656 E39.37535
G1 X125.241 Y121.302 E39.40812
G1 X125.044 Y121.929 E39.44091
G1 X124.772 Y122.527 E39.47369
G1 X124.43 Y123.088 E39.50646
G1 X124.022 Y123.603 E39.53924
G1 X123.555 Y124.065 E39.57202
G1 X123.035 Y124.466 E39.60478
G1 X122.471 Y124.802 E39.63753
G1 X121.869 Y125.066 E39.67033
G1 X121.24 Y125.256 E39.70311
G1 X120.593 Y125.367 E39.73586
G1 X120 Y125.4 E39.76549
G1 X100 Y125.4 E40.76329
G1 X99.344 Y125.36 E40.79608
G1 X98.698 Y125.241 E40.82885
G1 X98.071 Y125.044 E40.86164
G1 X97.473 Y124.772 E40.89442
G1 X96.912 Y124.43 E40.9272
G1 X96.397 Y124.022 E40.95998
G1 X95.935 Y123.555 E40.99275
G1 X95.534 Y123.035 E41.02551
G1 X95.198 Y122.471 E41.05826
G1 X94.934 Y121.869 E41.09106
G1 X94.744 Y121.24 E41.12384
G1 X94.633 Y120.593 E41.15659
G1 X94.6 Y120 E41.18622
G1 X94.6 Y100 E42.18403
G1 X94.64 Y99.344 E42.21681
G1 X94.759 Y98.698 E42.24959
G1 X94.956 Y98.071 E42.28237
G1 X95.228 Y97.473 E42.31515
G1 X95.57 Y96.912 E42.34793
G1 X95.978 Y96.397 E42.38071
G1 X96.445 Y95.935 E42.41348
G0 F3600 X96.373 Y96.559
G1 F1800 X96.836 Y96.129 E42.44501
G1 X97.35 Y95.76 E42.47657
G1 X97.906 Y95.46 E42.50809
G1 X98.495 Y95.232 E42.5396
G1 X99.109 Y95.08 E42.57116
G1 X100 Y95 E42.61579
G1 X120 Y95 E43.6136
G1 X120.631 Y95.04 E43.64514
G1 X121.252 Y95.159 E43.67668
G1 X121.852 Y95.356 E43.70819
G1 X122.424 Y95.627 E43.73977
G1 X122.956 Y95.967 E43.77127
G1 X123.441 Y96.373 E43.80282
G1 X123.871 Y96.836 E43.83435
G1 X124.24 Y97.35 E43.86592
G1 X124.54 Y97.906 E43.89743
G1 X124.768 Y98.495 E43.92894
G1 X124.92 Y99.109 E43.9605
G1 X125 Y100 E44.00513
G1 X125 Y120 E45.00294
G1 X124.96 Y120.631 E45.03448
G1 X124.841 Y121.252 E45.06603
G1 X124.644 Y121.852 E45.09753
G1 X124.373 Y122.424 E45.12911
G1 X124.033 Y122.956 E45.16061
G1 X123.627 Y123.441 E45.19217
G1 X123.164 Y123.871 E45.22369
G1 X122.65 Y124.24 E45.25526
G1 X122.094 Y124.54 E45.28678
G1 X121.505 Y124.768 E45.31829
G1 X120.891 Y124.92 E45.34984
G1 X120 Y125 E45.39448
G1 X100 Y125 E46.39228
G1 X99.369 Y124.96 E46.42382
G1 X98.748 Y124.841 E46.45537
G1 X98.148 Y124.644 E46.48688
G1 X97.576 Y124.373 E46.51845
G1 X97.044 Y124.033 E46.54995
G1 X96.559 Y123.627 E46.58151
G1 X96.129 Y123.164 E46.61303
G1 X95.76 Y122.65 E46.6446
G1 X95.46 Y122.094 E46.67612
G1 X95.232 Y121.505 E46.70763
G1 X95.08 Y120.891 E46.73919
G1 X95 Y120 E46.78382
G1 X95 Y100 E47.78162
G1 X95.04 Y99.369 E47.81317
G1 X95.159 Y98.748 E47.84471
G1 X95.356 Y98.148 E47.87622
G1 X95.627 Y97.576 E47.9078
G1 X95.967 Y97.044 E47.93929
G1 X96.373 Y96.559 E47.97085
G0 F3600 X96.767 Y96.728
G1 F1800 X97.225 Y96.331 E48.00109
G1 X97.732 Y95.998 E48.03135
G1 X98.278 Y95.734 E48.06161
G1 X98.854 Y95.545 E48.09185
G1 X99.45 Y95.433 E48.12211
G1 X100 Y95.4 E48.1496
G1 X120 Y95.4 E49.1474
G1 X120.605 Y95.44 E49.17765
G1 X121.199 Y95.559 E49.20787
G1 X121.773 Y95.755 E49.23813
G1 X122.316 Y96.026 E49.26841
G1 X122.819 Y96.365 E49.29867
G1 X123.272 Y96.767 E49.32889
G1 X123.669 Y97.225 E49.35913
G1 X124.002 Y97.732 E49.38939
G1 X124.266 Y98.278 E49.41965
G1 X124.455 Y98.854 E49.44989
G1 X124.567 Y99.45 E49.48015
G1 X124.6 Y100 E49.50764
G1 X124.6 Y120 E50.50544
G1 X124.56 Y120.605 E50.53569
G1 X124.441 Y121.199 E50.56591
G1 X124.245 Y121.773 E50.59617
G1 X123.974 Y122.316 E50.62645
G1 X123.635 Y122.819 E50.65671
G1 X123.233 Y123.272 E50.68693
G1 X122.775 Y123.669 E50.71717
G1 X122.268 Y124.002 E50.74743
G1 X121.722 Y124.266 E50.77769
G1 X121.146 Y124.455 E50.80793
G1 X120.55 Y124.567 E50.83819
G1 X120 Y124.6 E50.86568
G1 X100 Y124.6 E51.86348
G1 X99.395 Y124.56 E51.89373
G1 X98.801 Y124.441 E51.92395
G1 X98.227 Y124.245 E51.95421
G1 X97.684 Y123.974 E51.98449
G1 X97.181 Y123.635 E52.01475
G1 X96.728 Y123.233 E52.04497
G1 X96.331 Y122.775 E52.07521
G1 X95.998 Y122.268 E52.10547
G1 X95.734 Y121.722 E52.13573
G1 X95.545 Y121.146 E52.16597
G1 X95.433 Y120.55 E52.19623
G1 X95.4 Y120 E52.22371
G1 X95.4 Y100 E53.22152
G1 X95.44 Y99.395 E53.25177
G1 X95.559 Y98.801 E53.28199
G1 X95.755 Y98.227 E53.31225
G1 X96.026 Y97.684 E53.34253
G1 X96.365 Y97.181 E53.37279
G1 X96.767 Y96.728 E53.40301
G0 F3600 X97.16 Y96.906
G1 F1800 X97.613 Y96.544 E53.43194
G1 X98.111 Y96.249 E53.46081
