;FLAVOR:Marlin
;TIME:153
;Filament used: 0.149358m
;Layer height: 0.2
;MINX:82.2
;MINY:106.2
;MINZ:0.3
;MAXX:101.8
;MAXY:125.8
;MAXZ:2.5
;Generated with Cura_SteamEngine 4.5.0
M140 S60
M105
M190 S60
M104 S200
M105
M109 S200
M82 ;absolute extrusion mode
G28 ;Home
G1 Z15.0 F6000 ;Move the platform down 15mm
;Prime the extruder
G92 E0
G1 F200 E3
G92 E0
G92 E0
G92 E0
G1 F1500 E-6.5
;LAYER_COUNT:12
;LAYER:0
M107
;MESH:tube.stl
G0 F3600 X99.413 Y114.014 Z0.3
;TYPE:WALL-INNER
G1 F1500 E0
G1 F1800 X99.245 Y113.465 E0.02864
G1 X99.034 Y112.931 E0.05729
G1 X98.786 Y112.414 E0.0859
G1 X98.498 Y111.916 E0.1146
G1 X98.175 Y111.443 E0.14317
G1 X97.817 Y110.993 E0.17186
G1 X97.427 Y110.573 E0.20046
G1 X97.007 Y110.183 E0.22905
G1 X96.557 Y109.825 E0.25774
G1 X96.084 Y109.502 E0.28631
G1 X95.586 Y109.214 E0.31501
G1 X95.069 Y108.966 E0.34362
G1 X94.535 Y108.755 E0.37227
G1 X93.986 Y108.587 E0.40091
G1 X93.427 Y108.459 E0.42952
G1 X92.86 Y108.373 E0.45813
G1 X92.288 Y108.33 E0.48675
G1 X91.712 Y108.33 E0.51549
G1 X91.14 Y108.373 E0.54411
G1 X90.573 Y108.459 E0.57272
G1 X90.014 Y108.587 E0.60133
G1 X89.465 Y108.755 E0.62997
G1 X88.931 Y108.966 E0.65862
G1 X88.414 Y109.214 E0.68722
G1 X87.916 Y109.502 E0.71592
G1 X87.443 Y109.825 E0.7445
G1 X86.993 Y110.183 E0.77319
G1 X86.573 Y110.573 E0.80178
G1 X86.183 Y110.993 E0.83038
G1 X85.825 Y111.443 E0.85907
G1 X85.502 Y111.916 E0.88764
G1 X85.214 Y112.414 E0.91634
G1 X84.966 Y112.931 E0.94495
G1 X84.755 Y113.464 E0.97355
G1 X84.586 Y114.014 E1.00225
G1 X84.459 Y114.574 E1.0309
G1 X84.373 Y115.14 E1.05946
G1 X84.33 Y115.712 E1.08808
G1 X84.33 Y116.288 E1.11682
G1 X84.373 Y116.86 E1.14544
G1 X84.459 Y117.426 E1.174
G1 X84.586 Y117.986 E1.20265
G1 X84.755 Y118.536 E1.23135
G1 X84.966 Y119.069 E1.25995
G1 X85.214 Y119.586 E1.28856
G1 X85.502 Y120.084 E1.31726
G1 X85.825 Y120.557 E1.34583
G1 X86.183 Y121.007 E1.37452
G1 X86.573 Y121.427 E1.40312
G1 X86.993 Y121.817 E1.43171
G1 X87.443 Y122.175 E1.4604
G1 X87.916 Y122.498 E1.48898
G1 X88.414 Y122.786 E1.51768
G1 X88.931 Y123.034 E1.54628
G1 X89.465 Y123.245 E1.57493
G1 X90.014 Y123.413 E1.60357
G1 X90.573 Y123.541 E1.63218
G1 X91.14 Y123.627 E1.6608
G1 X91.712 Y123.67 E1.68941
G1 X92.288 Y123.67 E1.71815
G1 X92.86 Y123.627 E1.74677
G1 X93.427 Y123.541 E1.77538
G1 X93.986 Y123.413 E1.80399
G1 X94.535 Y123.245 E1.83263
G1 X95.069 Y123.034 E1.86128
G1 X95.586 Y122.786 E1.88989
G1 X96.084 Y122.498 E1.91859
G1 X96.557 Y122.175 E1.94716
G1 X97.007 Y121.817 E1.97585
G1 X97.427 Y121.427 E2.00444
G1 X97.817 Y121.007 E2.03304
G1 X98.175 Y120.557 E2.06173
G1 X98.498 Y120.084 E2.0903
G1 X98.786 Y119.586 E2.119
G1 X99.034 Y119.069 E2.14761
G1 X99.245 Y118.535 E2.17626
G1 X99.413 Y117.986 E2.2049
G1 X99.541 Y117.427 E2.23351
G1 X99.627 Y116.86 E2.26212
G1 X99.67 Y116.288 E2.29074
G1 X99.67 Y115.712 E2.31948
G1 X99.627 Y115.14 E2.34809
G1 X99.541 Y114.573 E2.37671
G1 X99.413 Y114.014 E2.40532
G0 F3600 X99.509 Y113.989
G0 X99.709 Y115.711
G0 X99.666 Y116.864
G0 X99.451 Y117.996
G0 X99.07 Y119.085
G0 X98.531 Y120.105
G0 X97.847 Y121.033
G0 X97.033 Y121.847
G0 X96.198 Y122.462
G0 X91.122 Y125.264
G0 X91.113 Y125.363
G1 F1800 X90.53 Y125.29 E2.43463
G1 X89.944 Y125.177 E2.4644
G1 X89.374 Y125.031 E2.49376
G1 X88.824 Y124.852 E2.52262
G1 X88.265 Y124.631 E2.5526
G1 X87.721 Y124.374 E2.58262
G1 X87.217 Y124.098 E2.61129
G1 X86.708 Y123.775 E2.64136
G1 X86.237 Y123.431 E2.67046
G1 X85.792 Y123.064 E2.69924
G1 X85.35 Y122.65 E2.72945
G1 X84.933 Y122.205 E2.75988
G1 X84.565 Y121.759 E2.78873
G1 X84.223 Y121.289 E2.81773
G1 X83.902 Y120.783 E2.84762
G1 X83.626 Y120.279 E2.87629
G1 X83.368 Y119.733 E2.90642
G1 X83.148 Y119.175 E2.93634
G1 X82.969 Y118.625 E2.9652
G1 X82.823 Y118.056 E2.99451
G1 X82.71 Y117.465 E3.02452
G1 X82.636 Y116.88 E3.05394
G1 X82.6 Y116.288 E3.08353
G1 X82.6 Y115.707 E3.11252
G1 X82.636 Y115.12 E3.14186
G1 X82.71 Y114.535 E3.17128
G1 X82.823 Y113.942 E3.2014
G1 X82.969 Y113.375 E3.23061
G1 X83.148 Y112.825 E3.25946
G1 X83.369 Y112.265 E3.2895
G1 X83.626 Y111.721 E3.31951
G1 X83.902 Y111.217 E3.34818
G1 X84.225 Y110.708 E3.37826
G1 X84.565 Y110.241 E3.40708
G1 X84.933 Y109.795 E3.43592
G1 X85.35 Y109.35 E3.46635
G1 X85.795 Y108.933 E3.49678
G1 X86.237 Y108.569 E3.52534
G1 X86.708 Y108.225 E3.55444
G1 X87.217 Y107.902 E3.58452
G1 X87.721 Y107.626 E3.61318
G1 X88.265 Y107.369 E3.6432
G1 X88.825 Y107.148 E3.67324
G1 X89.375 Y106.969 E3.70209
G1 X89.944 Y106.823 E3.7314
G1 X90.53 Y106.71 E3.76117
G1 X91.113 Y106.637 E3.79049
G1 X91.707 Y106.6 E3.82018
G1 X92.293 Y106.6 E3.84941
G1 X92.887 Y106.637 E3.87911
G1 X93.47 Y106.71 E3.90842
G1 X94.056 Y106.823 E3.93819
G1 X94.625 Y106.969 E3.9675
G1 X95.175 Y107.148 E3.99636
G1 X95.735 Y107.369 E4.02639
G1 X96.279 Y107.626 E4.05641
G1 X96.783 Y107.902 E4.08508
G1 X97.292 Y108.225 E4.11515
G1 X97.763 Y108.569 E4.14425
G1 X98.205 Y108.933 E4.17282
G1 X98.65 Y109.35 E4.20324
G1 X99.067 Y109.795 E4.23367
G1 X99.435 Y110.241 E4.26252
G1 X99.775 Y110.708 E4.29134
G1 X100.098 Y111.217 E4.32141
G1 X100.374 Y111.721 E4.35008
G1 X100.631 Y112.265 E4.3801
G1 X100.852 Y112.825 E4.41013
G1 X101.031 Y113.375 E4.43899
G1 X101.177 Y113.943 E4.46825
G1 X101.289 Y114.523 E4.49772
G1 X101.364 Y115.12 E4.52774
G1 X101.4 Y115.707 E4.55708
G1 X101.4 Y116.288 E4.58606
G1 X101.364 Y116.88 E4.61565
G1 X101.29 Y117.465 E4.64507
G1 X101.177 Y118.056 E4.67509
G1 X101.031 Y118.625 E4.7044
G1 X100.852 Y119.175 E4.73325
G1 X100.632 Y119.733 E4.76318
G1 X100.374 Y120.279 E4.79331
G1 X100.098 Y120.783 E4.82197
G1 X99.777 Y121.289 E4.85187
G1 X99.435 Y121.759 E4.88087
G1 X99.067 Y122.205 E4.90972
G1 X98.65 Y122.65 E4.94014
G1 X98.208 Y123.064 E4.97036
G1 X97.763 Y123.431 E4.99913
G1 X97.292 Y123.775 E5.02823
G1 X96.783 Y124.098 E5.05831
G1 X96.279 Y124.374 E5.08698
G1 X95.735 Y124.631 E5.11699
G1 X95.176 Y124.852 E5.14698
G1 X94.626 Y125.031 E5.17584
G1 X94.056 Y125.177 E5.20519
G1 X93.47 Y125.29 E5.23497
G1 X92.887 Y125.363 E5.26428
G1 X92.293 Y125.4 E5.29397
G1 X91.707 Y125.4 E5.32321
G1 X91.113 Y125.363 E5.3529
G0 F3600 X91.122 Y125.264
G0 X88.384 Y122.882
G0 X88.601 Y122.432
;TYPE:WALL-OUTER
G1 F1800 X89.091 Y122.667 E5.38001
G1 X89.597 Y122.867 E5.40716
G1 X90.117 Y123.026 E5.43429
G1 X90.648 Y123.148 E5.46147
G1 X91.185 Y123.229 E5.48856
G1 X91.727 Y123.27 E5.51568
G1 X92.273 Y123.27 E5.54292
G1 X92.815 Y123.229 E5.57004
G1 X93.352 Y123.148 E5.59713
G1 X93.883 Y123.026 E5.62431
G1 X94.403 Y122.867 E5.65144
G1 X94.909 Y122.667 E5.67859
G1 X95.399 Y122.432 E5.7057
G1 X95.871 Y122.159 E5.7329
G1 X96.32 Y121.853 E5.76001
G1 X96.746 Y121.514 E5.78717
G1 X97.144 Y121.144 E5.81428
G1 X97.514 Y120.746 E5.84139
G1 X97.853 Y120.32 E5.86856
G1 X98.159 Y119.871 E5.89566
G1 X98.432 Y119.399 E5.92287
G1 X98.667 Y118.909 E5.94998
G1 X98.867 Y118.403 E5.97712
G1 X99.026 Y117.883 E6.00425
G1 X99.148 Y117.352 E6.03143
G1 X99.229 Y116.815 E6.05853
G1 X99.27 Y116.273 E6.08565
G1 X99.27 Y115.727 E6.11289
G1 X99.229 Y115.185 E6.14
G1 X99.148 Y114.648 E6.1671
G1 X99.026 Y114.117 E6.19428
G1 X98.867 Y113.597 E6.22141
G1 X98.667 Y113.091 E6.24855
G1 X98.432 Y112.601 E6.27567
G1 X98.159 Y112.129 E6.30287
G1 X97.853 Y111.68 E6.32998
G1 X97.514 Y111.254 E6.35714
G1 X97.144 Y110.856 E6.38425
G1 X96.746 Y110.486 E6.41136
G1 X96.32 Y110.147 E6.43852
G1 X95.871 Y109.841 E6.46563
G1 X95.399 Y109.568 E6.49283
G1 X94.909 Y109.333 E6.51995
G1 X94.403 Y109.133 E6.54709
G1 X93.883 Y108.974 E6.57422
G1 X93.352 Y108.852 E6.6014
G1 X92.815 Y108.771 E6.6285
G1 X92.273 Y108.73 E6.65561
G1 X91.727 Y108.73 E6.68285
G1 X91.185 Y108.771 E6.70997
G1 X90.648 Y108.852 E6.73707
G1 X90.117 Y108.974 E6.76425
G1 X89.597 Y109.133 E6.79138
G1 X89.091 Y109.333 E6.81852
G1 X88.601 Y109.568 E6.84563
G1 X88.129 Y109.841 E6.87284
G1 X87.68 Y110.147 E6.89994
G1 X87.254 Y110.486 E6.92711
G1 X86.856 Y110.856 E6.95422
G1 X86.486 Y111.254 E6.98133
G1 X86.147 Y111.68 E7.00849
G1 X85.841 Y112.129 E7.0356
G1 X85.568 Y112.601 E7.0628
G1 X85.333 Y113.091 E7.08991
G1 X85.133 Y113.597 E7.11706
G1 X84.973 Y114.117 E7.1442
G1 X84.852 Y114.648 E7.17137
G1 X84.771 Y115.185 E7.19847
G1 X84.73 Y115.727 E7.22558
G1 X84.73 Y116.273 E7.25282
G1 X84.771 Y116.815 E7.27994
G1 X84.852 Y117.352 E7.30704
G1 X84.973 Y117.883 E7.33421
G1 X85.133 Y118.403 E7.36135
G1 X85.333 Y118.909 E7.3885
G1 X85.568 Y119.399 E7.41561
G1 X85.841 Y119.871 E7.44281
G1 X86.147 Y120.32 E7.46992
G1 X86.486 Y120.746 E7.49708
G1 X86.856 Y121.144 E7.52419
G1 X87.254 Y121.514 E7.5513
G1 X87.68 Y121.853 E7.57846
G1 X88.129 Y122.159 E7.60557
G1 X88.601 Y122.432 E7.63278
G0 F3600 X88.781 Y122.518
G0 X88.564 Y122.968
G0 X86.967 Y121.847
G0 X86.153 Y121.033
G0 X85.469 Y120.105
G0 X84.93 Y119.085
G0 X84.548 Y117.996
G0 X84.334 Y116.864
G0 X84.291 Y115.711
G0 X84.42 Y114.567
G0 X84.718 Y113.451
G0 X85.179 Y112.396
G0 X85.793 Y111.42
G0 X86.545 Y110.545
G0 X87.332 Y109.869
G0 X92.29 Y106.699
G0 X92.302 Y106.2
G1 F1800 X92.93 Y106.239 E7.66417
G1 X93.532 Y106.315 E7.69444
G1 X94.133 Y106.43 E7.72497
G1 X94.741 Y106.586 E7.75628
G1 X95.315 Y106.773 E7.7864
G1 X95.899 Y107.004 E7.81773
G1 X96.457 Y107.267 E7.84851
G1 X96.986 Y107.557 E7.87861
G1 X97.506 Y107.887 E7.90933
G1 X98.014 Y108.257 E7.94069
G1 X98.479 Y108.641 E7.97077
G1 X98.933 Y109.067 E8.00183
G1 X99.359 Y109.521 E8.03289
G1 X99.743 Y109.986 E8.06298
G1 X100.113 Y110.494 E8.09434
G1 X100.443 Y111.014 E8.12506
G1 X100.733 Y111.543 E8.15516
G1 X100.996 Y112.101 E8.18594
G1 X101.227 Y112.685 E8.21727
G1 X101.414 Y113.259 E8.24739
G1 X101.57 Y113.867 E8.2787
G1 X101.684 Y114.46 E8.30883
G1 X101.761 Y115.07 E8.3395
G1 X101.8 Y115.698 E8.37089
G1 X101.8 Y116.302 E8.40103
G1 X101.761 Y116.93 E8.43242
G1 X101.686 Y117.527 E8.46244
G1 X101.57 Y118.133 E8.49322
G1 X101.414 Y118.741 E8.52454
G1 X101.227 Y119.315 E8.55465
G1 X100.997 Y119.897 E8.58588
G1 X100.733 Y120.457 E8.61676
G1 X100.443 Y120.986 E8.64686
G1 X100.113 Y121.506 E8.67759
G1 X99.743 Y122.014 E8.70894
G1 X99.359 Y122.479 E8.73903
G1 X98.933 Y122.933 E8.77009
G1 X98.479 Y123.359 E8.80115
G1 X98.014 Y123.743 E8.83123
G1 X97.506 Y124.113 E8.86259
G1 X96.986 Y124.443 E8.89331
G1 X96.457 Y124.733 E8.92341
G1 X95.899 Y124.996 E8.95419
G1 X95.316 Y125.227 E8.98547
G1 X94.741 Y125.414 E9.01564
G1 X94.133 Y125.57 E9.04696
G1 X93.532 Y125.685 E9.07748
G1 X92.93 Y125.761 E9.10776
G1 X92.302 Y125.8 E9.13915
G1 X91.698 Y125.8 E9.16928
G1 X91.07 Y125.761 E9.20067
G1 X90.468 Y125.685 E9.23094
G1 X89.867 Y125.57 E9.26147
G1 X89.259 Y125.414 E9.29279
G1 X88.684 Y125.227 E9.32295
G1 X88.101 Y124.996 E9.35424
G1 X87.543 Y124.733 E9.38502
G1 X87.014 Y124.443 E9.41511
G1 X86.494 Y124.113 E9.44584
G1 X85.986 Y123.743 E9.47719
G1 X85.521 Y123.359 E9.50728
G1 X85.067 Y122.933 E9.53834
G1 X84.641 Y122.479 E9.5694
G1 X84.257 Y122.014 E9.59949
G1 X83.887 Y121.506 E9.63084
G1 X83.557 Y120.986 E9.66157
G1 X83.267 Y120.457 E9.69167
G1 X83.003 Y119.897 E9.72255
G1 X82.773 Y119.315 E9.75377
G1 X82.586 Y118.741 E9.78389
G1 X82.43 Y118.133 E9.81521
G1 X82.314 Y117.527 E9.84599
G1 X82.239 Y116.93 E9.87601
G1 X82.2 Y116.302 E9.9074
G1 X82.2 Y115.698 E9.93753
G1 X82.239 Y115.07 E9.96893
G1 X82.314 Y114.473 E9.99894
G1 X82.43 Y113.867 E10.02973
G1 X82.586 Y113.259 E10.06104
G1 X82.773 Y112.685 E10.09116
G1 X83.004 Y112.101 E10.12249
G1 X83.267 Y111.543 E10.15327
G1 X83.557 Y111.014 E10.18337
G1 X83.887 Y110.494 E10.21409
G1 X84.257 Y109.986 E10.24545
G1 X84.641 Y109.521 E10.27553
G1 X85.067 Y109.067 E10.30659
G1 X85.521 Y108.641 E10.33765
G1 X85.986 Y108.257 E10.36774
G1 X86.494 Y107.887 E10.39909
G1 X87.014 Y107.557 E10.42982
G1 X87.543 Y107.267 E10.45992
G1 X88.101 Y107.004 E10.49069
G1 X88.685 Y106.773 E10.52203
G1 X89.259 Y106.586 E10.55214
G1 X89.867 Y106.43 E10.58346
G1 X90.468 Y106.315 E10.61399
G1 X91.07 Y106.239 E10.64426
G1 X91.698 Y106.2 E10.67565
G1 X92.302 Y106.2 E10.70579
G0 F3600 X92.501 Y106.212
G0 X92.269 Y106.99
;TYPE:SKIN
G1 F1800 X92.857 Y107.027 E10.73518
G1 X93.408 Y107.095 E10.76288
G1 X93.97 Y107.204 E10.79144
G1 X94.516 Y107.344 E10.81956
G1 X95.044 Y107.515 E10.84725
G1 X95.583 Y107.729 E10.87618
G1 X96.107 Y107.976 E10.90508
G1 X96.585 Y108.238 E10.93228
G1 X97.072 Y108.547 E10.96105
G1 X97.524 Y108.878 E10.989
G1 X97.947 Y109.226 E11.01633
G1 X98.373 Y109.627 E11.04552
G1 X98.774 Y110.053 E11.07471
G1 X99.119 Y110.471 E11.10175
G1 X99.459 Y110.938 E11.13056
G1 X99.762 Y111.415 E11.15876
G1 X100.021 Y111.887 E11.18562
G1 X100.273 Y112.42 E11.21503
G1 X100.481 Y112.946 E11.24325
G1 X100.656 Y113.484 E11.27148
G1 X100.796 Y114.029 E11.29955
G1 X100.905 Y114.591 E11.32811
G1 X100.974 Y115.144 E11.35591
G1 X101.01 Y115.731 E11.38525
G1 X101.01 Y116.264 E11.41185
G1 X100.975 Y116.844 E11.44083
G1 X100.907 Y117.391 E11.46833
G1 X100.796 Y117.97 E11.49775
G1 X100.656 Y118.516 E11.52587
G1 X100.489 Y119.032 E11.55293
G1 X100.275 Y119.575 E11.58204
G1 X100.026 Y120.103 E11.61117
G1 X99.762 Y120.585 E11.63859
G1 X99.461 Y121.059 E11.6666
G1 X99.126 Y121.52 E11.69503
G1 X98.777 Y121.943 E11.72239
G1 X98.373 Y122.373 E11.75183
G1 X97.95 Y122.771 E11.7808
G1 X97.524 Y123.122 E11.80834
G1 X97.072 Y123.453 E11.83629
G1 X96.585 Y123.762 E11.86507
G1 X96.107 Y124.024 E11.89226
G1 X95.591 Y124.268 E11.92074
G1 X95.039 Y124.486 E11.95035
G1 X94.516 Y124.656 E11.97778
G1 X93.97 Y124.796 E12.0059
G1 X93.408 Y124.905 E12.03446
G1 X92.857 Y124.973 E12.06216
G1 X92.269 Y125.01 E12.09156
G1 X91.731 Y125.01 E12.1184
G1 X91.143 Y124.973 E12.14779
G1 X90.592 Y124.905 E12.17549
G1 X90.03 Y124.796 E12.20405
G1 X89.484 Y124.656 E12.23217
G1 X88.961 Y124.486 E12.25961
G1 X88.409 Y124.268 E12.28922
G1 X87.893 Y124.024 E12.31769
G1 X87.415 Y123.762 E12.34489
G1 X86.928 Y123.453 E12.37366
G1 X86.476 Y123.122 E12.40161
G1 X86.05 Y122.771 E12.42915
G1 X85.627 Y122.373 E12.45813
G1 X85.223 Y121.943 E12.48756
G1 X84.874 Y121.52 E12.51492
G1 X84.539 Y121.059 E12.54335
G1 X84.238 Y120.585 E12.57137
G1 X83.974 Y120.103 E12.59878
G1 X83.725 Y119.575 E12.62791
G1 X83.511 Y119.032 E12.65703
G1 X83.344 Y118.516 E12.68408
G1 X83.204 Y117.97 E12.71221
G1 X83.093 Y117.391 E12.74162
G1 X83.025 Y116.844 E12.76912
G1 X82.99 Y116.264 E12.79811
G1 X82.99 Y115.731 E12.8247
G1 X83.025 Y115.156 E12.85344
G1 X83.095 Y114.596 E12.88159
G1 X83.204 Y114.028 E12.91045
G1 X83.344 Y113.484 E12.93847
G1 X83.511 Y112.968 E12.96553
G1 X83.727 Y112.42 E12.99492
G1 X83.974 Y111.897 E13.02377
G1 X84.238 Y111.415 E13.05119
G1 X84.541 Y110.938 E13.07939
G1 X84.874 Y110.48 E13.10764
G1 X85.226 Y110.053 E13.13524
G1 X85.627 Y109.627 E13.16443
G1 X86.053 Y109.226 E13.19362
G1 X86.476 Y108.878 E13.22095
G1 X86.928 Y108.547 E13.2489
G1 X87.415 Y108.238 E13.27767
G1 X87.893 Y107.976 E13.30487
G1 X88.417 Y107.729 E13.33377
G1 X88.956 Y107.515 E13.3627
G1 X89.484 Y107.344 E13.39039
G1 X90.03 Y107.204 E13.41851
G1 X90.592 Y107.095 E13.44707
G1 X91.143 Y107.027 E13.47477
G1 X91.731 Y106.99 E13.50416
G1 X92.269 Y106.99 E13.53101
G0 F3600 X92.303 Y107.94
G1 F1800 X91.697 Y107.94 E13.56124
G1 X91.096 Y107.985 E13.59131
G1 X90.5 Y108.075 E13.62138
G1 X89.913 Y108.21 E13.65143
G1 X89.336 Y108.387 E13.68154
G1 X88.775 Y108.609 E13.71164
G1 X88.232 Y108.869 E13.74168
G1 X87.708 Y109.172 E13.77187
G1 X87.211 Y109.511 E13.80189
G1 X86.739 Y109.887 E13.83199
G1 X86.297 Y110.297 E13.86207
G1 X85.887 Y110.739 E13.89215
G1 X85.511 Y111.211 E13.92226
G1 X85.172 Y111.708 E13.95227
G1 X84.869 Y112.232 E13.98247
G1 X84.609 Y112.775 E14.01251
G1 X84.387 Y113.335 E14.04256
G1 X84.209 Y113.913 E14.07273
G1 X84.075 Y114.502 E14.10287
G1 X83.985 Y115.096 E14.13284
G1 X83.94 Y115.697 E14.16291
G1 X83.94 Y116.303 E14.19314
G1 X83.985 Y116.904 E14.22321
G1 X84.075 Y117.498 E14.25318
G1 X84.209 Y118.087 E14.28332
G1 X84.387 Y118.665 E14.31349
G1 X84.609 Y119.225 E14.34355
G1 X84.869 Y119.768 E14.37358
G1 X85.172 Y120.292 E14.40378
G1 X85.511 Y120.789 E14.43379
G1 X85.887 Y121.261 E14.4639
G1 X86.297 Y121.703 E14.49398
G1 X86.739 Y122.113 E14.52406
G1 X87.211 Y122.489 E14.55416
G1 X87.708 Y122.828 E14.58418
G1 X88.232 Y123.131 E14.61438
G1 X88.775 Y123.391 E14.64441
G1 X89.336 Y123.613 E14.67451
G1 X89.913 Y123.79 E14.70462
