;FLAVOR:Marlin
;TIME:156
;Filament used: 0.137276m
;Layer height: 0.2
;MINX:82.2
;MINY:106.2
;MINZ:0.3
;MAXX:101.8
;MAXY:125.8
;MAXZ:2.5
;Generated with Cura_SteamEngine 4.5.0
M140 S60
M105
M190 S60
M104 S200
M105
M109 S200
M82 ;absolute extrusion mode
G28 ;Home
G1 Z15.0 F6000 ;Move the platform down 15mm
;Prime the extruder
G92 E0
G1 F200 E3
G92 E0
G92 E0
G92 E0
G1 F1500 E-6.5
;LAYER_COUNT:12
;LAYER:0
M107
;MESH:tube.stl
G0 F3600 X89.597 Y109.133 Z0.3
;TYPE:WALL-OUTER
G1 F1500 E0
G1 F1800 X89.091 Y109.333 E0.02714
G1 X88.601 Y109.568 E0.05426
G1 X88.129 Y109.841 E0.08146
G1 X87.68 Y110.147 E0.10857
G1 X87.254 Y110.486 E0.13573
G1 X86.856 Y110.856 E0.16284
G1 X86.486 Y111.254 E0.18995
G1 X86.147 Y111.68 E0.21711
G1 X85.841 Y112.129 E0.24422
G1 X85.568 Y112.601 E0.27143
G1 X85.333 Y113.091 E0.29854
G1 X85.133 Y113.597 E0.32568
G1 X84.973 Y114.117 E0.35283
G1 X84.852 Y114.648 E0.38
G1 X84.771 Y115.185 E0.40709
G1 X84.73 Y115.727 E0.43421
G1 X84.73 Y116.273 E0.46145
G1 X84.771 Y116.815 E0.48857
G1 X84.852 Y117.352 E0.51566
G1 X84.973 Y117.883 E0.54283
G1 X85.133 Y118.403 E0.56997
G1 X85.333 Y118.909 E0.59712
G1 X85.568 Y119.399 E0.62423
G1 X85.841 Y119.871 E0.65143
G1 X86.147 Y120.32 E0.67854
G1 X86.486 Y120.746 E0.7057
G1 X86.856 Y121.144 E0.73282
G1 X87.254 Y121.514 E0.75993
G1 X87.68 Y121.853 E0.78709
G1 X88.129 Y122.159 E0.8142
G1 X88.601 Y122.432 E0.8414
G1 X89.091 Y122.667 E0.86851
G1 X89.597 Y122.867 E0.89566
G1 X90.117 Y123.026 E0.92279
G1 X90.648 Y123.148 E0.94997
G1 X91.185 Y123.229 E0.97706
G1 X91.727 Y123.27 E1.00418
G1 X92.273 Y123.27 E1.03142
G1 X92.815 Y123.229 E1.05854
G1 X93.352 Y123.148 E1.08563
G1 X93.883 Y123.026 E1.11281
G1 X94.403 Y122.867 E1.13994
G1 X94.909 Y122.667 E1.16709
G1 X95.399 Y122.432 E1.1942
G1 X95.871 Y122.159 E1.2214
G1 X96.32 Y121.853 E1.24851
G1 X96.746 Y121.514 E1.27567
G1 X97.144 Y121.144 E1.30278
G1 X97.514 Y120.746 E1.32989
G1 X97.853 Y120.32 E1.35706
G1 X98.159 Y119.871 E1.38416
G1 X98.432 Y119.399 E1.41137
G1 X98.667 Y118.909 E1.43848
G1 X98.867 Y118.403 E1.46562
G1 X99.026 Y117.883 E1.49275
G1 X99.148 Y117.352 E1.51993
G1 X99.229 Y116.815 E1.54703
G1 X99.27 Y116.273 E1.57415
G1 X99.27 Y115.727 E1.60139
G1 X99.229 Y115.185 E1.6285
G1 X99.148 Y114.648 E1.6556
G1 X99.026 Y114.117 E1.68278
G1 X98.867 Y113.597 E1.70991
G1 X98.667 Y113.091 E1.73705
G1 X98.432 Y112.601 E1.76417
G1 X98.159 Y112.129 E1.79137
G1 X97.853 Y111.68 E1.81848
G1 X97.514 Y111.254 E1.84564
G1 X97.144 Y110.856 E1.87275
G1 X96.746 Y110.486 E1.89986
G1 X96.32 Y110.147 E1.92702
G1 X95.871 Y109.841 E1.95413
G1 X95.399 Y109.568 E1.98133
G1 X94.909 Y109.333 E2.00845
G1 X94.403 Y109.133 E2.03559
G1 X93.883 Y108.974 E2.06272
G1 X93.352 Y108.852 E2.0899
G1 X92.815 Y108.771 E2.117
G1 X92.273 Y108.73 E2.14411
G1 X91.727 Y108.73 E2.17135
G1 X91.185 Y108.771 E2.19847
G1 X90.648 Y108.852 E2.22557
G1 X90.117 Y108.974 E2.25275
G1 X89.597 Y109.133 E2.27988
G0 F3600 X89.411 Y109.206
G0 X89.376 Y109.113
G0 X91.181 Y108.732
G0 X92.274 Y108.691
G0 X93.359 Y108.813
G0 X94.416 Y109.096
G0 X95.417 Y109.533
G0 X96.343 Y110.115
G0 X97.172 Y110.828
G0 X97.885 Y111.657
G0 X98.467 Y112.583
G0 X98.904 Y113.584
G0 X99.187 Y114.641
G0 X99.309 Y115.726
G0 X99.268 Y116.819
G0 X99.064 Y117.893
G0 X96.412 Y124.644
G0 X96.457 Y124.733
G1 F1800 X95.899 Y124.996 E2.31065
G1 X95.316 Y125.227 E2.34194
G1 X94.741 Y125.414 E2.3721
G1 X94.133 Y125.57 E2.40342
G1 X93.532 Y125.685 E2.43395
G1 X92.93 Y125.761 E2.46422
G1 X92.302 Y125.8 E2.49561
G1 X91.698 Y125.8 E2.52575
G1 X91.07 Y125.761 E2.55714
G1 X90.468 Y125.685 E2.58741
G1 X89.867 Y125.57 E2.61794
G1 X89.259 Y125.414 E2.64925
G1 X88.684 Y125.227 E2.67942
G1 X88.101 Y124.996 E2.7107
G1 X87.543 Y124.733 E2.74148
G1 X87.014 Y124.443 E2.77158
G1 X86.494 Y124.113 E2.8023
G1 X85.986 Y123.743 E2.83366
G1 X85.521 Y123.359 E2.86374
G1 X85.067 Y122.933 E2.8948
G1 X84.641 Y122.479 E2.92587
G1 X84.257 Y122.014 E2.95595
G1 X83.887 Y121.506 E2.98731
G1 X83.557 Y120.986 E3.01803
G1 X83.267 Y120.457 E3.04813
G1 X83.003 Y119.897 E3.07902
G1 X82.773 Y119.315 E3.11024
G1 X82.586 Y118.741 E3.14036
G1 X82.43 Y118.133 E3.17167
G1 X82.314 Y117.527 E3.20245
G1 X82.239 Y116.93 E3.23247
G1 X82.2 Y116.302 E3.26386
G1 X82.2 Y115.698 E3.294
G1 X82.239 Y115.07 E3.32539
G1 X82.314 Y114.473 E3.35541
G1 X82.43 Y113.867 E3.38619
G1 X82.586 Y113.259 E3.41751
G1 X82.773 Y112.685 E3.44762
G1 X83.004 Y112.101 E3.47896
G1 X83.267 Y111.543 E3.50973
G1 X83.557 Y111.014 E3.53983
G1 X83.887 Y110.494 E3.57056
G1 X84.257 Y109.986 E3.60191
G1 X84.641 Y109.521 E3.632
G1 X85.067 Y109.067 E3.66306
G1 X85.521 Y108.641 E3.69412
G1 X85.986 Y108.257 E3.7242
G1 X86.494 Y107.887 E3.75556
G1 X87.014 Y107.557 E3.78628
G1 X87.543 Y107.267 E3.81638
G1 X88.101 Y107.004 E3.84716
G1 X88.685 Y106.773 E3.87849
G1 X89.259 Y106.586 E3.90861
G1 X89.867 Y106.43 E3.93992
G1 X90.468 Y106.315 E3.97045
G1 X91.07 Y106.239 E4.00072
G1 X91.698 Y106.2 E4.03212
G1 X92.302 Y106.2 E4.06225
G1 X92.93 Y106.239 E4.09364
G1 X93.532 Y106.315 E4.12391
G1 X94.133 Y106.43 E4.15444
G1 X94.741 Y106.586 E4.18576
G1 X95.315 Y106.773 E4.21588
G1 X95.899 Y107.004 E4.24721
G1 X96.457 Y107.267 E4.27798
G1 X96.986 Y107.557 E4.30808
G1 X97.506 Y107.887 E4.33881
G1 X98.014 Y108.257 E4.37016
G1 X98.479 Y108.641 E4.40025
G1 X98.933 Y109.067 E4.43131
G1 X99.359 Y109.521 E4.46237
G1 X99.743 Y109.986 E4.49246
G1 X100.113 Y110.494 E4.52381
G1 X100.443 Y111.014 E4.55454
G1 X100.733 Y111.543 E4.58463
G1 X100.996 Y112.101 E4.61541
G1 X101.227 Y112.685 E4.64674
G1 X101.414 Y113.259 E4.67686
G1 X101.57 Y113.867 E4.70818
G1 X101.684 Y114.46 E4.7383
G1 X101.761 Y115.07 E4.76898
G1 X101.8 Y115.698 E4.80037
G1 X101.8 Y116.302 E4.8305
G1 X101.761 Y116.93 E4.86189
G1 X101.686 Y117.527 E4.89191
G1 X101.57 Y118.133 E4.92269
G1 X101.414 Y118.741 E4.95401
G1 X101.227 Y119.315 E4.98413
G1 X100.997 Y119.897 E5.01535
G1 X100.733 Y120.457 E5.04624
G1 X100.443 Y120.986 E5.07633
G1 X100.113 Y121.506 E5.10706
G1 X99.743 Y122.014 E5.13841
G1 X99.359 Y122.479 E5.1685
G1 X98.933 Y122.933 E5.19956
G1 X98.479 Y123.359 E5.23062
G1 X98.014 Y123.743 E5.26071
G1 X97.506 Y124.113 E5.29206
G1 X96.986 Y124.443 E5.32279
G1 X96.457 Y124.733 E5.35289
G0 F3600 X96.276 Y124.818
G0 X96.285 Y124.383
;TYPE:SKIN
G1 F1800 X95.755 Y124.633 E5.38212
G1 X95.179 Y124.861 E5.41303
G1 X94.631 Y125.039 E5.44177
G1 X94.047 Y125.189 E5.47186
G1 X93.471 Y125.3 E5.50112
G1 X92.898 Y125.371 E5.52993
G1 X92.278 Y125.41 E5.56092
G1 X91.722 Y125.41 E5.58866
G1 X91.102 Y125.371 E5.61965
G1 X90.529 Y125.3 E5.64846
G1 X89.953 Y125.189 E5.67772
G1 X89.369 Y125.039 E5.7078
G1 X88.821 Y124.861 E5.73655
G1 X88.245 Y124.633 E5.76746
G1 X87.715 Y124.383 E5.79669
G1 X87.212 Y124.107 E5.82532
G1 X86.724 Y123.797 E5.85416
G1 X86.22 Y123.43 E5.88526
G1 X85.779 Y123.066 E5.91379
G1 X85.339 Y122.653 E5.9439
G1 X84.934 Y122.221 E5.97344
G1 X84.566 Y121.775 E6.00229
G1 X84.203 Y121.276 E6.03308
G1 X83.893 Y120.788 E6.06192
G1 X83.615 Y120.281 E6.09077
G1 X83.364 Y119.749 E6.12011
G1 X83.136 Y119.171 E6.15111
G1 X82.961 Y118.632 E6.17939
G1 X82.811 Y118.047 E6.20952
G1 X82.697 Y117.453 E6.23969
G1 X82.628 Y116.895 E6.26774
G1 X82.59 Y116.278 E6.29858
G1 X82.59 Y115.722 E6.32632
G1 X82.628 Y115.105 E6.35716
G1 X82.697 Y114.547 E6.38521
G1 X82.811 Y113.953 E6.41539
G1 X82.961 Y113.368 E6.44552
G1 X83.136 Y112.829 E6.47379
G1 X83.367 Y112.245 E6.50512
G1 X83.615 Y111.719 E6.53414
G1 X83.893 Y111.212 E6.56298
G1 X84.203 Y110.724 E6.59183
G1 X84.566 Y110.225 E6.62261
G1 X84.934 Y109.779 E6.65146
G1 X85.339 Y109.347 E6.681
G1 X85.779 Y108.934 E6.71111
G1 X86.22 Y108.57 E6.73964
G1 X86.724 Y108.203 E6.77074
G1 X87.212 Y107.893 E6.79959
G1 X87.715 Y107.617 E6.82821
G1 X88.245 Y107.367 E6.85745
G1 X88.823 Y107.138 E6.88846
G1 X89.368 Y106.961 E6.91705
G1 X89.953 Y106.811 E6.94718
G1 X90.529 Y106.7 E6.97645
G1 X91.102 Y106.629 E7.00525
G1 X91.722 Y106.59 E7.03625
G1 X92.278 Y106.59 E7.06398
G1 X92.898 Y106.629 E7.09498
G1 X93.471 Y106.7 E7.12378
G1 X94.047 Y106.811 E7.15305
G1 X94.632 Y106.961 E7.18318
G1 X95.177 Y107.138 E7.21177
G1 X95.755 Y107.367 E7.24278
G1 X96.285 Y107.617 E7.27202
G1 X96.788 Y107.893 E7.30064
G1 X97.276 Y108.203 E7.32949
G1 X97.78 Y108.57 E7.36059
G1 X98.221 Y108.934 E7.38912
G1 X98.661 Y109.347 E7.41923
G1 X99.066 Y109.779 E7.44877
G1 X99.427 Y110.216 E7.47705
G1 X99.797 Y110.724 E7.5084
G1 X100.107 Y111.212 E7.53725
G1 X100.38 Y111.709 E7.56554
G1 X100.633 Y112.245 E7.59511
G1 X100.86 Y112.818 E7.62586
G1 X101.039 Y113.368 E7.65471
G1 X101.189 Y113.953 E7.68484
G1 X101.297 Y114.509 E7.7131
G1 X101.372 Y115.106 E7.74312
G1 X101.41 Y115.722 E7.77391
G1 X101.41 Y116.278 E7.80165
G1 X101.372 Y116.895 E7.83249
G1 X101.303 Y117.453 E7.86054
G1 X101.189 Y118.047 E7.89071
G1 X101.039 Y118.632 E7.92084
G1 X100.864 Y119.171 E7.94912
G1 X100.636 Y119.749 E7.98012
G1 X100.385 Y120.281 E8.00946
G1 X100.107 Y120.788 E8.03831
G1 X99.797 Y121.276 E8.06715
G1 X99.434 Y121.775 E8.09794
G1 X99.066 Y122.221 E8.12679
G1 X98.661 Y122.653 E8.15633
G1 X98.221 Y123.066 E8.18644
G1 X97.78 Y123.43 E8.21497
G1 X97.276 Y123.797 E8.24607
G1 X96.788 Y124.107 E8.27491
G1 X96.285 Y124.383 E8.30354
G0 F3600 X95.581 Y122.777
G1 F1800 X96.079 Y122.489 E8.33224
G1 X96.552 Y122.167 E8.36079
G1 X97.001 Y121.81 E8.3894
G1 X97.42 Y121.42 E8.41796
G1 X97.81 Y121.001 E8.44652
G1 X98.167 Y120.552 E8.47514
G1 X98.489 Y120.079 E8.50369
G1 X98.777 Y119.581 E8.53239
G1 X99.024 Y119.065 E8.56093
G1 X99.235 Y118.532 E8.58953
G1 X99.403 Y117.984 E8.61812
G1 X99.532 Y117.425 E8.64674
G1 X99.617 Y116.858 E8.67535
G1 X99.66 Y116.288 E8.70387
G1 X99.66 Y115.712 E8.7326
G1 X99.617 Y115.142 E8.76112
G1 X99.532 Y114.575 E8.78973
G1 X99.403 Y114.016 E8.81835
G1 X99.235 Y113.468 E8.84694
G1 X99.024 Y112.935 E8.87554
G1 X98.777 Y112.419 E8.90408
G1 X98.489 Y111.921 E8.93278
G1 X98.167 Y111.448 E8.96133
G1 X97.81 Y110.999 E8.98995
G1 X97.42 Y110.58 E9.01851
G1 X97.001 Y110.19 E9.04707
G1 X96.552 Y109.833 E9.07568
G1 X96.079 Y109.511 E9.10423
G1 X95.581 Y109.223 E9.13293
G1 X95.065 Y108.976 E9.16147
G1 X94.532 Y108.765 E9.19007
G1 X93.984 Y108.597 E9.21867
G1 X93.425 Y108.468 E9.24729
G1 X92.858 Y108.383 E9.27589
G1 X92.288 Y108.34 E9.30441
G1 X91.712 Y108.34 E9.33315
G1 X91.142 Y108.383 E9.36167
G1 X90.575 Y108.468 E9.39027
G1 X90.016 Y108.597 E9.41889
G1 X89.468 Y108.765 E9.44749
G1 X88.935 Y108.976 E9.47609
G1 X88.419 Y109.223 E9.50463
G1 X87.921 Y109.511 E9.53333
G1 X87.448 Y109.833 E9.56188
G1 X86.999 Y110.19 E9.59049
G1 X86.58 Y110.58 E9.61905
G1 X86.19 Y110.999 E9.64761
G1 X85.833 Y111.448 E9.67623
G1 X85.511 Y111.921 E9.70478
G1 X85.223 Y112.419 E9.73348
G1 X84.976 Y112.935 E9.76202
G1 X84.765 Y113.468 E9.79062
G1 X84.596 Y114.016 E9.81923
G1 X84.468 Y114.576 E9.84789
G1 X84.383 Y115.142 E9.87644
G1 X84.34 Y115.712 E9.90496
G1 X84.34 Y116.288 E9.9337
G1 X84.383 Y116.858 E9.96221
G1 X84.468 Y117.424 E9.99077
G1 X84.596 Y117.984 E10.01943
G1 X84.765 Y118.532 E10.04804
G1 X84.976 Y119.065 E10.07664
G1 X85.223 Y119.581 E10.10518
G1 X85.511 Y120.079 E10.13388
G1 X85.833 Y120.552 E10.16243
G1 X86.19 Y121.001 E10.19104
G1 X86.58 Y121.42 E10.2196
G1 X86.999 Y121.81 E10.24816
G1 X87.448 Y122.167 E10.27678
G1 X87.921 Y122.489 E10.30533
G1 X88.419 Y122.777 E10.33403
G1 X88.935 Y123.024 E10.36257
G1 X89.468 Y123.235 E10.39117
G1 X90.016 Y123.403 E10.41976
G1 X90.575 Y123.532 E10.44838
G1 X91.142 Y123.617 E10.47699
G1 X91.712 Y123.66 E10.50551
G1 X92.288 Y123.66 E10.53424
G1 X92.858 Y123.617 E10.56276
G1 X93.425 Y123.532 E10.59136
G1 X93.984 Y123.403 E10.61999
G1 X94.532 Y123.235 E10.64858
G1 X95.065 Y123.024 E10.67718
G1 X95.581 Y122.777 E10.70572
G0 F3600 X92.819 Y123.268
G0 X91.726 Y123.309
G0 X90.641 Y123.187
G0 X89.584 Y122.904
G0 X86.168 Y121.24
G1 F1800 X83.003 Y118.076 E10.92899
G0 F3600 X82.867 Y117.374
G1 F1800 X84.978 Y119.485 E11.07794
G1 X85.048 Y119.555
G0 F3600 X84.572 Y118.513
G1 F1800 X82.798 Y116.739 E11.2031
G0 F3600 X82.769 Y116.145
G1 F1800 X84.352 Y117.728 E11.31479
G0 F3600 X84.228 Y117.038
G1 F1800 X82.778 Y115.587 E11.41713
G0 F3600 X82.814 Y115.058
G1 F1800 X84.169 Y116.413 E11.51273
G0 F3600 X84.159 Y115.838
G1 F1800 X82.877 Y114.555 E11.60322
G0 F3600 X82.968 Y114.081
G1 F1800 X84.19 Y115.302 E11.68941
G0 F3600 X84.252 Y114.799
G1 F1800 X83.08 Y113.627 E11.7721
G0 F3600 X83.207 Y113.188
G1 F1800 X84.34 Y114.322 E11.85207
G0 F3600 X84.453 Y113.868
G1 F1800 X83.353 Y112.768 E11.92968
G0 F3600 X83.513 Y112.363
G1 F1800 X84.586 Y113.436 E12.00539
G0 F3600 X84.745 Y113.029
G1 F1800 X83.691 Y111.976 E12.07972
G0 F3600 X83.883 Y111.601
G1 F1800 X84.919 Y112.637 E12.15281
G0 F3600 X85.107 Y112.26
G1 F1800 X84.087 Y111.24 E12.22478
G0 F3600 X84.306 Y110.894
G1 F1800 X85.314 Y111.901 E12.29586
G0 F3600 X85.538 Y111.56
G1 F1800 X84.541 Y110.563 E12.36621
G0 F3600 X84.784 Y110.24
G1 F1800 X85.775 Y111.231 E12.43613
G0 F3600 X86.025 Y110.916
G1 F1800 X85.04 Y109.931 E12.50563
G0 F3600 X85.313 Y109.637
G1 F1800 X86.296 Y110.62 E12.57498
G0 F3600 X86.576 Y110.335
G1 F1800 X85.595 Y109.354 E12.6442
G0 F3600 X85.887 Y109.08
G1 F1800 X86.87 Y110.063 E12.71355
G0 F3600 X87.184 Y109.811
G1 F1800 X86.195 Y108.823 E12.7833
G0 F3600 X86.515 Y108.577
G1 F1800 X87.51 Y109.571 E12.85346
G0 F3600 X87.848 Y109.344
G1 F1800 X86.844 Y108.34 E12.9243
G0 F3600 X87.189 Y108.12
G1 F1800 X88.206 Y109.136 E12.99602
G0 F3600 X88.58 Y108.945
G1 F1800 X87.548 Y107.912 E13.06887
G0 F3600 X87.92 Y107.719
G1 F1800 X88.968 Y108.767 E13.14281
G0 F3600 X89.374 Y108.607
G1 F1800 X88.304 Y107.538 E13.21827
G0 F3600 X88.709 Y107.376
G1 F1800 X89.805 Y108.473 E13.29563
G0 F3600 X90.253 Y108.355
G1 F1800 X89.125 Y107.227 E13.37522
G0 F3600 X89.56 Y107.096
G1 F1800 X90.726 Y108.262 E13.45749
G0 F3600 X91.224 Y108.195
G1 F1800 X90.011 Y106.981 E13.54311
G0 F3600 X90.485 Y106.89
G1 F1800 X91.754 Y108.159 E13.63264
G0 F3600 X92.321 Y108.16
G1 F1800 X90.984 Y106.823 E13.72698
G0 F3600 X91.51 Y106.783
G1 F1800 X92.938 Y108.212 E13.82776
G0 F3600 X93.618 Y108.326
G1 F1800 X92.061 Y106.769 E13.93762
G0 F3600 X92.652 Y106.794
G1 F1800 X94.39 Y108.533 E14.06028
G1 X94.46 Y108.603
G0 F3600 X95.322 Y108.899
G1 F1800 X93.279 Y106.855 E14.20446
G0 F3600 X93.967 Y106.978
G1 F1800 X96.742 Y109.753 E14.40025
G1 X96.812 Y109.823
G0 F3600 X96.799 Y108.113
G1 F1800 X99.887 Y111.201 E14.61813
G1 X99.957 Y111.271
G0 F3600 X100.487 Y112.367
G1 F1800 X95.633 Y107.512 E14.96064
G1 X95.563 Y107.442
G0 F3600 X94.739 Y107.184
G1 F1800 X100.815 Y113.26 E15.38933
G0 F3600 X101.021 Y114.032
G1 F1800 X98.244 Y111.255 E15.58526
G1 X98.174 Y111.185
G0 F3600 X99.099 Y112.676
G1 F1800 X101.143 Y114.719 E15.72944
G0 F3600 X101.206 Y115.348
G1 F1800 X99.466 Y113.608 E15.85221
G0 F3600 X99.672 Y114.38
G1 F1800 X101.23 Y115.937 E15.9621
G0 F3600 X101.216 Y116.49
G1 F1800 X99.786 Y115.059 E16.06303
G0 F3600 X99.837 Y115.677
G1 F1800 X101.176 Y117.015 E16.15747
G0 F3600 X101.108 Y117.513
G1 F1800 X99.839 Y116.244 E16.247
G0 F3600 X99.803 Y116.773
G1 F1800 X101.017 Y117.988 E16.33269
G0 F3600 X100.902 Y118.438
G1 F1800 X99.735 Y117.272 E16.41499
G0 F3600 X99.642 Y117.744
G1 F1800 X100.771 Y118.873 E16.49465
G0 F3600 X100.623 Y119.291
G1 F1800 X99.525 Y118.193 E16.57212
G0 F3600 X99.39 Y118.624
G1 F1800 X100.462 Y119.695 E16.64772
G0 F3600 X100.281 Y120.08
G1 F1800 X99.23 Y119.029 E16.72188
G0 F3600 X99.053 Y119.418
G1 F1800 X100.086 Y120.451 E16.79476
G0 F3600 X99.879 Y120.809
G1 F1800 X98.861 Y119.791 E16.86658
G0 F3600 X98.654 Y120.15
G1 F1800 X99.66 Y121.156 E16.93756
G0 F3600 X99.422 Y121.484
G1 F1800 X98.426 Y120.488 E17.00784
G0 F3600 X98.186 Y120.814
G1 F1800 X99.176 Y121.804 E17.07769
G0 F3600 X98.919 Y122.113
G1 F1800 X97.935 Y121.128 E17.14715
G0 F3600 X97.662 Y121.421
G1 F1800 X98.645 Y122.404 E17.2165
G0 F3600 X98.36 Y122.685
G1 F1800 X97.379 Y121.703 E17.28575
G0 F3600 X97.083 Y121.973
G1 F1800 X98.067 Y122.958 E17.35522
G0 F3600 X97.757 Y123.213
G1 F1800 X96.768 Y122.224 E17.425
G0 F3600 X96.438 Y122.46
G1 F1800 X97.435 Y123.456 E17.4953
G0 F3600 X97.104 Y123.692
G1 F1800 X96.097 Y122.685 E17.56635
G0 F3600 X95.74 Y122.893
