;FLAVOR:Marlin
;TIME:631
;Filament used: 0.686422m
;Layer height: 0.2
;MINX:95.729
;MINY:88.992
;MINZ:0.3
;MAXX:124.237
;MAXY:116.103
;MAXZ:19.9
;Generated with Cura_SteamEngine 4.5.0
M140 S60
M105
M190 S60
M104 S200
M105
M109 S200
M82 ;absolute extrusion mode
G28 ;Home
G1 Z15.0 F6000 ;Move the platform down 15mm
;Prime the extruder
G92 E0
G1 F200 E3
G92 E0
G92 E0
G92 E0
G1 F1500 E-6.5
;LAYER_COUNT:99
;LAYER:0
M107
G0 F3600 X103.037 Y90.323 Z0.3
;TYPE:SKIRT
G1 F1500 E0
G1 F1800 X103.481 Y89.93 E0.02958
G1 X103.974 Y89.6 E0.05918
G1 X104.506 Y89.34 E0.08872
G1 X105.069 Y89.153 E0.11832
G1 X105.6 Y89.048 E0.14532
G1 X106.191 Y88.992 E0.17494
G1 X106.783 Y89.015 E0.2045
G1 X107.367 Y89.118 E0.23408
G1 X107.932 Y89.298 E0.26367
G1 X108.467 Y89.553 E0.29324
G1 X109.7 Y90.399 E0.36784
G1 X112.262 Y92.255 E0.52567
G1 X112.834 Y92.658 E0.56058
G1 X121.836 Y99.21 E1.11606
G1 X122.447 Y99.666 E1.15409
G1 X122.897 Y100.052 E1.18367
G1 X123.29 Y100.496 E1.21325
G1 X123.621 Y100.988 E1.24284
G1 X123.882 Y101.52 E1.2724
G1 X124.07 Y102.083 E1.30201
G1 X124.17 Y102.567 E1.32667
G1 X124.237 Y103.156 E1.35624
G1 X124.223 Y103.749 E1.38584
G1 X124.13 Y104.335 E1.41544
G1 X123.96 Y104.902 E1.44497
G1 X123.714 Y105.442 E1.47458
G1 X123.444 Y105.88 E1.50025
G1 X123.001 Y106.512 E1.53875
G1 X117.81 Y113.705 E1.9813
G1 X117.384 Y114.279 E2.01696
G1 X116.998 Y114.73 E2.04658
G1 X116.556 Y115.125 E2.07615
G1 X116.117 Y115.426 E2.10271
G1 X115.534 Y115.729 E2.13549
G1 X114.975 Y115.926 E2.16506
G1 X114.456 Y116.037 E2.19154
G1 X113.746 Y116.103 E2.22711
G1 X113.154 Y116.073 E2.25669
G1 X112.571 Y115.962 E2.28629
G1 X112.009 Y115.775 E2.31584
G1 X111.477 Y115.513 E2.34543
G1 X110.546 Y114.879 E2.40162
G1 X98.101 Y105.843 E3.16891
G1 X97.514 Y105.404 E3.20548
G1 X97.065 Y105.017 E3.23505
G1 X96.671 Y104.573 E3.26467
G1 X96.341 Y104.081 E3.29422
G1 X96.08 Y103.548 E3.32383
G1 X95.893 Y102.986 E3.35338
G1 X95.779 Y102.39 E3.38365
G1 X95.729 Y101.799 E3.41324
G1 X95.759 Y101.207 E3.44282
G1 X95.868 Y100.624 E3.47241
G1 X96.055 Y100.061 E3.502
G1 X96.315 Y99.529 E3.53155
G1 X96.845 Y98.742 E3.57888
G1 X102.211 Y91.357 E4.03431
G1 X102.65 Y90.772 E4.0708
G1 X103.037 Y90.323 E4.10038
G0 F3600 X103.34 Y90.585
G1 F1800 X103.767 Y90.215 E4.12856
G1 X104.242 Y89.908 E4.15678
G1 X104.756 Y89.672 E4.185
G1 X105.519 Y89.467 E4.22441
G1 X106.228 Y89.391 E4.25999
G1 X106.793 Y89.419 E4.28821
G1 X107.348 Y89.526 E4.31641
G1 X107.882 Y89.71 E4.34459
G1 X108.385 Y89.968 E4.37279
G1 X109.469 Y90.725 E4.43875
G1 X112.032 Y92.582 E4.59666
G1 X112.604 Y92.985 E4.63157
G1 X121.601 Y99.533 E5.18672
G1 X122.207 Y99.986 E5.22447
G1 X122.635 Y100.356 E5.2527
G1 X123.006 Y100.783 E5.28092
G1 X123.313 Y101.257 E5.30909
G1 X123.551 Y101.77 E5.33731
G1 X123.746 Y102.473 E5.3737
G1 X123.838 Y103.2 E5.41026
G1 X123.82 Y103.765 E5.43846
G1 X123.722 Y104.322 E5.46668
G1 X123.547 Y104.86 E5.4949
G1 X123.297 Y105.367 E5.52311
G1 X122.673 Y106.282 E5.57836
G1 X117.485 Y113.471 E6.02066
G1 X117.063 Y114.04 E6.05601
G1 X116.694 Y114.469 E6.08424
G1 X116.269 Y114.841 E6.11242
G1 X115.856 Y115.116 E6.13717
G1 X115.352 Y115.372 E6.16537
G1 X114.817 Y115.554 E6.19357
G1 X114.277 Y115.659 E6.22101
G1 X113.714 Y115.704 E6.24919
G1 X113.149 Y115.669 E6.27743
G1 X112.596 Y115.555 E6.3056
G1 X112.064 Y115.363 E6.33382
G1 X111.374 Y114.973 E6.37336
G1 X110.777 Y114.552 E6.40981
G1 X98.336 Y105.519 E7.17684
G1 X97.754 Y105.083 E7.21312
G1 X97.327 Y104.713 E7.24131
G1 X96.956 Y104.287 E7.26949
G1 X96.648 Y103.812 E7.29773
G1 X96.411 Y103.299 E7.32593
G1 X96.198 Y102.486 E7.36786
G1 X96.128 Y101.766 E7.40395
G1 X96.162 Y101.202 E7.43214
G1 X96.276 Y100.648 E7.46036
G1 X96.466 Y100.115 E7.48859
G1 X96.85 Y99.433 E7.52763
G1 X97.173 Y98.971 E7.55576
G1 X102.534 Y91.592 E8.0108
G1 X102.969 Y91.012 E8.04697
G1 X103.34 Y90.585 E8.07519
G0 F3600 X103.642 Y90.849
G1 F1800 X104.052 Y90.502 E8.10199
G1 X104.508 Y90.22 E8.12874
G1 X105.001 Y90.009 E8.15549
G1 X105.584 Y89.862 E8.18549
G1 X106.264 Y89.79 E8.2196
G1 X106.8 Y89.823 E8.24639
G1 X107.324 Y89.935 E8.27313
G1 X107.826 Y90.123 E8.29987
G1 X108.4 Y90.456 E8.33298
G1 X109.237 Y91.051 E8.38421
G1 X111.801 Y92.909 E8.54218
G1 X112.373 Y93.312 E8.57709
G1 X121.366 Y99.856 E9.13197
G1 X121.968 Y100.307 E9.1695
G1 X122.372 Y100.659 E9.19623
G1 X122.719 Y101.067 E9.22295
G1 X123.002 Y101.523 E9.24973
G1 X123.214 Y102.016 E9.2765
G1 X123.353 Y102.545 E9.30379
G1 X123.439 Y103.243 E9.33887
G1 X123.416 Y103.779 E9.36564
G1 X123.313 Y104.305 E9.39238
G1 X123.133 Y104.811 E9.41918
G1 X122.789 Y105.42 E9.45407
G1 X122.346 Y106.052 E9.49258
G1 X117.161 Y113.237 E9.93463
G1 X116.742 Y113.801 E9.96968
G1 X116.39 Y114.207 E9.99649
G1 X115.983 Y114.555 E10.02321
G1 X115.65 Y114.773 E10.04306
G1 X115.171 Y115.014 E10.06981
G1 X114.661 Y115.181 E10.09659
G1 X114.217 Y115.264 E10.11912
G1 X113.683 Y115.304 E10.14584
G1 X113.148 Y115.265 E10.1726
G1 X112.625 Y115.146 E10.19936
G1 X112.125 Y114.951 E10.22613
G1 X111.604 Y114.646 E10.25625
G1 X111.007 Y114.225 E10.2927
G1 X108.156 Y112.153 E10.46853
G1 X98.571 Y105.195 E11.05944
G1 X97.994 Y104.763 E11.0954
G1 X97.59 Y104.411 E11.12214
G1 X97.242 Y104.002 E11.14893
G1 X96.96 Y103.546 E11.17568
G1 X96.748 Y103.054 E11.20241
G1 X96.593 Y102.426 E11.23468
G1 X96.528 Y101.734 E11.26935
G1 X96.567 Y101.199 E11.29612
G1 X96.684 Y100.676 E11.32285
G1 X96.878 Y100.176 E11.34961
G1 X97.178 Y99.662 E11.3793
G1 X97.501 Y99.2 E11.40743
G1 X102.858 Y91.828 E11.86207
G1 X103.289 Y91.252 E11.89796
G1 X103.642 Y90.849 E11.92469
G0 F3600 X103.944 Y91.113
G1 F1800 X104.334 Y90.792 E11.94989
G1 X104.77 Y90.536 E11.97511
G1 X105.24 Y90.351 E12.00031
G1 X105.795 Y90.232 E12.02863
G1 X106.299 Y90.19 E12.05386
G1 X106.803 Y90.228 E12.07908
G1 X107.295 Y90.344 E12.1043
G1 X107.762 Y90.537 E12.12951
G1 X109.005 Y91.377 E12.20435
G1 X111.571 Y93.236 E12.36244
G1 X112.143 Y93.639 E12.39734
G1 X121.13 Y100.18 E12.95189
G1 X121.728 Y100.627 E12.98914
G1 X122.108 Y100.961 E13.01438
G1 X122.43 Y101.35 E13.03957
G1 X122.687 Y101.786 E13.06482
G1 X122.872 Y102.256 E13.09002
G1 X122.989 Y102.782 E13.11691
G1 X123.04 Y103.285 E13.14213
G1 X123.011 Y103.789 E13.16732
G1 X122.903 Y104.283 E13.19254
G1 X122.719 Y104.754 E13.21777
G1 X122.461 Y105.191 E13.24309
G1 X122.018 Y105.823 E13.28159
G1 X116.837 Y113.003 E13.72333
G1 X116.421 Y113.563 E13.75813
G1 X116.088 Y113.943 E13.78334
G1 X115.499 Y114.397 E13.82044
G1 X114.992 Y114.655 E13.84882
G1 X114.277 Y114.85 E13.8858
G1 X113.653 Y114.904 E13.91704
G1 X113.15 Y114.86 E13.94223
G1 X112.659 Y114.737 E13.96749
G1 X112.194 Y114.539 E13.9927
G1 X111.238 Y113.898 E14.05013
G1 X98.806 Y104.872 E14.81659
G1 X98.234 Y104.443 E14.85226
G1 X97.854 Y104.109 E14.8775
G1 X97.532 Y103.719 E14.90274
G1 X97.275 Y103.284 E14.92794
G1 X97.09 Y102.813 E14.95319
G1 X96.965 Y102.209 E14.98396
G1 X96.928 Y101.704 E15.00922
G1 X96.971 Y101.201 E15.03441
G1 X97.093 Y100.71 E15.05965
G1 X97.291 Y100.245 E15.08486
G1 X97.828 Y99.429 E15.1336
G1 X103.181 Y92.063 E15.58788
G1 X103.609 Y91.492 E15.62348
G1 X103.944 Y91.113 E15.64872
G0 F3600 X106.275 Y93.59
;TYPE:SUPPORT
G1 F1800 X106.535 Y93.774 E15.66461
G1 X107.391 Y94.415 E15.71796
G1 X107.721 Y94.641 E15.73792
G1 X109.449 Y95.895 E15.84444
G1 X103.507 Y104.073 E16.34876
G1 X100.328 Y101.774 E16.54449
G1 X106.275 Y93.59 E17.04921
G0 F3600 X106.68 Y94.083
G1 F1800 X106.68 Y99.434 E17.31617
G0 F3600 X107.227 Y98.679
G1 F1800 X102.776 Y98.679 E17.53823
G0 F3600 X104.013 Y96.976
G1 F1800 X104.013 Y103.104 E17.84396
G0 F3600 X105.29 Y101.346
G1 F1800 X100.838 Y101.346 E18.06607
G0 F3600 X101.346 Y100.646
G1 F1800 X101.346 Y102.313 E18.14924
G0 F3600 X104.714 Y96.012
G1 F1800 X109.165 Y96.012 E18.3713
G1 F1500 E11.8713
G0 F3600 X110.559 Y95.637
G0 X116.405 Y99.884
G0 X116.497 Y101.015
G1 F1500 E18.3713
G1 F1800 X116.936 Y101.334 E18.39837
G1 X118.709 Y102.628 E18.50788
G1 X119.644 Y103.303 E18.56541
G1 X113.725 Y111.504 E19.07
G1 X110.551 Y109.197 E19.26576
G1 X116.497 Y101.015 E19.77037
G0 F3600 X116.455 Y101.346
G1 F1800 X116.679 Y101.346 E19.78154
G0 F3600 X117.348 Y101.833
G1 F1800 X117.348 Y106.213 E20.00006
G0 F3600 X117.009 Y106.68
G1 F1800 X112.579 Y106.68 E20.22108
G0 F3600 X112.014 Y107.456
G1 F1800 X112.014 Y110.062 E20.35109
G0 F3600 X111.029 Y109.347
G1 F1800 X115.085 Y109.347 E20.55344
G0 F3600 X114.681 Y109.908
G1 F1800 X114.681 Y103.786 E20.85887
G0 F3600 X114.517 Y104.013
G1 F1800 X118.934 Y104.013 E21.07924
G1 F1500 E14.57924
;MESH:cylinder_2_0.1cm_tol.stl
G0 F3600 X115.725 Y101.678
G0 X114.701 Y100.935
G0 X114.931 Y100.619
;TYPE:WALL-INNER
G1 F1500 E21.07924
G1 F1800 X109.572 Y107.992 E21.53398
G1 X104.953 Y104.635 E21.81885
G1 X110.428 Y97.101 E22.28349
G1 X114.887 Y100.341 E22.55848
G1 X115.048 Y100.458 E22.56841
G1 X114.931 Y100.619 E22.57483
G0 F3600 X115.49 Y100.53
;TYPE:WALL-OUTER
G1 F1800 X109.661 Y108.551 E23.06951
G1 X104.394 Y104.724 E23.39432
G1 X110.339 Y96.542 E23.8989
G1 X115.446 Y100.252 E24.21382
G1 X115.607 Y100.369 E24.22375
G1 X115.49 Y100.53 E24.23018
G0 F3600 X115.373 Y100.691
G0 X114.502 Y100.544
;TYPE:SKIN
G1 F1800 X109.486 Y107.446 E24.65585
G1 X105.499 Y104.549 E24.90173
G1 X110.514 Y97.647 E25.32737
G1 X114.502 Y100.544 E25.57329
G0 F3600 X114.211 Y100.635
G1 F1800 X113.924 Y100.347 E25.59357
G0 F3600 X113.974 Y100.963
G1 F1800 X111.856 Y98.845 E25.74301
G1 X111.786 Y98.775
G0 F3600 X110.464 Y98.019
G1 F1800 X113.736 Y101.29 E25.97383
G0 F3600 X113.497 Y101.618
G1 F1800 X110.226 Y98.347 E26.20462
G0 F3600 X109.989 Y98.675
G1 F1800 X113.26 Y101.946 E26.4354
G0 F3600 X113.021 Y102.273
G1 F1800 X109.75 Y99.002 E26.66619
G0 F3600 X109.512 Y99.33
G1 F1800 X112.783 Y102.601 E26.89698
G0 F3600 X112.545 Y102.928
G1 F1800 X109.274 Y99.658 E27.12773
G0 F3600 X109.036 Y99.985
G1 F1800 X112.307 Y103.256 E27.35851
G0 F3600 X112.069 Y103.584
G1 F1800 X108.798 Y100.312 E27.58934
G0 F3600 X108.56 Y100.641
G1 F1800 X111.831 Y103.911 E27.82009
G0 F3600 X111.593 Y104.239
G1 F1800 X108.322 Y100.968 E28.05087
G0 F3600 X108.084 Y101.295
G1 F1800 X111.355 Y104.566 E28.28166
G0 F3600 X111.116 Y104.894
G1 F1800 X107.846 Y101.623 E28.51241
G0 F3600 X107.608 Y101.951
G1 F1800 X110.879 Y105.222 E28.7432
G0 F3600 X110.64 Y105.549
G1 F1800 X107.369 Y102.278 E28.97399
G0 F3600 X107.132 Y102.606
G1 F1800 X110.402 Y105.877 E29.20474
G0 F3600 X110.164 Y106.204
G1 F1800 X106.894 Y102.934 E29.43545
G0 F3600 X106.655 Y103.261
G1 F1800 X109.926 Y106.532 E29.66624
G0 F3600 X109.688 Y106.86
G1 F1800 X106.418 Y103.589 E29.89699
G0 F3600 X106.179 Y103.917
G1 F1800 X109.45 Y107.187 E30.12774
G1 X109.52 Y107.257
G0 F3600 X107.416 Y105.719
G1 F1800 X105.942 Y104.245 E30.23174
G1 X105.872 Y104.175
G1 F1500 E23.73174
;MESH:NONMESH
G0 F600 X105.872 Y104.175 Z0.5
G0 F3600 X104.71 Y102.818
G0 X101.346 Y100.371
;TIME_ELAPSED:26.631322
;LAYER:1
M140 S60
M106 S255
;TYPE:SUPPORT
G1 F1500 E30.23174
G1 F2700 X104.013 Y96.701 E30.38263
G1 X104.013 Y103.515 E30.60927
G1 X106.68 Y99.844 E30.76019
G1 X106.68 Y93.884 E30.95842
G1 X107.405 Y94.425 E30.9885
G1 X107.737 Y94.653 E31.0019
G1 X107.971 Y94.823 E31.01152
G1 X109.162 Y95.686 E31.06044
G1 X109.347 Y95.821 E31.06806
G1 X109.424 Y95.877 E31.07122
G1 X109.514 Y95.943 E31.07493
G1 X109.347 Y96.173 E31.08439
G1 X109.347 Y95.821 E31.0961
G0 F5400 X101.346 Y100.371
G1 F2700 X101.346 Y102.508 E31.16717
G1 X100.726 Y102.06 E31.19261
G1 X100.392 Y101.82 E31.20629
G1 X100.328 Y101.774 E31.20891
G0 F5400 X100.328 Y101.772
G1 F2700 X101.346 Y100.371 E31.26651
G1 F1500 E24.76651
G0 F5400 X103.318 Y105.007
G0 X109.719 Y109.659
G0 X112.168 Y107.158
G0 X112.014 Y107.047
G1 F1500 E31.26651
G1 F2700 X110.489 Y109.146 E31.35281
G1 X111.056 Y109.565 E31.37626
G1 X112.014 Y110.261 E31.41564
G1 X112.014 Y107.047 E31.52254
G1 X114.681 Y103.376 E31.67346
G1 X114.681 Y110.18 E31.89976
G1 X117.348 Y106.485 E32.05133
G1 X119.644 Y103.303 E32.18183
G1 X118.714 Y102.631 E32.22
G1 X118.171 Y102.233 E32.24239
G1 X118.096 Y102.177 E32.2455
G1 X118.086 Y102.17 E32.24591
G1 X117.348 Y101.634 E32.27624
G1 X117.348 Y106.485 E32.43759
G1 F1500 E25.93759
;MESH:cylinder_2_0.1cm_tol.stl
G0 F5400 X114.279 Y104.253
G0 X113.255 Y103.51
G0 X109.888 Y107.975
G0 X109.968 Y108.034
;TYPE:WALL-INNER
G1 F1500 E32.43759
G1 F2700 X109.851 Y108.195 E32.44421
G1 X109.69 Y108.078 E32.44849
G1 X104.675 Y104.433 E32.65469
G1 X110.033 Y97.059 E32.95786
G1 X110.15 Y96.898 E32.96448
G1 X110.311 Y97.015 E32.96876
G1 X115.326 Y100.66 E33.17497
G1 X109.968 Y108.034 E33.47813
G0 F5400 X110.056 Y108.593
;TYPE:WALL-OUTER
G1 F1800 X109.939 Y108.754 E33.48475
G1 X109.778 Y108.637 E33.48904
G1 X104.116 Y104.522 E33.72184
G1 X109.944 Y96.5 E34.05163
G1 X110.061 Y96.339 E34.05825
G1 X110.222 Y96.456 E34.06253
G1 X115.885 Y100.572 E34.29538
G1 X110.056 Y108.593 E34.62516
G0 F5400 X109.939 Y108.754
G0 X109.836 Y108.097
G0 X109.765 Y107.649
;TYPE:SKIN
G1 F1800 X105.221 Y104.347 E34.81199
G1 X110.236 Y97.444 E35.09578
G1 X114.78 Y100.746 E35.2826
G1 X109.765 Y107.649 E35.56639
G0 F5400 X109.455 Y107.201
G1 F1800 X110.955 Y105.701 E35.63694
G1 X111.025 Y105.631
G0 F5400 X109.127 Y106.964
G1 F1800 X112.457 Y103.634 E35.79358
G1 X112.527 Y103.564
G0 F5400 X113.96 Y101.565
G1 F1800 X108.8 Y106.725 E36.03629
G0 F5400 X108.473 Y106.487
G1 F1800 X114.323 Y100.636 E36.31148
G0 F5400 X113.996 Y100.398
G1 F1800 X108.144 Y106.249 E36.58671
G0 F5400 X107.817 Y106.011
G1 F1800 X113.668 Y100.16 E36.86193
G0 F5400 X113.34 Y99.922
G1 F1800 X107.49 Y105.773 E37.13712
G0 F5400 X107.162 Y105.535
G1 F1800 X113.013 Y99.684 E37.41233
G0 F5400 X112.685 Y99.446
G1 F1800 X106.834 Y105.297 E37.68754
G0 F5400 X106.507 Y105.059
G1 F1800 X112.357 Y99.208 E37.96273
G0 F5400 X112.03 Y98.97
G1 F1800 X106.179 Y104.821 E38.23794
G0 F5400 X105.851 Y104.583
G1 F1800 X111.702 Y98.732 E38.51316
G0 F5400 X111.374 Y98.494
G1 F1800 X105.524 Y104.344 E38.78832
G1 X105.454 Y104.414
G0 F5400 X106.734 Y102.568
G1 F1800 X111.047 Y98.256 E38.99117
G0 F5400 X110.719 Y98.018
G1 F1800 X108.238 Y100.498 E39.10785
G1 X108.168 Y100.568
G0 F5400 X109.742 Y98.429
G1 F1800 X110.392 Y97.78 E39.1384
G1 X110.462 Y97.71
G1 F1500 E32.6384
;MESH:NONMESH
G0 F600 X110.462 Y97.71 Z0.7
G0 F5400 X105.472 Y103.369
G0 X104.432 Y102.615
G0 X101.346 Y100.37
;TIME_ELAPSED:36.887811
;LAYER:2
;TYPE:SUPPORT
G1 F1500 E39.1384
G1 F3600 X104.013 Y96.7 E39.28929
G1 X104.013 Y103.047 E39.50039
G1 X106.68 Y99.375 E39.65134
G1 X109.291 Y95.78 E39.79911
G1 X109.166 Y95.689 E39.80426
G1 X107.973 Y94.824 E39.85327
G1 X107.761 Y94.67 E39.86198
G1 X107.412 Y94.43 E39.87607
G1 X106.68 Y93.884 E39.90644
G1 X106.68 Y99.375 E40.08908
G1 F1500 E33.58908
G0 F7200 X106.526 Y99.265
G0 X101.346 Y100.37
G1 F1500 E40.08908
G1 F3600 X101.346 Y102.508 E40.16019
G1 X100.724 Y102.058 E40.18572
G1 X100.393 Y101.82 E40.19928
G1 X100.327 Y101.773 E40.20197
G0 F7200 X100.327 Y101.772
G1 F3600 X101.346 Y100.37 E40.25962
G1 F1500 E33.75962
G0 F7200 X103.097 Y104.848
G0 X109.942 Y109.82
G0 X112.168 Y107.626
G0 X112.014 Y107.515
G1 F1500 E40.25962
G1 F3600 X110.708 Y109.313 E40.33353
G1 X111.054 Y109.564 E40.34775
G1 X112.014 Y110.261 E40.38721
G1 X112.014 Y107.515 E40.47854
G1 X114.681 Y103.845 E40.62943
G1 X114.681 Y110.18 E40.84014
G1 X117.348 Y106.486 E40.99167
G1 X119.645 Y103.304 E41.1222
G1 X118.719 Y102.635 E41.1602
G1 X118.177 Y102.236 E41.18258
G1 X118.119 Y102.195 E41.18495
G1 X118.08 Y102.166 E41.18656
G1 X117.348 Y101.634 E41.21666
G1 X117.348 Y106.486 E41.37804
G1 F1500 E34.87804
;MESH:cylinder_2_0.1cm_tol.stl
G0 F7200 X114.502 Y104.414
G0 X113.462 Y103.66
G0 X104.648 Y104.169
G0 X104.569 Y104.111
;TYPE:WALL-INNER
G1 F1500 E41.37804
G1 F3600 X109.927 Y96.737 E41.6812
G1 X115.388 Y100.705 E41.90572
G1 X115.549 Y100.822 E41.91234
G1 X115.432 Y100.983 E41.91663
G1 X110.073 Y108.356 E42.21979
G1 X104.613 Y104.389 E42.44426
G1 X104.452 Y104.272 E42.45088
G1 X104.569 Y104.111 E42.45516
G0 F7200 X104.01 Y104.2
;TYPE:WALL-OUTER
G1 F1800 X109.838 Y96.178 E42.78495
G1 X115.947 Y100.616 E43.0361
G1 X116.108 Y100.733 E43.04271
G1 X115.991 Y100.894 E43.047
G1 X110.162 Y108.915 E43.37678
