;FLAVOR:Marlin
;TIME:437
;Filament used: 0.400157m
;Layer height: 0.2
;MINX:96
;MINY:96.005
;MINZ:0.3
;MAXX:123.984
;MAXY:123.981
;MAXZ:9.9
;Generated with Cura_SteamEngine 4.5.0
M140 S60
M105
M190 S60
M104 S200
M105
M109 S200
M82 ;absolute extrusion mode
G28 ;Home
G1 Z15.0 F6000 ;Move the platform down 15mm
;Prime the extruder
G92 E0
G1 F200 E3
G92 E0
G92 E0
G92 E0
G1 F1500 E-6.5
;LAYER_COUNT:49
;LAYER:0
M107
G0 F3600 X99.762 Y100.441 Z0.3
;TYPE:SKIRT
G1 F1500 E0
G1 F1800 X100.581 Y99.647 E0.05691
G1 X101.175 Y99.126 E0.09633
G1 X102.108 Y98.443 E0.15402
G1 X102.792 Y97.993 E0.19486
G1 X103.795 Y97.458 E0.25158
G1 X104.536 Y97.108 E0.29246
G1 X105.555 Y96.733 E0.34663
G1 X106.386 Y96.473 E0.39007
G1 X107.467 Y96.241 E0.44523
G1 X108.301 Y96.105 E0.48739
G1 X109.376 Y96.025 E0.54117
G1 X110.262 Y96.005 E0.58539
G1 X111.365 Y96.081 E0.64054
G1 X112.188 Y96.177 E0.68188
G1 X113.266 Y96.403 E0.73683
G1 X114.082 Y96.615 E0.7789
G1 X115.129 Y96.991 E0.8344
G1 X115.893 Y97.309 E0.87568
G1 X116.928 Y97.856 E0.93409
G1 X117.619 Y98.265 E0.97415
G1 X118.496 Y98.897 E1.02808
G1 X119.186 Y99.45 E1.07219
G1 X119.963 Y100.195 E1.1259
G1 X120.545 Y100.81 E1.16814
G1 X121.247 Y101.701 E1.22473
G1 X121.711 Y102.354 E1.2647
G1 X122.3 Y103.362 E1.32294
G1 X122.679 Y104.094 E1.36407
G1 X123.098 Y105.125 E1.41959
G1 X123.382 Y105.935 E1.46241
G1 X123.65 Y106.996 E1.51701
G1 X123.818 Y107.834 E1.55965
G1 X123.935 Y108.934 E1.61484
G1 X123.984 Y109.776 E1.65692
G1 X123.947 Y110.892 E1.71263
G1 X123.88 Y111.712 E1.75367
G1 X123.682 Y112.847 E1.81115
G1 X123.502 Y113.645 E1.85196
G1 X123.161 Y114.703 E1.90742
G1 X122.866 Y115.485 E1.94912
G1 X122.394 Y116.46 E2.00316
G1 X121.988 Y117.206 E2.04554
G1 X121.338 Y118.173 E2.10367
G1 X120.855 Y118.824 E2.14411
G1 X120.154 Y119.608 E2.19658
G1 X119.537 Y120.234 E2.24043
G1 X118.685 Y120.955 E2.29611
G1 X118.006 Y121.473 E2.33872
G1 X117.112 Y122.039 E2.39151
G1 X116.336 Y122.476 E2.43594
G1 X115.301 Y122.939 E2.49251
G1 X114.551 Y123.233 E2.5327
G1 X113.502 Y123.539 E2.58721
G1 X112.666 Y123.738 E2.63009
G1 X111.586 Y123.896 E2.68454
G1 X110.696 Y123.979 E2.72914
G1 X109.579 Y123.981 E2.78486
G1 X108.755 Y123.942 E2.82602
G1 X107.657 Y123.792 E2.88131
G1 X106.821 Y123.635 E2.92375
G1 X105.786 Y123.342 E2.97741
G1 X104.979 Y123.07 E3.0199
G1 X103.944 Y122.615 E3.0763
G1 X103.18 Y122.231 E3.11896
G1 X102.239 Y121.644 E3.1743
G1 X101.551 Y121.168 E3.21603
G1 X100.706 Y120.464 E3.27091
G1 X100.084 Y119.89 E3.31313
G1 X99.329 Y119.056 E3.36926
G1 X98.818 Y118.435 E3.40938
G1 X98.175 Y117.49 E3.4664
G1 X97.738 Y116.773 E3.5083
G1 X97.269 Y115.822 E3.5612
G1 X96.917 Y115.009 E3.6054
G1 X96.561 Y113.923 E3.66242
G1 X96.344 Y113.129 E3.70348
G1 X96.15 Y112.046 E3.75837
G1 X96.041 Y111.191 E3.80137
G1 X96 Y110.036 E3.85903
G1 X96.01 Y109.247 E3.8984
G1 X96.117 Y108.191 E3.95135
G1 X96.252 Y107.304 E3.99612
G1 X96.511 Y106.25 E4.05026
G1 X96.757 Y105.429 E4.09302
G1 X97.161 Y104.421 E4.1472
G1 X97.518 Y103.642 E4.18995
G1 X98.038 Y102.73 E4.24233
G1 X98.534 Y101.954 E4.28828
G1 X99.21 Y101.084 E4.34324
G1 X99.762 Y100.441 E4.38552
G0 F3600 X100.065 Y100.702
G1 F1800 X100.853 Y99.94 E4.44021
G1 X101.438 Y99.427 E4.47903
G1 X102.338 Y98.771 E4.53459
G1 X103.011 Y98.328 E4.57479
G1 X103.975 Y97.815 E4.62927
G1 X104.706 Y97.47 E4.6696
G1 X105.685 Y97.111 E4.72162
G1 X106.505 Y96.855 E4.76448
G1 X107.542 Y96.634 E4.81737
G1 X108.365 Y96.5 E4.85897
G1 X109.397 Y96.425 E4.9106
G1 X110.27 Y96.405 E4.95416
G1 X111.328 Y96.479 E5.00708
G1 X112.141 Y96.574 E5.04791
G1 X113.176 Y96.792 E5.10068
G1 X113.981 Y97.002 E5.14219
G1 X114.986 Y97.365 E5.1955
G1 X115.739 Y97.678 E5.23618
G1 X116.734 Y98.206 E5.29238
G1 X117.415 Y98.609 E5.33186
G1 X118.255 Y99.216 E5.38356
G1 X118.935 Y99.761 E5.42704
G1 X119.681 Y100.477 E5.47862
G1 X120.254 Y101.084 E5.52027
G1 X120.928 Y101.942 E5.5747
G1 X121.384 Y102.585 E5.61403
G1 X121.951 Y103.557 E5.67017
G1 X122.323 Y104.276 E5.71056
G1 X122.725 Y105.267 E5.76391
G1 X123.004 Y106.067 E5.80618
G1 X123.26 Y107.085 E5.85855
G1 X123.426 Y107.912 E5.90063
G1 X123.537 Y108.967 E5.95356
G1 X123.584 Y109.798 E5.99508
G1 X123.548 Y110.87 E6.0486
G1 X123.482 Y111.678 E6.08904
G1 X123.289 Y112.77 E6.14437
G1 X123.112 Y113.556 E6.18456
G1 X122.783 Y114.572 E6.23784
G1 X122.492 Y115.343 E6.27896
G1 X122.038 Y116.277 E6.33077
G1 X121.637 Y117.014 E6.37263
G1 X121.011 Y117.943 E6.42851
G1 X120.534 Y118.585 E6.46842
G1 X119.862 Y119.334 E6.51862
G1 X119.253 Y119.953 E6.56194
G1 X118.434 Y120.644 E6.6154
G1 X117.764 Y121.154 E6.65741
G1 X116.905 Y121.696 E6.70809
G1 X116.14 Y122.127 E6.75189
G1 X115.146 Y122.57 E6.80618
G1 X114.406 Y122.86 E6.84584
G1 X113.398 Y123.152 E6.89819
G1 X112.574 Y123.349 E6.94046
G1 X111.537 Y123.499 E6.99274
G1 X110.66 Y123.581 E7.03668
G1 X109.588 Y123.581 E7.09016
G1 X108.775 Y123.543 E7.13077
G1 X107.72 Y123.397 E7.1839
G1 X106.895 Y123.242 E7.22578
G1 X105.904 Y122.96 E7.27719
G1 X105.107 Y122.691 E7.31915
G1 X104.113 Y122.252 E7.37337
G1 X103.361 Y121.874 E7.41536
G1 X102.458 Y121.31 E7.46847
G1 X101.779 Y120.84 E7.50967
G1 X100.969 Y120.163 E7.56234
G1 X100.355 Y119.597 E7.604
G1 X99.631 Y118.794 E7.65794
G1 X99.128 Y118.182 E7.69746
G1 X98.51 Y117.271 E7.75239
G1 X98.08 Y116.565 E7.79363
G1 X97.632 Y115.653 E7.84432
G1 X97.284 Y114.85 E7.88798
G1 X96.944 Y113.806 E7.94276
G1 X96.73 Y113.025 E7.98316
G1 X96.545 Y111.984 E8.03591
G1 X96.438 Y111.141 E8.07831
G1 X96.4 Y110.03 E8.13377
G1 X96.41 Y109.253 E8.17253
G1 X96.514 Y108.24 E8.22334
G1 X96.647 Y107.365 E8.26749
G1 X96.897 Y106.355 E8.3194
G1 X97.14 Y105.545 E8.36159
G1 X97.529 Y104.578 E8.41359
G1 X97.881 Y103.81 E8.45574
G1 X98.381 Y102.936 E8.50598
G1 X98.87 Y102.17 E8.55132
G1 X99.52 Y101.337 E8.60403
G1 X100.065 Y100.702 E8.64578
G0 F3600 X100.368 Y100.963
G1 F1800 X101.125 Y100.233 E8.69825
G1 X101.701 Y99.729 E8.73643
G1 X102.568 Y99.098 E8.78993
G1 X103.23 Y98.662 E8.82948
G1 X104.156 Y98.172 E8.88174
G1 X104.876 Y97.832 E8.92147
G1 X105.815 Y97.49 E8.97132
G1 X106.623 Y97.238 E9.01355
G1 X107.618 Y97.027 E9.0643
G1 X108.428 Y96.895 E9.10524
G1 X109.418 Y96.824 E9.15476
G1 X110.279 Y96.805 E9.19772
G1 X111.292 Y96.877 E9.24839
G1 X112.094 Y96.971 E9.28868
G1 X113.085 Y97.182 E9.33923
G1 X113.879 Y97.389 E9.38016
G1 X114.843 Y97.738 E9.43131
G1 X115.584 Y98.047 E9.47137
G1 X116.539 Y98.555 E9.52533
G1 X117.211 Y98.953 E9.5643
G1 X118.014 Y99.535 E9.61378
G1 X118.684 Y100.073 E9.65664
G1 X119.398 Y100.76 E9.70608
G1 X119.963 Y101.359 E9.74716
G1 X120.608 Y102.183 E9.79936
G1 X121.058 Y102.816 E9.83811
G1 X121.602 Y103.752 E9.89212
G1 X121.967 Y104.459 E9.93182
G1 X122.351 Y105.41 E9.98299
G1 X122.627 Y106.198 E10.02464
G1 X122.87 Y107.175 E10.07487
G1 X123.034 Y107.99 E10.11634
G1 X123.138 Y109 E10.167
G1 X123.185 Y109.821 E10.20803
G1 X123.148 Y110.848 E10.2593
G1 X123.083 Y111.645 E10.29919
G1 X122.897 Y112.693 E10.35229
G1 X122.722 Y113.467 E10.39188
G1 X122.405 Y114.441 E10.44299
G1 X122.118 Y115.201 E10.48352
G1 X121.682 Y116.095 E10.53314
G1 X121.286 Y116.822 E10.57444
G1 X120.684 Y117.713 E10.62809
G1 X120.213 Y118.346 E10.66745
G1 X119.571 Y119.061 E10.71539
G1 X118.968 Y119.672 E10.75822
G1 X118.183 Y120.332 E10.80939
G1 X117.522 Y120.836 E10.85086
G1 X116.699 Y121.353 E10.89935
G1 X115.944 Y121.779 E10.9426
G1 X114.991 Y122.201 E10.99459
G1 X114.26 Y122.487 E11.03376
G1 X113.295 Y122.766 E11.08387
G1 X112.482 Y122.959 E11.12556
G1 X111.488 Y123.102 E11.17566
G1 X110.623 Y123.183 E11.21901
G1 X109.596 Y123.181 E11.27024
G1 X108.795 Y123.143 E11.31025
G1 X107.782 Y123.002 E11.36128
G1 X106.969 Y122.849 E11.40255
G1 X106.022 Y122.578 E11.45169
G1 X105.236 Y122.313 E11.49307
G1 X104.281 Y121.889 E11.5452
G1 X103.542 Y121.517 E11.58648
G1 X102.677 Y120.975 E11.63741
G1 X102.007 Y120.511 E11.67807
G1 X101.231 Y119.861 E11.72857
G1 X100.627 Y119.303 E11.76959
G1 X99.933 Y118.532 E11.82135
G1 X99.438 Y117.929 E11.86027
G1 X98.845 Y117.053 E11.91304
G1 X98.422 Y116.358 E11.95363
G1 X97.995 Y115.485 E12.00212
G1 X97.652 Y114.692 E12.04522
G1 X97.327 Y113.69 E12.09778
G1 X97.116 Y112.92 E12.13761
G1 X96.941 Y111.922 E12.18816
G1 X96.835 Y111.092 E12.22991
G1 X96.8 Y110.025 E12.28317
G1 X96.81 Y109.259 E12.32139
G1 X96.911 Y108.289 E12.37004
G1 X97.042 Y107.426 E12.41359
G1 X97.283 Y106.46 E12.46326
G1 X97.523 Y105.66 E12.50493
G1 X97.897 Y104.735 E12.55471
G1 X98.245 Y103.977 E12.59632
G1 X98.724 Y103.142 E12.64435
G1 X99.207 Y102.386 E12.6891
G1 X99.83 Y101.59 E12.73953
G1 X100.368 Y100.963 E12.78075
G1 F1500 E6.28075
;MESH:cylinder_2_0.005_tol.stl
G0 F3600 X104.575 Y100.802
G0 X105.294 Y101.867
G0 X112.867 Y101.145
G0 X112.897 Y101.05
;TYPE:WALL-INNER
G1 F1500 E12.78075
G1 F1800 X114.116 Y101.542 E12.84633
G1 X115.248 Y102.197 E12.91158
G1 X116.282 Y103.004 E12.97702
G1 X117.2 Y103.954 E13.04293
G1 X117.969 Y105.012 E13.10818
G1 X118.584 Y106.171 E13.17364
G1 X119.034 Y107.406 E13.23922
G1 X119.307 Y108.689 E13.30466
G1 X119.398 Y110 E13.37022
G1 X119.307 Y111.311 E13.43579
G1 X119.034 Y112.594 E13.50123
G1 X118.584 Y113.829 E13.56681
G1 X117.969 Y114.988 E13.63227
G1 X117.2 Y116.046 E13.69752
G1 X116.282 Y116.996 E13.76343
G1 X115.248 Y117.803 E13.82887
G1 X114.116 Y118.458 E13.89412
G1 X112.897 Y118.95 E13.9597
G1 X111.625 Y119.267 E14.0251
G1 X110.316 Y119.405 E14.09077
G1 X109.002 Y119.358 E14.15637
G1 X107.708 Y119.131 E14.22191
G1 X106.469 Y118.728 E14.28691
G1 X105.284 Y118.15 E14.35269
G1 X104.193 Y117.414 E14.41835
G1 X103.215 Y116.533 E14.48402
G1 X102.376 Y115.534 E14.5491
G1 X101.677 Y114.415 E14.61493
G1 X101.142 Y113.214 E14.68052
G1 X100.782 Y111.961 E14.74556
G1 X100.6 Y110.658 E14.8112
G1 X100.6 Y109.342 E14.87686
G1 X100.782 Y108.039 E14.94249
G1 X101.142 Y106.786 E15.00754
G1 X101.677 Y105.585 E15.07313
G1 X102.376 Y104.466 E15.13895
G1 X103.215 Y103.467 E15.20404
G1 X104.193 Y102.586 E15.26971
G1 X105.284 Y101.85 E15.33537
G1 X106.469 Y101.272 E15.40115
G1 X107.708 Y100.869 E15.46615
G1 X109.002 Y100.642 E15.53169
G1 X110.316 Y100.595 E15.59729
G1 X111.625 Y100.733 E15.66296
G1 X112.897 Y101.05 E15.72836
G0 F3600 X113.022 Y100.669
;TYPE:WALL-OUTER
G1 F1800 X114.288 Y101.18 E15.79647
G1 X115.472 Y101.865 E15.86471
G1 X116.553 Y102.709 E15.93314
G1 X117.503 Y103.692 E16.00134
G1 X118.309 Y104.8 E16.06969
G1 X118.952 Y106.013 E16.13819
G1 X119.418 Y107.292 E16.2061
G1 X119.704 Y108.635 E16.27461
G1 X119.799 Y110 E16.34287
G1 X119.704 Y111.365 E16.41114
G1 X119.418 Y112.708 E16.47964
G1 X118.952 Y113.987 E16.54755
G1 X118.309 Y115.2 E16.61605
G1 X117.503 Y116.308 E16.6844
G1 X116.553 Y117.291 E16.75261
G1 X115.472 Y118.135 E16.82103
G1 X114.288 Y118.82 E16.88927
G1 X113.022 Y119.331 E16.95738
G1 X111.693 Y119.662 E17.02571
G1 X110.33 Y119.806 E17.09409
G1 X108.962 Y119.757 E17.16239
G1 X107.613 Y119.52 E17.23072
G1 X106.315 Y119.098 E17.29881
G1 X105.082 Y118.497 E17.36724
G1 X103.948 Y117.732 E17.43549
G1 X102.929 Y116.814 E17.50392
G1 X102.051 Y115.768 E17.57205
G1 X101.324 Y114.604 E17.64052
G1 X100.766 Y113.353 E17.70886
G1 X100.39 Y112.042 E17.7769
G1 X100.2 Y110.684 E17.84531
G1 X100.2 Y109.316 E17.91356
G1 X100.39 Y107.958 E17.98197
G1 X100.766 Y106.647 E18.05001
G1 X101.324 Y105.396 E18.11835
G1 X102.051 Y104.232 E18.18682
G1 X102.929 Y103.186 E18.25495
G1 X103.948 Y102.268 E18.32338
G1 X105.082 Y101.503 E18.39163
G1 X106.315 Y100.902 E18.46006
G1 X107.613 Y100.48 E18.52815
G1 X108.962 Y100.243 E18.59649
G1 X110.33 Y100.194 E18.66478
G1 X111.693 Y100.338 E18.73316
G1 X113.022 Y100.669 E18.80149
G0 F3600 X113.207 Y100.743
G0 X112.777 Y101.422
;TYPE:SKIN
G1 F1800 X113.945 Y101.893 E18.86432
G1 X115.022 Y102.517 E18.92642
G1 X116.02 Y103.296 E18.98958
G1 X116.898 Y104.204 E19.0526
G1 X117.638 Y105.221 E19.11534
G1 X118.227 Y106.331 E19.17804
G1 X118.657 Y107.512 E19.24074
G1 X118.919 Y108.742 E19.30348
G1 X119.006 Y110 E19.36639
G1 X118.919 Y111.258 E19.4293
G1 X118.657 Y112.488 E19.49205
G1 X118.227 Y113.669 E19.55475
G1 X117.638 Y114.779 E19.61744
G1 X116.898 Y115.796 E19.68019
G1 X116.02 Y116.704 E19.74321
G1 X115.022 Y117.483 E19.80637
G1 X113.945 Y118.107 E19.86847
G1 X112.777 Y118.578 E19.9313
G1 X111.562 Y118.881 E19.99377
G1 X110.303 Y119.015 E20.05694
G1 X109.041 Y118.968 E20.11994
G1 X107.804 Y118.752 E20.18259
G1 X106.617 Y118.365 E20.24488
G1 X105.475 Y117.809 E20.30825
G1 X104.436 Y117.108 E20.37078
G1 X103.493 Y116.259 E20.43408
G1 X102.695 Y115.308 E20.49602
G1 X102.022 Y114.231 E20.55938
G1 X101.508 Y113.077 E20.6224
G1 X101.164 Y111.878 E20.68464
G1 X100.99 Y110.632 E20.7474
G1 X100.99 Y109.368 E20.81046
G1 X101.164 Y108.122 E20.87323
G1 X101.508 Y106.923 E20.93546
G1 X102.022 Y105.769 E20.99849
G1 X102.695 Y104.692 E21.06185
G1 X103.493 Y103.741 E21.12378
G1 X104.436 Y102.892 E21.18709
G1 X105.475 Y102.191 E21.24962
G1 X106.617 Y101.635 E21.31299
G1 X107.804 Y101.248 E21.37527
G1 X109.041 Y101.032 E21.43792
G1 X110.303 Y100.985 E21.50093
G1 X111.562 Y101.119 E21.56409
G1 X112.777 Y101.422 E21.62657
G0 F3600 X115.795 Y103.35
G1 F1800 X116.553 Y104.108 E21.68005
G1 X116.623 Y104.178
G0 F3600 X117.809 Y105.93
G1 F1800 X114.029 Y102.15 E21.94675
G1 X113.959 Y102.08
G0 F3600 X113.033 Y101.719
G1 F1800 X118.257 Y106.944 E22.31536
G1 X118.327 Y107.014
G0 F3600 X118.529 Y107.781
G1 F1800 X112.215 Y101.467 E22.76085
G0 F3600 X111.473 Y101.29
G1 F1800 X118.682 Y108.499 E23.26949
G0 F3600 X118.765 Y109.149
G1 F1800 X110.84 Y101.223 E23.82867
G0 F3600 X110.22 Y101.169
G1 F1800 X118.808 Y109.757 E24.4346
G0 F3600 X118.803 Y110.317
G1 F1800 X109.675 Y101.189 E25.07863
G0 F3600 X109.129 Y101.21
G1 F1800 X118.766 Y110.846 E25.75854
G0 F3600 X118.712 Y111.358
G1 F1800 X108.639 Y101.285 E26.46924
G0 F3600 X108.158 Y101.37
G1 F1800 X118.612 Y111.824 E27.20683
G0 F3600 X118.513 Y112.29
G1 F1800 X107.695 Y101.473 E27.97006
G0 F3600 X107.268 Y101.611
G1 F1800 X118.378 Y112.722 E28.75397
G0 F3600 X118.228 Y113.137
G1 F1800 X106.841 Y101.75 E29.55738
G0 F3600 X106.445 Y101.919
G1 F1800 X118.076 Y113.551 E30.37805
G0 F3600 X117.886 Y113.926
G1 F1800 X106.064 Y102.104 E31.21215
G0 F3600 X105.684 Y102.29
G1 F1800 X117.69 Y114.296 E32.05924
G0 F3600 X117.494 Y114.665
G1 F1800 X105.332 Y102.504 E32.9173
G0 F3600 X104.995 Y102.732
G1 F1800 X117.257 Y114.994 E33.78245
G0 F3600 X117.019 Y115.322
G1 F1800 X104.657 Y102.96 E34.65466
G0 F3600 X104.346 Y103.214
G1 F1800 X116.78 Y115.649 E35.53198
G0 F3600 X116.506 Y115.94
G1 F1800 X104.048 Y103.482 E36.41096
G0 F3600 X103.751 Y103.751
G1 F1800 X116.228 Y116.228 E37.29128
G0 F3600 X115.949 Y116.515
G1 F1800 X103.475 Y104.04 E38.17142
G0 F3600 X103.217 Y104.348
G1 F1800 X115.639 Y116.77 E39.04786
G0 F3600 X115.322 Y117.019
G1 F1800 X102.958 Y104.656 E39.92017
G0 F3600 X102.722 Y104.985
G1 F1800 X115.004 Y117.267 E40.78673
G0 F3600 X114.657 Y117.485
G1 F1800 X102.505 Y105.333 E41.64412
G0 F3600 X102.287 Y105.682
G1 F1800 X114.299 Y117.693 E42.4916
G0 F3600 X113.941 Y117.9
G1 F1800 X102.092 Y106.051 E43.32761
G0 F3600 X101.917 Y106.442
G1 F1800 X113.547 Y118.072 E44.14817
G0 F3600 X113.144 Y118.235
G1 F1800 X101.743 Y106.834 E44.95257
G0 F3600 X101.598 Y107.255
G1 F1800 X112.74 Y118.397 E45.7387
G0 F3600 X112.289 Y118.512
G1 F1800 X101.471 Y107.694 E46.50197
G0 F3600 X101.346 Y108.134
G1 F1800 X111.837 Y118.625 E47.24216
G0 F3600 X111.365 Y118.719
G1 F1800 X101.273 Y108.627 E47.95421
G0 F3600 X101.205 Y109.124
G1 F1800 X110.854 Y118.774 E48.63503
G0 F3600 X110.343 Y118.828
G1 F1800 X101.17 Y109.655 E49.28224
G0 F3600 X101.17 Y110.22
G1 F1800 X109.762 Y118.813 E49.88849
G0 F3600 X109.175 Y118.791
G1 F1800 X101.196 Y110.813 E50.45141
G0 F3600 X101.288 Y111.47
G1 F1800 X108.509 Y118.691 E50.96089
G0 F3600 X107.817 Y118.565
G1 F1800 X101.438 Y112.186 E51.41097
G1 X101.368 Y112.116
G0 F3600 X101.667 Y112.98
G1 F1800 X106.978 Y118.292 E51.78572
G1 X107.048 Y118.362
G0 F3600 X105.967 Y117.847
G1 F1800 X102.113 Y113.992 E52.05768
G1 X102.043 Y113.922
G0 F3600 X103.287 Y115.732
G1 F1800 X104.262 Y116.707 E52.12647
G1 X104.332 Y116.777
;MESH:NONMESH
G0 F600 X104.332 Y116.777 Z0.5
G0 F3600 X112.867 Y101.145
G0 X112.897 Y101.05
