;FLAVOR:Marlin
;TIME:3229
;Filament used: 1.54656m
;Layer height: 0.1
;MINX:93.07
;MINY:93.07
;MINZ:0.2
;MAXX:126.93
;MAXY:126.93
;MAXZ:20
;Generated with Cura_SteamEngine 4.5.0
M140 S60
M105
M190 S60
M104 S200
M105
M109 S200
M82 ;absolute extrusion mode

M141 S28
G92 E0
G92 E0
G1 F1500 E-6.5
;LAYER_COUNT:199
;LAYER:0
M107
M204 S625
M205 X10 Y10
G0 F2571.4 X125.954 Y123.547 Z0.2
M204 S500
M205 X5 Y5
;TYPE:SKIRT
G1 F1500 E0
G1 F1200 X125.539 Y124.165 E0.026
G1 X125.06 Y124.735 E0.052
G1 X124.523 Y125.25 E0.07798
G1 X123.934 Y125.705 E0.10398
G1 X123.3 Y126.094 E0.12995
G1 X122.627 Y126.413 E0.15596
G1 X121.924 Y126.658 E0.18196
G1 X121.199 Y126.826 E0.20795
G1 X120 Y126.93 E0.24998
G1 X100 Y126.93 E0.94844
G1 X99.257 Y126.89 E0.97443
G1 X98.522 Y126.771 E1.00043
G1 X97.804 Y126.573 E1.02644
G1 X97.112 Y126.3 E1.05242
G1 X96.453 Y125.954 E1.07842
G1 X95.835 Y125.539 E1.10441
G1 X95.265 Y125.06 E1.13042
G1 X94.75 Y124.523 E1.1564
G1 X94.295 Y123.934 E1.18239
G1 X93.906 Y123.3 E1.20837
G1 X93.587 Y122.627 E1.23438
G1 X93.342 Y121.924 E1.26038
G1 X93.174 Y121.199 E1.28637
G1 X93.07 Y120 E1.3284
G1 X93.07 Y100 E2.02686
G1 X93.11 Y99.257 E2.05285
G1 X93.229 Y98.522 E2.07885
G1 X93.427 Y97.804 E2.10486
G1 X93.7 Y97.112 E2.13084
G1 X94.046 Y96.453 E2.15683
G1 X94.461 Y95.835 E2.18283
G1 X94.94 Y95.265 E2.20883
G1 X95.477 Y94.75 E2.23482
G1 X96.066 Y94.295 E2.26081
G1 X96.7 Y93.906 E2.28679
G1 X97.373 Y93.587 E2.3128
G1 X98.076 Y93.342 E2.33879
G1 X98.801 Y93.174 E2.36478
G1 X100 Y93.07 E2.40681
G1 X120 Y93.07 E3.10528
G1 X121.478 Y93.229 E3.15719
G1 X122.196 Y93.427 E3.1832
G1 X122.888 Y93.7 E3.20918
G1 X123.547 Y94.046 E3.23518
G1 X124.165 Y94.461 E3.26117
G1 X124.735 Y94.94 E3.28717
G1 X125.25 Y95.477 E3.31316
G1 X125.705 Y96.066 E3.33915
G1 X126.094 Y96.7 E3.36513
G1 X126.413 Y97.373 E3.39114
G1 X126.658 Y98.076 E3.41714
G1 X126.826 Y98.801 E3.44313
G1 X126.93 Y100 E3.48516
G1 X126.93 Y120 E4.18362
G1 X126.89 Y120.743 E4.20961
G1 X126.771 Y121.478 E4.23561
G1 X126.573 Y122.196 E4.26162
G1 X126.3 Y122.888 E4.2876
G1 X125.954 Y123.547 E4.31359
M204 S625
M205 X10 Y10
G0 F2571.4 X125.535 Y123.427
M204 S500
M205 X5 Y5
G1 F1200 X125.122 Y124.018 E4.33877
G1 X124.646 Y124.56 E4.36396
G1 X124.113 Y125.046 E4.38915
G1 X123.529 Y125.47 E4.41436
G1 X122.902 Y125.827 E4.43955
G1 X122.24 Y126.113 E4.46474
G1 X121.55 Y126.323 E4.48993
G1 X120.841 Y126.455 E4.51511
G1 X120 Y126.51 E4.54455
G1 X100 Y126.51 E5.24301
G1 X99.28 Y126.47 E5.26819
G1 X98.568 Y126.351 E5.2934
G1 X97.874 Y126.153 E5.31861
G1 X97.207 Y125.88 E5.34378
G1 X96.573 Y125.535 E5.36898
G1 X95.982 Y125.122 E5.39416
G1 X95.44 Y124.646 E5.41935
G1 X94.954 Y124.113 E5.44455
G1 X94.53 Y123.529 E5.46975
G1 X94.173 Y122.902 E5.49495
G1 X93.887 Y122.24 E5.52013
G1 X93.677 Y121.55 E5.54532
G1 X93.545 Y120.841 E5.5705
G1 X93.49 Y120 E5.59994
G1 X93.49 Y100 E6.2984
G1 X93.53 Y99.28 E6.32358
G1 X93.649 Y98.568 E6.34879
G1 X93.847 Y97.874 E6.374
G1 X94.12 Y97.207 E6.39917
G1 X94.465 Y96.573 E6.42437
G1 X94.878 Y95.982 E6.44955
G1 X95.354 Y95.44 E6.47475
G1 X95.887 Y94.954 E6.49994
G1 X96.471 Y94.53 E6.52514
G1 X97.098 Y94.173 E6.55034
G1 X97.76 Y93.887 E6.57552
G1 X98.45 Y93.677 E6.60071
G1 X99.159 Y93.545 E6.6259
G1 X100 Y93.49 E6.65533
G1 X120 Y93.49 E7.35379
G1 X121.432 Y93.649 E7.40411
G1 X122.126 Y93.847 E7.42931
G1 X122.793 Y94.12 E7.45448
G1 X123.427 Y94.465 E7.47969
G1 X124.018 Y94.878 E7.50487
G1 X124.56 Y95.354 E7.53006
G1 X125.046 Y95.887 E7.55525
G1 X125.47 Y96.471 E7.58046
G1 X125.827 Y97.098 E7.60565
G1 X126.113 Y97.76 E7.63084
G1 X126.323 Y98.45 E7.65603
G1 X126.455 Y99.159 E7.68121
G1 X126.51 Y100 E7.71064
G1 X126.51 Y120 E8.40911
G1 X126.47 Y120.72 E8.43429
G1 X126.351 Y121.432 E8.4595
G1 X126.153 Y122.126 E8.4847
G1 X125.88 Y122.793 E8.50987
G1 X125.535 Y123.427 E8.53508
M204 S625
M205 X10 Y10
G0 F2571.4 X125.117 Y123.302
M204 S500
M205 X5 Y5
G1 F1200 X124.705 Y123.866 E8.55947
G1 X124.232 Y124.379 E8.58384
G1 X123.704 Y124.834 E8.60818
G1 X123.127 Y125.226 E8.63254
G1 X122.508 Y125.549 E8.65693
G1 X121.857 Y125.8 E8.68129
G1 X121.181 Y125.974 E8.70567
G1 X120.49 Y126.07 E8.73004
G1 X100 Y126.09 E9.44561
G1 X99.303 Y126.05 E9.46999
G1 X98.616 Y125.931 E9.49434
G1 X97.947 Y125.733 E9.51871
G1 X97.304 Y125.461 E9.54309
G1 X96.698 Y125.117 E9.56742
G1 X96.134 Y124.705 E9.59182
G1 X95.621 Y124.232 E9.61619
G1 X95.166 Y123.704 E9.64053
G1 X94.774 Y123.127 E9.66489
G1 X94.451 Y122.508 E9.68927
G1 X94.2 Y121.857 E9.71364
G1 X94.026 Y121.181 E9.73802
G1 X93.93 Y120.49 E9.76238
G1 X93.91 Y100 E10.47795
G1 X93.95 Y99.303 E10.50234
G1 X94.069 Y98.616 E10.52669
G1 X94.267 Y97.947 E10.55105
G1 X94.539 Y97.304 E10.57543
G1 X94.883 Y96.698 E10.59977
G1 X95.295 Y96.134 E10.62416
G1 X95.768 Y95.621 E10.64853
G1 X96.296 Y95.166 E10.67287
G1 X96.873 Y94.774 E10.69723
G1 X97.492 Y94.451 E10.72162
G1 X98.143 Y94.2 E10.74598
G1 X98.819 Y94.026 E10.77036
G1 X99.51 Y93.93 E10.79472
G1 X120 Y93.91 E11.5103
G1 X121.384 Y94.069 E11.55895
G1 X122.053 Y94.267 E11.58332
G1 X122.696 Y94.539 E11.6077
G1 X123.302 Y94.883 E11.63203
G1 X123.866 Y95.295 E11.65643
G1 X124.379 Y95.768 E11.68079
G1 X124.834 Y96.296 E11.70514
G1 X125.226 Y96.873 E11.7295
G1 X125.549 Y97.492 E11.75388
G1 X125.8 Y98.143 E11.77825
G1 X125.974 Y98.819 E11.80262
G1 X126.07 Y99.51 E11.82699
G1 X126.09 Y120 E12.54256
G1 X126.05 Y120.697 E12.56694
G1 X125.931 Y121.384 E12.59129
G1 X125.733 Y122.053 E12.61566
G1 X125.461 Y122.696 E12.64004
G1 X125.117 Y123.302 E12.66438
M204 S625
M205 X10 Y10
G0 F2571.4 X124.699 Y123.173
M204 S500
M205 X5 Y5
G1 F1200 X124.29 Y123.708 E12.6879
G1 X123.82 Y124.19 E12.71141
G1 X123.296 Y124.613 E12.73492
G1 X122.726 Y124.972 E12.75845
G1 X122.118 Y125.26 E12.78194
G1 X121.48 Y125.474 E12.80545
G1 X120.82 Y125.61 E12.82898
G1 X120 Y125.67 E12.85769
G1 X100 Y125.67 E13.55616
G1 X99.328 Y125.63 E13.57967
G1 X98.665 Y125.511 E13.60319
G1 X98.022 Y125.314 E13.62668
G1 X97.406 Y125.042 E13.65019
G1 X96.827 Y124.699 E13.67369
G1 X96.292 Y124.29 E13.69721
G1 X95.81 Y123.82 E13.72072
G1 X95.387 Y123.296 E13.74424
G1 X95.028 Y122.726 E13.76777
G1 X94.74 Y122.118 E13.79126
G1 X94.526 Y121.48 E13.81476
G1 X94.39 Y120.82 E13.8383
G1 X94.33 Y120 E13.86701
G1 X94.33 Y100 E14.56547
G1 X94.37 Y99.328 E14.58898
G1 X94.489 Y98.665 E14.61251
G1 X94.686 Y98.022 E14.63599
G1 X94.958 Y97.406 E14.65951
G1 X95.301 Y96.827 E14.68301
G1 X95.71 Y96.292 E14.70653
G1 X96.18 Y95.81 E14.73004
G1 X96.704 Y95.387 E14.75356
G1 X97.274 Y95.028 E14.77708
G1 X97.882 Y94.74 E14.80058
G1 X98.52 Y94.526 E14.82408
G1 X99.18 Y94.39 E14.84761
G1 X100 Y94.33 E14.87633
G1 X120 Y94.33 E15.57479
G1 X121.335 Y94.489 E15.62174
G1 X121.978 Y94.686 E15.64523
G1 X122.594 Y94.958 E15.66874
G1 X123.173 Y95.301 E15.69225
G1 X123.708 Y95.71 E15.71576
G1 X124.19 Y96.18 E15.73928
G1 X124.613 Y96.704 E15.76279
G1 X124.972 Y97.274 E15.78632
G1 X125.26 Y97.882 E15.80981
G1 X125.474 Y98.52 E15.83332
G1 X125.61 Y99.18 E15.85685
G1 X125.67 Y100 E15.88556
G1 X125.67 Y120 E16.58403
G1 X125.63 Y120.672 E16.60753
G1 X125.511 Y121.335 E16.63106
G1 X125.314 Y121.978 E16.65454
G1 X125.042 Y122.594 E16.67806
G1 X124.699 Y123.173 E16.70156
M204 S625
M205 X10 Y10
G0 F2571.4 X124.623 Y122.489
M204 S500
M205 X5 Y5
G1 F1200 X124.281 Y123.039 E16.72418
G1 X123.874 Y123.543 E16.74681
G1 X123.408 Y123.993 E16.76943
G1 X122.891 Y124.382 E16.79202
G1 X122.329 Y124.705 E16.81466
G1 X121.732 Y124.956 E16.83728
G1 X121.108 Y125.132 E16.85992
G1 X120.468 Y125.229 E16.88253
G1 X100 Y125.25 E17.59733
G1 X99.353 Y125.21 E17.61997
G1 X98.717 Y125.091 E17.64257
G1 X98.1 Y124.894 E17.66519
G1 X97.511 Y124.623 E17.68783
G1 X96.961 Y124.281 E17.71045
G1 X96.457 Y123.874 E17.73307
G1 X96.007 Y123.408 E17.7557
G1 X95.618 Y122.891 E17.77829
G1 X95.295 Y122.329 E17.80093
G1 X95.044 Y121.732 E17.82355
G1 X94.868 Y121.108 E17.84619
G1 X94.771 Y120.468 E17.86879
G1 X94.75 Y100 E18.5836
G1 X94.79 Y99.353 E18.60624
G1 X94.909 Y98.717 E18.62884
G1 X95.106 Y98.1 E18.65146
G1 X95.377 Y97.511 E18.6741
G1 X95.719 Y96.961 E18.69672
G1 X96.126 Y96.457 E18.71934
G1 X96.592 Y96.007 E18.74196
G1 X97.109 Y95.618 E18.76456
G1 X97.671 Y95.295 E18.7872
G1 X98.268 Y95.044 E18.80981
G1 X98.892 Y94.868 E18.83246
G1 X99.532 Y94.771 E18.85506
G1 X120 Y94.75 E19.56987
G1 X121.283 Y94.909 E19.61502
G1 X121.9 Y95.106 E19.63764
G1 X122.489 Y95.377 E19.66028
G1 X123.039 Y95.719 E19.6829
G1 X123.543 Y96.126 E19.70552
G1 X123.993 Y96.592 E19.72815
G1 X124.382 Y97.109 E19.75074
G1 X124.705 Y97.671 E19.77338
G1 X124.956 Y98.268 E19.796
G1 X125.132 Y98.892 E19.81864
G1 X125.229 Y99.532 E19.84124
G1 X125.25 Y120 E20.55605
G1 X125.21 Y120.647 E20.57869
G1 X125.091 Y121.283 E20.60129
G1 X124.894 Y121.9 E20.62391
G1 X124.623 Y122.489 E20.64655
M204 S625
M205 X10 Y10
G0 F2571.4 X124.204 Y122.378
M204 S500
M205 X5 Y5
G1 F1200 X123.864 Y122.898 E20.66825
G1 X123.46 Y123.37 E20.68994
G1 X122.998 Y123.787 E20.71168
G1 X122.488 Y124.14 E20.73334
G1 X121.936 Y124.425 E20.75503
G1 X121.351 Y124.637 E20.77676
G1 X120.745 Y124.772 E20.79845
G1 X120 Y124.83 E20.82454
G1 X100 Y124.83 E21.52301
G1 X99.38 Y124.79 E21.5447
G1 X98.77 Y124.671 E21.56641
G1 X98.181 Y124.474 E21.5881
G1 X97.622 Y124.204 E21.60978
G1 X97.102 Y123.864 E21.63147
G1 X96.63 Y123.46 E21.65317
G1 X96.213 Y122.998 E21.67491
G1 X95.86 Y122.488 E21.69657
G1 X95.575 Y121.936 E21.71826
G1 X95.363 Y121.351 E21.73999
G1 X95.228 Y120.745 E21.76168
G1 X95.17 Y120 E21.78777
G1 X95.17 Y100 E22.48624
G1 X95.21 Y99.38 E22.50793
G1 X95.329 Y98.77 E22.52964
G1 X95.526 Y98.181 E22.55133
G1 X95.796 Y97.622 E22.57301
G1 X96.136 Y97.102 E22.5947
G1 X96.54 Y96.63 E22.6164
G1 X97.002 Y96.213 E22.63814
G1 X97.512 Y95.86 E22.6598
G1 X98.064 Y95.575 E22.68149
G1 X98.649 Y95.363 E22.70322
G1 X99.255 Y95.228 E22.72491
G1 X100 Y95.17 E22.751
G1 X120 Y95.17 E23.44946
G1 X121.23 Y95.329 E23.49278
G1 X121.819 Y95.526 E23.51447
G1 X122.378 Y95.796 E23.53615
G1 X122.898 Y96.136 E23.55784
G1 X123.37 Y96.54 E23.57954
G1 X123.787 Y97.002 E23.60128
G1 X124.14 Y97.512 E23.62294
G1 X124.425 Y98.064 E23.64463
G1 X124.637 Y98.649 E23.66636
G1 X124.772 Y99.255 E23.68805
G1 X124.83 Y100 E23.71414
G1 X124.83 Y120 E24.4126
G1 X124.79 Y120.62 E24.4343
G1 X124.671 Y121.23 E24.45601
G1 X124.474 Y121.819 E24.4777
G1 X124.204 Y122.378 E24.49938
M204 S625
M205 X10 Y10
G0 F2571.4 X123.785 Y122.263
M204 S500
M205 X5 Y5
G1 F1200 X123.447 Y122.751 E24.52011
G1 X123.046 Y123.189 E24.54085
G1 X122.59 Y123.569 E24.56158
G1 X122.087 Y123.885 E24.58232
G1 X121.547 Y124.13 E24.60303
G1 X120.978 Y124.3 E24.62377
G1 X120.392 Y124.393 E24.64449
G1 X100 Y124.41 E25.35664
G1 X99.408 Y124.37 E25.37736
G1 X98.826 Y124.251 E25.39811
G1 X98.266 Y124.055 E25.41883
G1 X97.737 Y123.785 E25.43957
G1 X97.249 Y123.447 E25.4603
G1 X96.811 Y123.046 E25.48104
G1 X96.431 Y122.59 E25.50177
G1 X96.115 Y122.087 E25.52252
G1 X95.87 Y121.547 E25.54323
G1 X95.7 Y120.978 E25.56397
G1 X95.607 Y120.392 E25.58469
G1 X95.59 Y100 E26.29684
G1 X95.63 Y99.408 E26.31756
G1 X95.749 Y98.826 E26.33831
G1 X95.945 Y98.266 E26.35903
G1 X96.215 Y97.737 E26.37977
G1 X96.553 Y97.249 E26.4005
G1 X96.954 Y96.811 E26.42124
G1 X97.41 Y96.431 E26.44197
G1 X97.913 Y96.115 E26.46271
G1 X98.453 Y95.87 E26.48342
G1 X99.022 Y95.7 E26.50416
G1 X99.608 Y95.607 E26.52488
G1 X120 Y95.59 E27.23704
G1 X121.174 Y95.749 E27.27841
G1 X121.734 Y95.945 E27.29913
G1 X122.263 Y96.215 E27.31987
G1 X122.751 Y96.553 E27.3406
G1 X123.189 Y96.954 E27.36134
G1 X123.569 Y97.41 E27.38207
G1 X123.885 Y97.913 E27.40282
G1 X124.13 Y98.453 E27.42352
G1 X124.3 Y99.022 E27.44426
G1 X124.393 Y99.608 E27.46498
G1 X124.41 Y120 E28.17714
G1 X124.37 Y120.592 E28.19786
G1 X124.251 Y121.174 E28.21861
G1 X124.055 Y121.734 E28.23933
G1 X123.785 Y122.263 E28.26007
M204 S625
M205 X10 Y10
G0 F2571.4 X123.367 Y122.141
M204 S500
M205 X5 Y5
G1 F1200 X123.031 Y122.595 E28.27979
G1 X122.634 Y122.997 E28.29952
G1 X122.185 Y123.339 E28.31923
G1 X121.691 Y123.614 E28.33898
G1 X121.164 Y123.816 E28.35869
G1 X120.614 Y123.942 E28.37839
G1 X120 Y123.99 E28.3999
G1 X100 Y123.99 E29.09837
G1 X99.437 Y123.95 E29.11808
G1 X98.885 Y123.831 E29.1378
G1 X98.355 Y123.635 E29.15753
G1 X97.859 Y123.367 E29.17722
G1 X97.405 Y123.031 E29.19695
G1 X97.003 Y122.634 E29.21668
G1 X96.661 Y122.185 E29.23639
G1 X96.386 Y121.691 E29.25613
G1 X96.184 Y121.164 E29.27584
G1 X96.058 Y120.614 E29.29555
G1 X96.01 Y120 E29.31706
G1 X96.01 Y100 E30.01552
G1 X96.05 Y99.437 E30.03523
G1 X96.169 Y98.885 E30.05495
G1 X96.365 Y98.355 E30.07469
G1 X96.633 Y97.859 E30.09437
G1 X96.969 Y97.405 E30.1141
G1 X97.366 Y97.003 E30.13383
G1 X97.815 Y96.661 E30.15354
G1 X98.309 Y96.386 E30.17329
G1 X98.836 Y96.184 E30.193
G1 X99.386 Y96.058 E30.2127
G1 X100 Y96.01 E30.23421
G1 X120 Y96.01 E30.93267
G1 X121.115 Y96.169 E30.97201
G1 X121.645 Y96.365 E30.99174
G1 X122.141 Y96.633 E31.01143
G1 X122.595 Y96.969 E31.03115
G1 X122.997 Y97.366 E31.05089
G1 X123.339 Y97.815 E31.0706
G1 X123.614 Y98.309 E31.09034
G1 X123.816 Y98.836 E31.11005
G1 X123.942 Y99.386 E31.12976
G1 X123.99 Y100 E31.15127
G1 X123.99 Y120 E31.84973
G1 X123.95 Y120.563 E31.86944
G1 X123.831 Y121.115 E31.88916
G1 X123.635 Y121.645 E31.90889
G1 X123.367 Y122.141 E31.92858
M204 S625
M205 X10 Y10
G0 F2571.4 X122.949 Y122.013
M204 S500
M205 X5 Y5
G1 F1200 X122.615 Y122.43 E31.94724
G1 X122.224 Y122.793 E31.96587
G1 X121.782 Y123.093 E31.98453
G1 X121.301 Y123.325 E32.00318
G1 X120.79 Y123.481 E32.02184
G1 X120 Y123.57 E32.0496
G1 X100 Y123.57 E32.74807
G1 X99.467 Y123.53 E32.76673
G1 X98.947 Y123.411 E32.78536
G1 X98.45 Y123.216 E32.80401
G1 X97.987 Y122.949 E32.82267
G1 X97.57 Y122.615 E32.84133
G1 X97.207 Y122.224 E32.85996
G1 X96.907 Y121.782 E32.87862
G1 X96.675 Y121.301 E32.89727
G1 X96.519 Y120.79 E32.91593
G1 X96.43 Y120 E32.94369
G1 X96.43 Y100 E33.64215
G1 X96.47 Y99.467 E33.66082
G1 X96.589 Y98.947 E33.67945
G1 X96.784 Y98.45 E33.69809
G1 X97.051 Y97.987 E33.71676
G1 X97.385 Y97.57 E33.73542
G1 X97.776 Y97.207 E33.75405
G1 X98.218 Y96.907 E33.77271
G1 X98.699 Y96.675 E33.79136
G1 X99.21 Y96.519 E33.81002
G1 X100 Y96.43 E33.83778
G1 X120 Y96.43 E34.53624
G1 X121.053 Y96.589 E34.57343
G1 X121.55 Y96.784 E34.59208
G1 X122.013 Y97.051 E34.61074
G1 X122.43 Y97.385 E34.6294
G1 X122.793 Y97.776 E34.64803
G1 X123.093 Y98.218 E34.66669
G1 X123.325 Y98.699 E34.68534
G1 X123.481 Y99.21 E34.704
G1 X123.57 Y100 E34.73176
G1 X123.57 Y120 E35.43023
G1 X123.53 Y120.533 E35.44889
G1 X123.411 Y121.053 E35.46752
G1 X123.216 Y121.55 E35.48617
G1 X122.949 Y122.013 E35.50483
M204 S625
M205 X10 Y10
G0 F2571.4 X122.797 Y121.45
M204 S500
M205 X5 Y5
G1 F1200 X122.531 Y121.875 E35.52234
G1 X122.201 Y122.253 E35.53986
G1 X121.816 Y122.574 E35.55737
G1 X121.384 Y122.83 E35.57491
G1 X120.917 Y123.013 E35.59242
G1 X120.428 Y123.121 E35.60991
G1 X120 Y123.15 E35.62489
G1 X100 Y123.15 E36.32336
G1 X99.5 Y123.11 E36.34087
G1 X99.013 Y122.991 E36.35838
G1 X98.55 Y122.797 E36.37591
G1 X98.125 Y122.531 E36.39342
G1 X97.747 Y122.201 E36.41095
G1 X97.426 Y121.816 E36.42845
G1 X97.17 Y121.384 E36.44599
G1 X96.987 Y120.917 E36.46351
G1 X96.879 Y120.428 E36.481
G1 X96.85 Y120 E36.49598
G1 X96.85 Y100 E37.19444
G1 X96.89 Y99.5 E37.21196
G1 X97.009 Y99.013 E37.22946
G1 X97.203 Y98.55 E37.247
G1 X97.469 Y98.125 E37.26451
G1 X97.799 Y97.747 E37.28203
G1 X98.184 Y97.426 E37.29954
G1 X98.616 Y97.17 E37.31707
G1 X99.083 Y96.987 E37.33459
G1 X99.572 Y96.879 E37.35208
G1 X100 Y96.85 E37.36706
G1 X120 Y96.85 E38.06552
G1 X120.987 Y97.009 E38.10044
G1 X121.45 Y97.203 E38.11797
G1 X121.875 Y97.469 E38.13548
G1 X122.253 Y97.799 E38.153
G1 X122.574 Y98.184 E38.17051
G1 X122.83 Y98.616 E38.18804
G1 X123.013 Y99.083 E38.20556
G1 X123.121 Y99.572 E38.22305
G1 X123.15 Y100 E38.23803
G1 X123.15 Y120 E38.93649
G1 X123.11 Y120.5 E38.95401
G1 X122.991 Y120.987 E38.97152
G1 X122.797 Y121.45 E38.98905
M204 S625
M205 X10 Y10
G0 F2571.4 X122.378 Y121.342
M204 S500
M205 X5 Y5
G1 F1200 X122.114 Y121.727 E39.00535
G1 X121.789 Y122.062 E39.02165
G1 X121.411 Y122.337 E39.03798
G1 X120.993 Y122.543 E39.05425
G1 X120.545 Y122.675 E39.07056
