;FLAVOR:Marlin
;TIME:1085
;Filament used: 1.37213m
;Layer height: 0.2
;MINX:93.07
;MINY:93.07
;MINZ:0.2
;MAXX:126.93
;MAXY:126.93
;MAXZ:20
;Generated with Cura_SteamEngine 4.5.0
M140 S60
M105
M190 S60
M104 S205
M105
M109 S205
M82 ;absolute extrusion mode

M141 S28
G92 E0
G92 E0
G1 F1500 E-6.5
;LAYER_COUNT:100
;LAYER:0
M107
M204 S625
M205 X10 Y10
G0 F2571.4 X126.3 Y122.888 Z0.2
M204 S500
M205 X5 Y5
;TYPE:SKIRT
G1 F1500 E0
G1 F1200 X125.539 Y124.165 E0.05192
G1 X124.523 Y125.25 E0.10383
G1 X123.3 Y126.094 E0.15572
G1 X121.924 Y126.658 E0.20765
G1 X120.46 Y126.915 E0.25956
G1 X100 Y126.93 E0.97409
G1 X98.522 Y126.771 E1.02601
G1 X97.112 Y126.3 E1.07792
G1 X95.835 Y125.539 E1.12984
G1 X94.75 Y124.523 E1.18175
G1 X93.906 Y123.3 E1.23364
G1 X93.342 Y121.924 E1.28558
G1 X93.085 Y120.46 E1.33749
G1 X93.07 Y100 E2.05201
G1 X93.229 Y98.522 E2.10393
G1 X93.7 Y97.112 E2.15584
G1 X94.461 Y95.835 E2.20776
G1 X95.477 Y94.75 E2.25967
G1 X96.7 Y93.906 E2.31156
G1 X98.076 Y93.342 E2.3635
G1 X99.54 Y93.085 E2.41541
G1 X120 Y93.07 E3.12994
G1 X122.196 Y93.427 E3.20763
G1 X123.547 Y94.046 E3.25953
G1 X124.735 Y94.94 E3.31146
G1 X125.705 Y96.066 E3.36336
G1 X126.413 Y97.373 E3.41527
G1 X126.826 Y98.801 E3.46718
G1 X126.93 Y100 E3.50921
G1 X126.93 Y120 E4.20768
G1 X126.771 Y121.478 E4.25959
G1 X126.3 Y122.888 E4.31151
M204 S625
M205 X10 Y10
G0 F2571.4 X125.88 Y122.793
M204 S500
M205 X5 Y5
G1 F1200 X125.122 Y124.018 E4.36182
G1 X124.113 Y125.046 E4.41212
G1 X122.902 Y125.827 E4.46244
G1 X121.55 Y126.323 E4.51274
G1 X120 Y126.51 E4.56726
G1 X100 Y126.51 E5.26572
G1 X98.568 Y126.351 E5.31604
G1 X97.207 Y125.88 E5.36634
G1 X95.982 Y125.122 E5.41665
G1 X94.954 Y124.113 E5.46695
G1 X94.173 Y122.902 E5.51727
G1 X93.677 Y121.55 E5.56757
G1 X93.49 Y120 E5.62209
G1 X93.49 Y100 E6.32055
G1 X93.649 Y98.568 E6.37087
G1 X94.12 Y97.207 E6.42117
G1 X94.878 Y95.982 E6.47148
G1 X95.887 Y94.954 E6.52178
G1 X97.098 Y94.173 E6.5721
G1 X98.45 Y93.677 E6.6224
G1 X100 Y93.49 E6.67692
G1 X120 Y93.49 E7.37538
G1 X122.126 Y93.847 E7.45067
G1 X123.427 Y94.465 E7.50097
G1 X124.56 Y95.354 E7.55127
G1 X125.47 Y96.471 E7.60158
G1 X126.113 Y97.76 E7.65189
G1 X126.455 Y99.159 E7.70218
G1 X126.51 Y100 E7.73162
G1 X126.51 Y120 E8.43008
G1 X126.351 Y121.432 E8.4804
G1 X125.88 Y122.793 E8.53069
M204 S625
M205 X10 Y10
G0 F2571.4 X125.461 Y122.696
M204 S500
M205 X5 Y5
G1 F1200 X124.705 Y123.866 E8.57934
G1 X123.704 Y124.834 E8.62797
G1 X122.508 Y125.549 E8.67663
G1 X121.181 Y125.974 E8.7253
G1 X120 Y126.09 E8.76674
G1 X100 Y126.09 E9.4652
G1 X98.616 Y125.931 E9.51385
G1 X97.304 Y125.461 E9.56252
G1 X96.134 Y124.705 E9.61117
G1 X95.166 Y123.704 E9.6598
G1 X94.451 Y122.508 E9.70846
G1 X94.026 Y121.181 E9.75713
G1 X93.91 Y120 E9.79857
G1 X93.91 Y100 E10.49703
G1 X94.069 Y98.616 E10.54568
G1 X94.539 Y97.304 E10.59435
G1 X95.295 Y96.134 E10.643
G1 X96.296 Y95.166 E10.69163
G1 X97.492 Y94.451 E10.74029
G1 X98.819 Y94.026 E10.78896
G1 X100 Y93.91 E10.8304
G1 X120 Y93.91 E11.52886
G1 X122.053 Y94.267 E11.60163
G1 X123.302 Y94.883 E11.65027
G1 X124.379 Y95.768 E11.69895
G1 X125.226 Y96.873 E11.74757
G1 X125.8 Y98.143 E11.79625
G1 X126.07 Y99.51 E11.84491
G1 X126.09 Y120 E12.56048
G1 X125.931 Y121.384 E12.60914
G1 X125.461 Y122.696 E12.65781
M204 S625
M205 X10 Y10
G0 F2571.4 X125.042 Y122.594
M204 S500
M205 X5 Y5
G1 F1200 X124.29 Y123.708 E12.70474
G1 X123.296 Y124.613 E12.75169
G1 X122.118 Y125.26 E12.79863
G1 X120.82 Y125.61 E12.84558
G1 X120 Y125.67 E12.87429
G1 X100 Y125.67 E13.57275
G1 X98.665 Y125.511 E13.6197
G1 X97.406 Y125.042 E13.66662
G1 X96.292 Y124.29 E13.71356
G1 X95.387 Y123.296 E13.76051
G1 X94.74 Y122.118 E13.80745
G1 X94.39 Y120.82 E13.85439
G1 X94.33 Y120 E13.88311
G1 X94.33 Y100 E14.58157
G1 X94.489 Y98.665 E14.62852
G1 X94.958 Y97.406 E14.67544
G1 X95.71 Y96.292 E14.72238
G1 X96.704 Y95.387 E14.76933
G1 X97.882 Y94.74 E14.81626
G1 X99.18 Y94.39 E14.86321
G1 X100 Y94.33 E14.89193
G1 X120 Y94.33 E15.59039
G1 X121.978 Y94.686 E15.66058
G1 X123.173 Y95.301 E15.70751
G1 X124.19 Y96.18 E15.75446
G1 X124.972 Y97.274 E15.80142
G1 X125.474 Y98.52 E15.84833
G1 X125.67 Y100 E15.90047
G1 X125.67 Y120 E16.59893
G1 X125.511 Y121.335 E16.64589
G1 X125.042 Y122.594 E16.69281
M204 S625
M205 X10 Y10
G0 F2571.4 X124.623 Y122.489
M204 S500
M205 X5 Y5
G1 F1200 X123.874 Y123.543 E16.73796
G1 X122.891 Y124.382 E16.7831
G1 X121.732 Y124.956 E16.82826
G1 X120.468 Y125.229 E16.87342
G1 X100 Y125.25 E17.58823
G1 X98.717 Y125.091 E17.63338
G1 X97.511 Y124.623 E17.67856
G1 X96.457 Y123.874 E17.72371
G1 X95.618 Y122.891 E17.76885
G1 X95.044 Y121.732 E17.81402
G1 X94.771 Y120.468 E17.85918
G1 X94.75 Y100 E18.57398
G1 X94.909 Y98.717 E18.61913
G1 X95.377 Y97.511 E18.66431
G1 X96.126 Y96.457 E18.70947
G1 X97.109 Y95.618 E18.7546
G1 X98.268 Y95.044 E18.79977
G1 X99.532 Y94.771 E18.84493
G1 X120 Y94.75 E19.55974
G1 X121.9 Y95.106 E19.62724
G1 X123.039 Y95.719 E19.67242
G1 X123.993 Y96.592 E19.71758
G1 X124.705 Y97.671 E19.76272
G1 X125.132 Y98.892 E19.8079
G1 X125.25 Y100 E19.84681
G1 X125.25 Y120 E20.54527
G1 X125.091 Y121.283 E20.59042
G1 X124.623 Y122.489 E20.6356
M204 S625
M205 X10 Y10
G0 F2571.4 X124.204 Y122.378
M204 S500
M205 X5 Y5
G1 F1200 X123.46 Y123.37 E20.67891
G1 X122.488 Y124.14 E20.72221
G1 X121.351 Y124.637 E20.76555
G1 X120 Y124.83 E20.81321
G1 X100 Y124.83 E21.51167
G1 X98.77 Y124.671 E21.55498
G1 X97.622 Y124.204 E21.59827
G1 X96.63 Y123.46 E21.64157
G1 X95.86 Y122.488 E21.68488
G1 X95.363 Y121.351 E21.72821
G1 X95.17 Y120 E21.77587
G1 X95.17 Y100 E22.47433
G1 X95.329 Y98.77 E22.51765
G1 X95.796 Y97.622 E22.56093
G1 X96.54 Y96.63 E22.60423
G1 X97.512 Y95.86 E22.64754
G1 X98.649 Y95.363 E22.69088
G1 X100 Y95.17 E22.73854
G1 X120 Y95.17 E23.437
G1 X121.819 Y95.526 E23.50173
G1 X122.898 Y96.136 E23.54502
G1 X123.787 Y97.002 E23.58836
G1 X124.425 Y98.064 E23.63162
G1 X124.772 Y99.255 E23.67495
G1 X124.83 Y100 E23.70104
G1 X124.83 Y120 E24.39951
G1 X124.671 Y121.23 E24.44282
G1 X124.204 Y122.378 E24.4861
M204 S625
M205 X10 Y10
G0 F2571.4 X123.785 Y122.263
M204 S500
M205 X5 Y5
G1 F1200 X123.046 Y123.189 E24.52748
G1 X122.087 Y123.885 E24.56886
G1 X120.978 Y124.3 E24.61021
G1 X120 Y124.41 E24.64458
G1 X100 Y124.41 E25.34304
G1 X98.826 Y124.251 E25.38442
G1 X97.737 Y123.785 E25.42578
G1 X96.811 Y123.046 E25.46716
G1 X96.115 Y122.087 E25.50854
G1 X95.7 Y120.978 E25.54989
G1 X95.59 Y120 E25.58426
G1 X95.59 Y100 E26.28273
G1 X95.749 Y98.826 E26.3241
G1 X96.215 Y97.737 E26.36547
G1 X96.954 Y96.811 E26.40684
G1 X97.913 Y96.115 E26.44823
G1 X99.022 Y95.7 E26.48958
G1 X100 Y95.59 E26.52395
G1 X120 Y95.59 E27.22241
G1 X121.734 Y95.945 E27.28422
G1 X122.751 Y96.553 E27.3256
G1 X123.569 Y97.41 E27.36698
G1 X124.13 Y98.453 E27.40834
G1 X124.393 Y99.608 E27.44971
G1 X124.41 Y120 E28.16186
G1 X124.251 Y121.174 E28.20323
G1 X123.785 Y122.263 E28.2446
M204 S625
M205 X10 Y10
G0 F2571.4 X123.367 Y122.141
M204 S500
M205 X5 Y5
G1 F1200 X122.634 Y122.997 E28.28396
G1 X121.691 Y123.614 E28.32331
G1 X120.614 Y123.942 E28.36263
G1 X100 Y123.99 E29.08254
G1 X98.885 Y123.831 E29.12187
G1 X97.859 Y123.367 E29.1612
G1 X97.003 Y122.634 E29.20055
G1 X96.386 Y121.691 E29.23991
G1 X96.058 Y120.614 E29.27923
G1 X96.01 Y100 E29.99913
G1 X96.169 Y98.885 E30.03847
G1 X96.633 Y97.859 E30.07779
G1 X97.366 Y97.003 E30.11715
G1 X98.309 Y96.386 E30.1565
G1 X99.386 Y96.058 E30.19582
G1 X120 Y96.01 E30.91573
G1 X121.645 Y96.365 E30.9745
G1 X122.595 Y96.969 E31.01382
G1 X123.339 Y97.815 E31.05316
G1 X123.816 Y98.836 E31.09252
G1 X123.99 Y100 E31.13362
G1 X123.99 Y120 E31.83208
G1 X123.831 Y121.115 E31.87141
G1 X123.367 Y122.141 E31.91074
M204 S625
M205 X10 Y10
G0 F2571.4 X123.411 Y121.053
M204 S500
M205 X5 Y5
G1 F1200 X122.949 Y122.013 E31.94795
G1 X122.224 Y122.793 E31.98514
G1 X121.301 Y123.325 E32.02234
G1 X120.79 Y123.481 E32.041
G1 X120 Y123.57 E32.06876
G1 X100 Y123.57 E32.76723
G1 X98.947 Y123.411 E32.80442
G1 X97.987 Y122.949 E32.84162
G1 X97.207 Y122.224 E32.87881
G1 X96.675 Y121.301 E32.91602
G1 X96.519 Y120.79 E32.93468
G1 X96.43 Y120 E32.96244
G1 X96.43 Y100 E33.6609
G1 X96.589 Y98.947 E33.69809
G1 X97.051 Y97.987 E33.7353
G1 X97.776 Y97.207 E33.77249
G1 X98.699 Y96.675 E33.8097
G1 X99.21 Y96.519 E33.82836
G1 X100 Y96.43 E33.85612
G1 X120 Y96.43 E34.55458
G1 X121.55 Y96.784 E34.61011
G1 X122.43 Y97.385 E34.64732
G1 X123.093 Y98.218 E34.6845
G1 X123.481 Y99.21 E34.7217
G1 X123.57 Y100 E34.74947
G1 X123.57 Y120 E35.44793
G1 X123.411 Y121.053 E35.48512
M204 S625
M205 X10 Y10
G0 F2571.4 X122.991 Y120.987
M204 S500
M205 X5 Y5
G1 F1200 X122.531 Y121.875 E35.52005
G1 X121.816 Y122.574 E35.55497
G1 X120.917 Y123.013 E35.5899
G1 X120 Y123.15 E35.62228
G1 X100 Y123.15 E36.32075
G1 X99.013 Y122.991 E36.35566
G1 X98.125 Y122.531 E36.39059
G1 X97.426 Y121.816 E36.42551
G1 X96.987 Y120.917 E36.46045
G1 X96.85 Y120 E36.49283
G1 X96.85 Y100 E37.19129
G1 X97.009 Y99.013 E37.2262
G1 X97.469 Y98.125 E37.26113
G1 X98.184 Y97.426 E37.29605
G1 X99.083 Y96.987 E37.33099
G1 X100 Y96.85 E37.36337
G1 X120 Y96.85 E38.06183
G1 X121.45 Y97.203 E38.11395
G1 X122.253 Y97.799 E38.14887
G1 X122.83 Y98.616 E38.1838
G1 X123.121 Y99.572 E38.2187
G1 X123.15 Y120 E38.93211
G1 X122.991 Y120.987 E38.96702
M204 S625
M205 X10 Y10
G0 F2571.4 X122.571 Y120.917
M204 S500
M205 X5 Y5
G1 F1200 X122.114 Y121.727 E38.9995
G1 X121.411 Y122.337 E39.03201
G1 X120.545 Y122.675 E39.06447
G1 X120 Y122.73 E39.0836
G1 X100 Y122.73 E39.78207
G1 X99.083 Y122.571 E39.81457
G1 X98.273 Y122.114 E39.84705
G1 X97.663 Y121.411 E39.87955
G1 X97.325 Y120.545 E39.91202
G1 X97.27 Y120 E39.93115
G1 X97.27 Y100 E40.62961
G1 X97.429 Y99.083 E40.66211
G1 X97.886 Y98.273 E40.69459
G1 X98.589 Y97.663 E40.7271
G1 X99.455 Y97.325 E40.75956
G1 X100 Y97.27 E40.77869
G1 X120 Y97.27 E41.47716
G1 X121.342 Y97.622 E41.52561
G1 X122.062 Y98.211 E41.5581
G1 X122.543 Y99.007 E41.59058
G1 X122.73 Y100 E41.62586
G1 X122.73 Y120 E42.32433
G1 X122.571 Y120.917 E42.35683
M204 S625
M205 X10 Y10
G0 F2571.4 X122.152 Y120.84
M204 S500
M205 X5 Y5
G1 F1200 X121.699 Y121.566 E42.38671
G1 X121.013 Y122.076 E42.41657
G1 X120.611 Y122.228 E42.43158
G1 X120 Y122.31 E42.45311
G1 X100 Y122.31 E43.15157
G1 X99.16 Y122.152 E43.18142
G1 X98.434 Y121.699 E43.2113
G1 X97.924 Y121.013 E43.24116
G1 X97.772 Y120.611 E43.25616
G1 X97.69 Y120 E43.27769
G1 X97.69 Y100 E43.97616
G1 X97.848 Y99.16 E44.00601
G1 X98.301 Y98.434 E44.03589
G1 X98.987 Y97.924 E44.06574
G1 X99.389 Y97.772 E44.08075
G1 X100 Y97.69 E44.10228
G1 X120 Y97.69 E44.80075
G1 X121.224 Y98.041 E44.84521
G1 X121.853 Y98.621 E44.87509
G1 X122.228 Y99.389 E44.90494
G1 X122.31 Y100 E44.92647
G1 X122.31 Y120 E45.62493
G1 X122.152 Y120.84 E45.65478
M204 S625
M205 X10 Y10
G0 F2571.4 X121.732 Y120.756
M204 S500
M205 X5 Y5
G1 F1200 X121.285 Y121.386 E45.68176
G1 X120.623 Y121.784 E45.70874
G1 X120 Y121.89 E45.73081
G1 X100 Y121.89 E46.42927
G1 X99.244 Y121.732 E46.45624
G1 X98.614 Y121.285 E46.48322
G1 X98.216 Y120.623 E46.51019
G1 X98.11 Y120 E46.53226
G1 X98.11 Y100 E47.23073
G1 X98.268 Y99.244 E47.2577
G1 X98.715 Y98.614 E47.28468
G1 X99.377 Y98.216 E47.31165
G1 X100 Y98.11 E47.33372
G1 X120 Y98.11 E48.03218
G1 X121.094 Y98.459 E48.07229
G1 X121.619 Y99.026 E48.09927
G1 X121.874 Y99.755 E48.12625
G1 X121.89 Y120 E48.83326
G1 X121.732 Y120.756 E48.86024
M204 S625
M205 X10 Y10
G0 F2571.4 X121.313 Y120.662
M204 S500
M205 X5 Y5
G1 F1200 X120.874 Y121.182 E48.884
G1 X120.249 Y121.449 E48.90774
G1 X100 Y121.47 E49.6149
G1 X99.338 Y121.313 E49.63866
G1 X98.818 Y120.874 E49.66242
G1 X98.551 Y120.249 E49.68616
G1 X98.53 Y100 E50.39332
G1 X98.687 Y99.338 E50.41708
G1 X99.126 Y98.818 E50.44085
G1 X99.751 Y98.551 E50.46458
G1 X120 Y98.53 E51.17174
G1 X120.947 Y98.876 E51.20695
G1 X121.352 Y99.423 E51.23072
G1 X121.47 Y100 E51.25129
G1 X121.47 Y120 E51.94975
G1 X121.313 Y120.662 E51.97351
M204 S625
M205 X10 Y10
G0 F2571.4 X120.894 Y120.551
M204 S500
M205 X5 Y5
G1 F1200 X120.472 Y120.938 E51.99351
G1 X120 Y121.05 E52.01045
G1 X100 Y121.05 E52.70891
G1 X99.449 Y120.894 E52.72891
G1 X99.062 Y120.472 E52.74891
G1 X98.95 Y120 E52.76585
G1 X98.95 Y100 E53.46431
G1 X99.106 Y99.449 E53.48431
G1 X99.528 Y99.062 E53.50431
G1 X100 Y98.95 E53.52125
G1 X120 Y98.95 E54.21971
G1 X120.774 Y99.29 E54.24923
G1 X121.031 Y99.802 E54.26924
G1 X121.05 Y120 E54.97462
G1 X120.894 Y120.551 E54.99462
M204 S625
M205 X10 Y10
G0 F2571.4 X120.476 Y120.412
M204 S500
M205 X5 Y5
G1 F1200 X120.302 Y120.553 E55.00244
G1 X120 Y120.63 E55.01332
G1 X100 Y120.63 E55.71179
G1 X99.588 Y120.476 E55.72715
G1 X99.447 Y120.302 E55.73497
G1 X99.37 Y120 E55.74585
G1 X99.37 Y100 E56.44431
G1 X99.524 Y99.588 E56.45968
G1 X99.698 Y99.447 E56.4675
G1 X100 Y99.37 E56.47838
G1 X120 Y99.37 E57.17684
G1 X120.553 Y99.698 E57.1993
G1 X120.63 Y100 E57.21018
G1 X120.63 Y120 E57.90864
G1 X120.476 Y120.412 E57.92401
M204 S625
M205 X10 Y10
G0 F2571.4 X120.21 Y120
M204 S500
M205 X5 Y5
G1 F1200 X120.068 Y120.199 E57.93254
G1 X100 Y120.21 E58.63338
G1 X99.801 Y120.068 E58.64192
G1 X99.79 Y100 E59.34276
G1 X99.932 Y99.801 E59.35129
G1 X120 Y99.79 E60.05213
G1 X120.21 Y100 E60.0625
G1 X120.21 Y120 E60.76097
M204 S625
M205 X10 Y10
G1 F1500 E54.26097
;MESH:2cmcube.stl
G0 F2571.4 X119.386 Y119.386
G0 X100.67 Y119.33
G0 X100.21 Y119.79
M204 S500
M205 X5 Y5
;TYPE:WALL-OUTER
G1 F1500 E60.76097
G1 F1200 X100.21 Y100.21 E61.44476
G1 X119.79 Y100.21 E62.12856
G1 X119.79 Y119.79 E62.81235
G1 X100.21 Y119.79 E63.49615
M204 S625
M205 X10 Y10
G0 F2571.4 X100.21 Y119.59
G0 X100.672 Y119.328
G0 X100.6 Y119.4
M204 S500
M205 X5 Y5
;TYPE:WALL-INNER
G1 F1200 X100.6 Y100.6 E64.05891
G1 X119.4 Y100.6 E64.62167
G1 X119.4 Y119.4 E65.18443
G1 X100.6 Y119.4 E65.74719
M204 S625
M205 X10 Y10
G0 F2571.4 X100.96 Y119.04
M204 S500
M205 X5 Y5
G1 F1200 X100.96 Y100.96 E66.2884
G1 X119.04 Y100.96 E66.82961
G1 X119.04 Y119.04 E67.37082
G1 X100.96 Y119.04 E67.91203
M204 S625
M205 X10 Y10
G0 F2571.4 X101.34 Y118.66
M204 S500
M205 X5 Y5
;TYPE:SKIN
G1 F1200 X101.34 Y101.34 E68.5169
G1 X118.66 Y101.34 E69.12177
G1 X118.66 Y118.66 E69.72663
G1 X101.34 Y118.66 E70.3315
M204 S625
M205 X10 Y10
G0 F2571.4 X109.74 Y110.26
M204 S500
M205 X5 Y5
G1 F1200 X109.74 Y109.74 E70.34966
G1 X110.26 Y109.74 E70.36782
G1 X110.26 Y110.26 E70.38598
G1 X109.74 Y110.26 E70.40414
M204 S625
M205 X10 Y10
G0 F2571.4 X109.32 Y110.68
M204 S500
M205 X5 Y5
G1 F1200 X109.32 Y109.32 E70.45164
G1 X110.68 Y109.32 E70.49913
G1 X110.68 Y110.68 E70.54663
G1 X109.32 Y110.68 E70.59413
M204 S625
M205 X10 Y10
G0 F2571.4 X108.9 Y111.1
M204 S500
M205 X5 Y5
G1 F1200 X108.9 Y108.9 E70.67096
G1 X111.1 Y108.9 E70.74779
G1 X111.1 Y111.1 E70.82462
G1 X108.9 Y111.1 E70.90145
M204 S625
M205 X10 Y10
G0 F2571.4 X108.48 Y111.52
M204 S500
M205 X5 Y5
G1 F1200 X108.48 Y108.48 E71.00762
G1 X111.52 Y108.48 E71.11378
G1 X111.52 Y111.52 E71.21995
G1 X108.48 Y111.52 E71.32611
M204 S625
M205 X10 Y10
G0 F2571.4 X108.06 Y111.94
M204 S500
M205 X5 Y5
G1 F1200 X108.06 Y108.06 E71.46162
G1 X111.94 Y108.06 E71.59712
G1 X111.94 Y111.94 E71.73262
G1 X108.06 Y111.94 E71.86812
M204 S625
M205 X10 Y10
G0 F2571.4 X107.64 Y112.36
M204 S500
M205 X5 Y5
G1 F1200 X107.64 Y107.64 E72.03296
G1 X112.36 Y107.64 E72.1978
G1 X112.36 Y112.36 E72.36263
G1 X107.64 Y112.36 E72.52747
M204 S625
M205 X10 Y10
G0 F2571.4 X107.22 Y112.78
M204 S500
M205 X5 Y5
G1 F1200 X107.22 Y107.22 E72.72164
G1 X112.78 Y107.22 E72.91582
G1 X112.78 Y112.78 E73.10999
G1 X107.22 Y112.78 E73.30416
M204 S625
M205 X10 Y10
G0 F2571.4 X106.8 Y113.2
M204 S500
M205 X5 Y5
G1 F1200 X106.8 Y106.8 E73.52767
G1 X113.2 Y106.8 E73.75118
G1 X113.2 Y113.2 E73.97469
G1 X106.8 Y113.2 E74.19819
M204 S625
M205 X10 Y10
G0 F2571.4 X106.38 Y113.62
M204 S500
M205 X5 Y5
G1 F1200 X106.38 Y106.38 E74.45104
G1 X113.62 Y106.38 E74.70388
G1 X113.62 Y113.62 E74.95672
G1 X106.38 Y113.62 E75.20957
M204 S625
M205 X10 Y10
G0 F2571.4 X105.96 Y114.04
M204 S500
M205 X5 Y5
G1 F1200 X105.96 Y105.96 E75.49175
G1 X114.04 Y105.96 E75.77393
G1 X114.04 Y114.04 E76.0561
G1 X105.96 Y114.04 E76.33828
M204 S625
M205 X10 Y10
G0 F2571.4 X105.54 Y114.46
M204 S500
M205 X5 Y5
G1 F1200 X105.54 Y105.54 E76.6498
