;FLAVOR:Marlin
;TIME:565
;Filament used: 1.34m
;Layer height: 0.3
;MINX:93.04
;MINY:93.04
;MINZ:0.2
;MAXX:126.96
;MAXY:126.96
;MAXZ:20
;Generated with Cura_SteamEngine 4.5.0
M140 S60
M105
M190 S60
M104 S205
M105
M109 S205
M82 ;absolute extrusion mode

M141 S28
G92 E0
G92 E0
G1 F1500 E-6.5
;LAYER_COUNT:67
;LAYER:0
M107
M204 S625
M205 X8.33 Y8.33
G0 F2571.4 X126.33 Y122.894 Z0.2
M204 S500
M205 X5 Y5
;TYPE:SKIRT
G1 F1500 E0
G1 F1200 X125.569 Y124.175 E0.05947
G1 X124.553 Y125.265 E0.11894
G1 X123.328 Y126.113 E0.17841
G1 X121.951 Y126.681 E0.23786
G1 X120.484 Y126.943 E0.29733
G1 X100 Y126.96 E1.1149
G1 X98.519 Y126.801 E1.17434
G1 X97.106 Y126.33 E1.23379
G1 X95.825 Y125.569 E1.29326
G1 X94.735 Y124.553 E1.35273
G1 X93.887 Y123.328 E1.4122
G1 X93.319 Y121.951 E1.47165
G1 X93.057 Y120.484 E1.53113
G1 X93.04 Y100 E2.34869
G1 X93.199 Y98.519 E2.40814
G1 X93.67 Y97.106 E2.46758
G1 X94.431 Y95.825 E2.52705
G1 X95.447 Y94.735 E2.58652
G1 X96.672 Y93.887 E2.64599
G1 X98.049 Y93.319 E2.70544
G1 X99.516 Y93.057 E2.76492
G1 X120 Y93.04 E3.58248
G1 X122.2 Y93.397 E3.67143
G1 X123.555 Y94.017 E3.73091
G1 X124.747 Y94.91 E3.79035
G1 X125.722 Y96.037 E3.84983
G1 X126.434 Y97.345 E3.90927
G1 X126.851 Y98.775 E3.96872
G1 X126.96 Y100 E4.01781
G1 X126.96 Y120 E4.81605
G1 X126.801 Y121.481 E4.8755
G1 X126.33 Y122.894 E4.93494
M204 S625
M205 X8.33 Y8.33
G0 F2571.4 X125.85 Y122.786
M204 S500
M205 X5 Y5
G1 F1200 X125.092 Y124.007 E4.9923
G1 X124.084 Y125.031 E5.04965
G1 X122.874 Y125.808 E5.10705
G1 X121.523 Y126.298 E5.16441
G1 X120 Y126.48 E5.22562
G1 X100 Y126.48 E6.02387
G1 X98.572 Y126.321 E6.08121
G1 X97.214 Y125.85 E6.13858
G1 X95.993 Y125.092 E6.19594
G1 X94.969 Y124.084 E6.25329
G1 X94.192 Y122.874 E6.31068
G1 X93.702 Y121.523 E6.36804
G1 X93.52 Y120 E6.42926
G1 X93.52 Y100 E7.22751
G1 X93.679 Y98.572 E7.28485
G1 X94.15 Y97.214 E7.34222
G1 X94.908 Y95.993 E7.39958
G1 X95.916 Y94.969 E7.45693
G1 X97.126 Y94.192 E7.51432
G1 X98.477 Y93.702 E7.57168
G1 X100 Y93.52 E7.6329
G1 X120 Y93.52 E8.43114
G1 X122.12 Y93.877 E8.51695
G1 X123.418 Y94.495 E8.57433
G1 X124.547 Y95.384 E8.63168
G1 X125.453 Y96.5 E8.68905
G1 X126.091 Y97.788 E8.74642
G1 X126.428 Y99.185 E8.80378
G1 X126.48 Y120 E9.63455
G1 X126.321 Y121.428 E9.6919
G1 X125.85 Y122.786 E9.74927
M204 S625
M205 X8.33 Y8.33
G0 F2571.4 X125.371 Y122.674
M204 S500
M205 X5 Y5
G1 F1200 X124.616 Y123.833 E9.80447
G1 X123.616 Y124.788 E9.85966
G1 X122.424 Y125.488 E9.91483
G1 X121.103 Y125.898 E9.97004
G1 X120 Y126 E10.01425
G1 X100 Y126 E10.81249
G1 X98.626 Y125.841 E10.8677
G1 X97.326 Y125.371 E10.92287
G1 X96.167 Y124.616 E10.97808
G1 X95.212 Y123.616 E11.03327
G1 X94.512 Y122.424 E11.08844
G1 X94.102 Y121.103 E11.14365
G1 X94 Y120 E11.18786
G1 X94 Y100 E11.9861
G1 X94.159 Y98.626 E12.0413
G1 X94.629 Y97.326 E12.09648
G1 X95.384 Y96.167 E12.15168
G1 X96.384 Y95.212 E12.20687
G1 X97.576 Y94.512 E12.26205
G1 X98.897 Y94.102 E12.31725
G1 X100 Y94 E12.36146
G1 X120 Y94 E13.15971
G1 X122.037 Y94.357 E13.24225
G1 X123.275 Y94.973 E13.29744
G1 X124.339 Y95.856 E13.35262
G1 X125.173 Y96.959 E13.40781
G1 X125.731 Y98.224 E13.46299
G1 X125.986 Y99.583 E13.51818
G1 X126 Y120 E14.33307
G1 X125.841 Y121.374 E14.38827
G1 X125.371 Y122.674 E14.44345
M204 S625
M205 X8.33 Y8.33
G0 F2571.4 X124.892 Y122.557
M204 S500
M205 X5 Y5
G1 F1200 X124.141 Y123.65 E14.49638
G1 X123.151 Y124.532 E14.5493
G1 X121.979 Y125.153 E14.60223
G1 X120.693 Y125.476 E14.65515
G1 X100 Y125.52 E15.48106
G1 X98.684 Y125.361 E15.53397
G1 X97.443 Y124.892 E15.58692
G1 X96.35 Y124.141 E15.63984
G1 X95.468 Y123.151 E15.69276
G1 X94.847 Y121.979 E15.7457
G1 X94.524 Y120.693 E15.79862
G1 X94.48 Y100 E16.62453
G1 X94.639 Y98.684 E16.67743
G1 X95.108 Y97.443 E16.73038
G1 X95.859 Y96.35 E16.78331
G1 X96.849 Y95.468 E16.83623
G1 X98.021 Y94.847 E16.88917
G1 X99.307 Y94.524 E16.94209
G1 X120 Y94.48 E17.768
G1 X121.951 Y94.836 E17.84715
G1 X123.126 Y95.45 E17.90006
G1 X124.121 Y96.327 E17.953
G1 X124.878 Y97.416 E18.00593
G1 X125.353 Y98.654 E18.05886
G1 X125.52 Y100 E18.11299
G1 X125.52 Y120 E18.91124
G1 X125.361 Y121.316 E18.96414
G1 X124.892 Y122.557 E19.01709
M204 S625
M205 X8.33 Y8.33
G0 F2571.4 X124.413 Y122.434
M204 S500
M205 X5 Y5
G1 F1200 X123.667 Y123.458 E19.06766
G1 X122.689 Y124.263 E19.11821
G1 X121.541 Y124.799 E19.16878
G1 X120 Y125.04 E19.23103
G1 X100 Y125.04 E20.02928
G1 X98.743 Y124.881 E20.07985
G1 X97.566 Y124.413 E20.1304
G1 X96.542 Y123.667 E20.18097
G1 X95.737 Y122.689 E20.23152
G1 X95.201 Y121.541 E20.28209
G1 X94.96 Y120 E20.34434
G1 X94.96 Y100 E21.14258
G1 X95.119 Y98.743 E21.19315
G1 X95.587 Y97.566 E21.24371
G1 X96.333 Y96.542 E21.29427
G1 X97.311 Y95.737 E21.34483
G1 X98.459 Y95.201 E21.3954
G1 X100 Y94.96 E21.45765
G1 X120 Y94.96 E22.25589
G1 X121.86 Y95.316 E22.33148
G1 X122.969 Y95.928 E22.38203
G1 X123.891 Y96.797 E22.4326
G1 X124.567 Y97.868 E22.48315
G1 X124.954 Y99.074 E22.5337
G1 X125.04 Y100 E22.57082
G1 X125.04 Y120 E23.36906
G1 X124.881 Y121.257 E23.41963
G1 X124.413 Y122.434 E23.47018
M204 S625
M205 X8.33 Y8.33
G0 F2571.4 X123.935 Y122.305
M204 S500
M205 X5 Y5
G1 F1200 X123.194 Y123.255 E23.51827
G1 X122.23 Y123.978 E23.56637
G1 X121.111 Y124.423 E23.61443
G1 X120 Y124.56 E23.65911
G1 X100 Y124.56 E24.45735
G1 X98.806 Y124.401 E24.50543
G1 X97.695 Y123.935 E24.55351
G1 X96.745 Y123.194 E24.6016
G1 X96.022 Y122.23 E24.64969
G1 X95.577 Y121.111 E24.69776
G1 X95.44 Y120 E24.74243
G1 X95.44 Y100 E25.54068
G1 X95.599 Y98.806 E25.58875
G1 X96.065 Y97.695 E25.63684
G1 X96.806 Y96.745 E25.68493
G1 X97.77 Y96.022 E25.73302
G1 X98.889 Y95.577 E25.78108
G1 X100 Y95.44 E25.82576
G1 X120 Y95.44 E26.624
G1 X121.765 Y95.795 E26.69586
G1 X122.804 Y96.404 E26.74393
G1 X123.648 Y97.264 E26.79202
G1 X124.237 Y98.315 E26.84011
G1 X124.531 Y99.483 E26.88818
G1 X124.56 Y120 E27.70706
G1 X124.401 Y121.194 E27.75513
G1 X123.935 Y122.305 E27.80322
M204 S625
M205 X8.33 Y8.33
G0 F2571.4 X123.456 Y122.168
M204 S500
M205 X5 Y5
G1 F1200 X122.722 Y123.039 E27.84868
G1 X121.776 Y123.673 E27.89413
G1 X120.691 Y124.021 E27.93961
G1 X100 Y124.08 E28.76543
G1 X98.872 Y123.921 E28.8109
G1 X97.832 Y123.456 E28.85637
G1 X96.961 Y122.722 E28.90183
G1 X96.327 Y121.776 E28.94728
G1 X95.979 Y120.691 E28.99276
G1 X95.92 Y100 E29.81859
G1 X96.079 Y98.872 E29.86405
G1 X96.544 Y97.832 E29.90952
G1 X97.278 Y96.961 E29.95498
G1 X98.224 Y96.327 E30.00043
G1 X99.309 Y95.979 E30.04591
G1 X120 Y95.92 E30.87174
G1 X121.664 Y96.275 E30.93965
G1 X122.629 Y96.88 E30.9851
G1 X123.389 Y97.729 E31.03058
G1 X123.885 Y98.754 E31.07603
G1 X124.08 Y100 E31.12637
G1 X124.08 Y120 E31.92461
G1 X123.921 Y121.128 E31.97008
G1 X123.456 Y122.168 E32.01555
M204 S625
M205 X8.33 Y8.33
G0 F2571.4 X123.441 Y121.058
M204 S500
M205 X5 Y5
G1 F1200 X122.978 Y122.022 E32.05823
G1 X122.253 Y122.808 E32.10091
G1 X121.328 Y123.346 E32.14362
G1 X120 Y123.6 E32.19758
G1 X100 Y123.6 E32.99582
G1 X98.942 Y123.441 E33.03852
G1 X97.978 Y122.978 E33.08121
G1 X97.192 Y122.253 E33.12389
G1 X96.654 Y121.328 E33.1666
G1 X96.4 Y120 E33.22056
G1 X96.4 Y100 E34.0188
G1 X96.559 Y98.942 E34.0615
G1 X97.022 Y97.978 E34.10419
G1 X97.747 Y97.192 E34.14687
G1 X98.672 Y96.654 E34.18957
G1 X100 Y96.4 E34.24354
G1 X120 Y96.4 E35.04178
G1 X121.557 Y96.754 E35.10551
G1 X122.442 Y97.355 E35.14821
G1 X123.111 Y98.189 E35.19088
G1 X123.506 Y99.183 E35.23357
G1 X123.6 Y100 E35.26639
G1 X123.6 Y120 E36.06464
G1 X123.441 Y121.058 E36.10734
M204 S625
M205 X8.33 Y8.33
G0 F2571.4 X122.961 Y120.982
M204 S500
M205 X5 Y5
G1 F1200 X122.501 Y121.865 E36.14708
G1 X121.787 Y122.558 E36.18679
G1 X120.89 Y122.99 E36.22653
G1 X120 Y123.12 E36.26243
G1 X100 Y123.12 E37.06067
G1 X99.018 Y122.961 E37.10037
G1 X98.135 Y122.501 E37.14011
G1 X97.442 Y121.787 E37.17982
G1 X97.01 Y120.89 E37.21956
G1 X96.88 Y120 E37.25546
G1 X96.88 Y100 E38.0537
G1 X97.039 Y99.018 E38.09341
G1 X97.499 Y98.135 E38.13315
G1 X98.213 Y97.442 E38.17286
G1 X99.11 Y97.01 E38.21259
G1 X100 Y96.88 E38.24849
G1 X120 Y96.88 E39.04674
G1 X121.442 Y97.233 E39.10599
G1 X122.24 Y97.828 E39.14572
G1 X122.81 Y98.644 E39.18545
G1 X123.094 Y99.598 E39.22517
G1 X123.12 Y120 E40.03946
G1 X122.961 Y120.982 E40.07917
M204 S625
M205 X8.33 Y8.33
G0 F2571.4 X122.482 Y120.901
M204 S500
M205 X5 Y5
G1 F1200 X122.025 Y121.694 E40.1157
G1 X121.325 Y122.283 E40.15221
G1 X120.467 Y122.598 E40.18869
G1 X100 Y122.64 E41.00557
G1 X99.099 Y122.482 E41.04208
G1 X98.306 Y122.025 E41.07861
G1 X97.717 Y121.325 E41.11512
G1 X97.402 Y120.467 E41.1516
G1 X97.36 Y100 E41.96849
G1 X97.518 Y99.099 E42.005
G1 X97.975 Y98.306 E42.04153
G1 X98.675 Y97.717 E42.07804
G1 X99.533 Y97.402 E42.11452
G1 X120 Y97.36 E42.9314
G1 X121.317 Y97.712 E42.98581
G1 X122.019 Y98.299 E43.02234
G1 X122.478 Y99.09 E43.05884
G1 X122.64 Y100 E43.09573
G1 X122.64 Y120 E43.89397
G1 X122.482 Y120.901 E43.93048
M204 S625
M205 X8.33 Y8.33
G0 F2571.4 X122.002 Y120.811
M204 S500
M205 X5 Y5
G1 F1200 X121.551 Y121.504 E43.96348
G1 X120.872 Y121.976 E43.99649
G1 X120 Y122.16 E44.03206
G1 X100 Y122.16 E44.8303
G1 X99.189 Y122.002 E44.86328
G1 X98.496 Y121.551 E44.89628
G1 X98.024 Y120.872 E44.92928
G1 X97.84 Y120 E44.96485
G1 X97.84 Y100 E45.7631
G1 X97.998 Y99.189 E45.79607
G1 X98.449 Y98.496 E45.82907
G1 X99.128 Y98.024 E45.86208
G1 X100 Y97.84 E45.89765
G1 X120 Y97.84 E46.69589
G1 X121.179 Y98.19 E46.74498
G1 X121.773 Y98.766 E46.778
G1 X122.106 Y99.522 E46.81097
G1 X122.16 Y120 E47.6283
G1 X122.002 Y120.811 E47.66127
M204 S625
M205 X8.33 Y8.33
G0 F2571.4 X121.522 Y120.71
M204 S500
M205 X5 Y5
G1 F1200 X121.079 Y121.288 E47.69034
G1 X120.433 Y121.623 E47.71938
G1 X100 Y121.68 E48.53491
G1 X99.29 Y121.522 E48.56394
G1 X98.712 Y121.079 E48.59301
G1 X98.377 Y120.433 E48.62205
G1 X98.32 Y100 E49.43758
G1 X98.478 Y99.29 E49.46661
G1 X98.921 Y98.712 E49.49568
G1 X99.567 Y98.377 E49.52472
G1 X120 Y98.32 E50.34025
G1 X121.023 Y98.668 E50.38338
G1 X121.491 Y99.225 E50.41241
G1 X121.68 Y100 E50.44425
G1 X121.68 Y120 E51.2425
G1 X121.522 Y120.71 E51.27153
M204 S625
M205 X8.33 Y8.33
G0 F2571.4 X121.043 Y120.593
M204 S500
M205 X5 Y5
G1 F1200 X120.614 Y121.031 E51.296
G1 X120 Y121.2 E51.32141
G1 X100 Y121.2 E52.11966
G1 X99.407 Y121.043 E52.14414
G1 X98.969 Y120.614 E52.16861
G1 X98.8 Y120 E52.19403
G1 X98.8 Y100 E52.99227
G1 X98.957 Y99.407 E53.01675
G1 X99.386 Y98.969 E53.04122
G1 X100 Y98.8 E53.06664
G1 X120 Y98.8 E53.86488
G1 X120.84 Y99.143 E53.9011
G1 X121.154 Y99.67 E53.92558
G1 X121.2 Y120 E54.737
G1 X121.043 Y120.593 E54.76148
M204 S625
M205 X8.33 Y8.33
G0 F2571.4 X120.565 Y120.446
M204 S500
M205 X5 Y5
G1 F1200 X120.168 Y120.7 E54.78029
G1 X100 Y120.72 E55.58524
G1 X99.554 Y120.565 E55.60409
G1 X99.3 Y120.168 E55.6229
G1 X99.28 Y100 E56.42785
G1 X99.435 Y99.554 E56.44669
G1 X99.832 Y99.3 E56.4655
G1 X120 Y99.28 E57.27045
G1 X120.606 Y99.612 E57.29803
G1 X120.72 Y100 E57.31417
G1 X120.72 Y120 E58.11241
G1 X120.565 Y120.446 E58.13126
M204 S625
M205 X8.33 Y8.33
G0 F2571.4 X120.24 Y120
M204 S500
M205 X5 Y5
G1 F1200 X120.096 Y120.22 E58.14175
G1 X100 Y120.24 E58.94383
G1 X99.78 Y120.096 E58.95432
G1 X99.76 Y100 E59.7564
G1 X99.904 Y99.78 E59.76689
G1 X120 Y99.76 E60.56897
G1 X120.24 Y100 E60.58251
G1 X120.24 Y120 E61.38076
M204 S625
M205 X8.33 Y8.33
G1 F1500 E54.88076
;MESH:2cmcube.stl
G0 F2571.4 X119.266 Y119.266
G0 X100.79 Y119.21
G0 X100.24 Y119.76
M204 S500
M205 X5 Y5
;TYPE:WALL-OUTER
G1 F1500 E61.38076
G1 F1200 X100.24 Y100.24 E62.15984
G1 X119.76 Y100.24 E62.93893
G1 X119.76 Y119.76 E63.71801
G1 X100.24 Y119.76 E64.4971
M204 S625
M205 X8.33 Y8.33
G0 F2571.4 X100.24 Y119.56
G0 X100.768 Y119.232
G0 X100.72 Y119.28
M204 S500
M205 X5 Y5
;TYPE:WALL-INNER
G1 F1200 X100.72 Y100.72 E65.23787
G1 X119.28 Y100.72 E65.97864
G1 X119.28 Y119.28 E66.71941
G1 X100.72 Y119.28 E67.46018
M204 S625
M205 X8.33 Y8.33
G0 F2571.4 X101.19 Y118.81
M204 S500
M205 X5 Y5
;TYPE:SKIN
G1 F1200 X101.19 Y101.19 E68.16343
G1 X118.81 Y101.19 E68.86668
G1 X118.81 Y118.81 E69.56994
G1 X101.19 Y118.81 E70.27319
M204 S625
M205 X8.33 Y8.33
G0 F2571.4 X101.678 Y118.648
M204 S500
M205 X5 Y5
G1 F1200 X101.349 Y118.32 E70.29173
M204 S625
M205 X8.33 Y8.33
G0 F2571.4 X101.349 Y117.641
M204 S500
M205 X5 Y5
G1 F1200 X102.357 Y118.648 E70.3486
M204 S625
M205 X8.33 Y8.33
G0 F2571.4 X103.036 Y118.648
M204 S500
M205 X5 Y5
G1 F1200 X101.349 Y116.962 E70.44379
M204 S625
M205 X8.33 Y8.33
G0 F2571.4 X101.349 Y116.283
M204 S500
M205 X5 Y5
G1 F1200 X103.714 Y118.648 E70.57728
M204 S625
M205 X8.33 Y8.33
G0 F2571.4 X104.393 Y118.648
M204 S500
M205 X5 Y5
G1 F1200 X101.349 Y115.604 E70.7491
M204 S625
M205 X8.33 Y8.33
G0 F2571.4 X101.349 Y114.926
M204 S500
M205 X5 Y5
G1 F1200 X105.072 Y118.648 E70.95921
M204 S625
M205 X8.33 Y8.33
G0 F2571.4 X105.751 Y118.648
M204 S500
M205 X5 Y5
G1 F1200 X101.349 Y114.247 E71.20765
M204 S625
M205 X8.33 Y8.33
G0 F2571.4 X101.349 Y113.568
M204 S500
M205 X5 Y5
G1 F1200 X106.43 Y118.648 E71.49442
M204 S625
M205 X8.33 Y8.33
G0 F2571.4 X107.108 Y118.648
M204 S500
M205 X5 Y5
G1 F1200 X101.349 Y112.889 E71.81948
M204 S625
M205 X8.33 Y8.33
G0 F2571.4 X101.349 Y112.21
M204 S500
M205 X5 Y5
G1 F1200 X107.787 Y118.648 E72.18287
M204 S625
M205 X8.33 Y8.33
G0 F2571.4 X108.466 Y118.648
M204 S500
M205 X5 Y5
G1 F1200 X101.349 Y111.531 E72.58458
M204 S625
M205 X8.33 Y8.33
G0 F2571.4 X101.349 Y110.853
M204 S500
M205 X5 Y5
G1 F1200 X109.145 Y118.648 E73.02459
M204 S625
M205 X8.33 Y8.33
G0 F2571.4 X109.824 Y118.648
M204 S500
M205 X5 Y5
G1 F1200 X101.349 Y110.174 E73.50293
M204 S625
M205 X8.33 Y8.33
G0 F2571.4 X101.349 Y109.495
M204 S500
M205 X5 Y5
G1 F1200 X110.503 Y118.648 E74.01959
M204 S625
M205 X8.33 Y8.33
G0 F2571.4 X111.181 Y118.648
M204 S500
M205 X5 Y5
G1 F1200 X101.349 Y108.816 E74.57456
M204 S625
M205 X8.33 Y8.33
G0 F2571.4 X101.349 Y108.137
M204 S500
M205 X5 Y5
G1 F1200 X111.86 Y118.648 E75.16784
M204 S625
M205 X8.33 Y8.33
G0 F2571.4 X112.539 Y118.648
M204 S500
M205 X5 Y5
G1 F1200 X101.349 Y107.459 E75.79943
M204 S625
M205 X8.33 Y8.33
G0 F2571.4 X101.349 Y106.78
M204 S500
M205 X5 Y5
G1 F1200 X113.218 Y118.648 E76.46933
M204 S625
M205 X8.33 Y8.33
G0 F2571.4 X113.897 Y118.648
M204 S500
M205 X5 Y5
G1 F1200 X101.349 Y106.101 E77.17757
M204 S625
M205 X8.33 Y8.33
G0 F2571.4 X101.349 Y105.422
M204 S500
M205 X5 Y5
G1 F1200 X114.576 Y118.648 E77.92413
M204 S625
M205 X8.33 Y8.33
G0 F2571.4 X115.254 Y118.648
M204 S500
M205 X5 Y5
G1 F1200 X101.349 Y104.743 E78.70899
M204 S625
M205 X8.33 Y8.33
G0 F2571.4 X101.349 Y104.064
M204 S500
M205 X5 Y5
G1 F1200 X115.933 Y118.648 E79.53217
M204 S625
M205 X8.33 Y8.33
G0 F2571.4 X116.612 Y118.648
M204 S500
M205 X5 Y5
G1 F1200 X101.349 Y103.386 E80.39365
M204 S625
M205 X8.33 Y8.33
G0 F2571.4 X101.349 Y102.707
M204 S500
M205 X5 Y5
G1 F1200 X117.291 Y118.648 E81.29346
M204 S625
M205 X8.33 Y8.33
G0 F2571.4 X117.97 Y118.648
M204 S500
M205 X5 Y5
G1 F1200 X101.349 Y102.028 E82.23159
M204 S625
M205 X8.33 Y8.33
G0 F2571.4 X101.349 Y101.349
M204 S500
M205 X5 Y5
G1 F1200 X118.649 Y118.649 E83.20808
M204 S625
M205 X8.33 Y8.33
G0 F2571.4 X118.649 Y117.97
M204 S500
M205 X5 Y5
G1 F1200 X102.029 Y101.35 E84.14619
M204 S625
M205 X8.33 Y8.33
G0 F2571.4 X102.707 Y101.35
M204 S500
M205 X5 Y5
G1 F1200 X118.649 Y117.292 E85.04602
M204 S625
M205 X8.33 Y8.33
G0 F2571.4 X118.649 Y116.613
M204 S500
M205 X5 Y5
G1 F1200 X103.386 Y101.35 E85.90753
M204 S625
M205 X8.33 Y8.33
G0 F2571.4 X104.065 Y101.35
M204 S500
M205 X5 Y5
G1 F1200 X118.649 Y115.934 E86.73071
M204 S625
M205 X8.33 Y8.33
G0 F2571.4 X118.649 Y115.255
M204 S500
M205 X5 Y5
G1 F1200 X104.744 Y101.35 E87.51557
M204 S625
M205 X8.33 Y8.33
G0 F2571.4 X105.423 Y101.35
M204 S500
M205 X5 Y5
G1 F1200 X118.649 Y114.576 E88.26211
M204 S625
M205 X8.33 Y8.33
G0 F2571.4 X118.649 Y113.897
M204 S500
M205 X5 Y5
G1 F1200 X106.102 Y101.35 E88.97031
M204 S625
M205 X8.33 Y8.33
G0 F2571.4 X106.78 Y101.35
M204 S500
M205 X5 Y5
G1 F1200 X118.649 Y113.219 E89.64025
M204 S625
M205 X8.33 Y8.33
G0 F2571.4 X118.649 Y112.54
M204 S500
M205 X5 Y5
G1 F1200 X107.459 Y101.35 E90.27186
M204 S625
M205 X8.33 Y8.33
G0 F2571.4 X108.138 Y101.35
M204 S500
M205 X5 Y5
G1 F1200 X118.649 Y111.861 E90.86515
M204 S625
M205 X8.33 Y8.33
