;FLAVOR:Marlin
;TIME:304
;Filament used: 0.493038m
;Layer height: 0.3
;MINX:104
;MINY:70.334
;MINZ:0.3
;MAXX:116
;MAXY:108.896
;MAXZ:13.5
;Generated with Cura_SteamEngine 4.5.0
M140 S60
M105
M190 S60
M104 S200
M105
M109 S200
M82 ;absolute extrusion mode
G28 ;Home
G1 Z15.0 F6000 ;Move the platform down 15mm
;Prime the extruder
G92 E0
G1 F200 E3
G92 E0
G92 E0
G92 E0
G1 F1500 E-6.5
;LAYER_COUNT:45
;LAYER:0
M107
G0 F3600 X104.662 Y72.154 Z0.3
;TYPE:SKIRT
G1 F1500 E0
G1 F1800 X105.004 Y71.704 E0.0282
G1 X105.406 Y71.307 E0.05639
G1 X105.86 Y70.97 E0.08459
G1 X106.357 Y70.701 E0.11279
G1 X106.887 Y70.504 E0.141
G1 X107.44 Y70.385 E0.16922
G1 X108.218 Y70.337 E0.20811
G1 X109.365 Y70.334 E0.26533
G1 X110.538 Y70.338 E0.32385
G1 X111.277 Y70.335 E0.36072
G1 X112.048 Y70.345 E0.39919
G1 X112.612 Y70.393 E0.42743
G1 X113.162 Y70.52 E0.45559
G1 X113.69 Y70.724 E0.48383
G1 X114.184 Y70.999 E0.51204
G1 X114.633 Y71.342 E0.54023
G1 X115.03 Y71.744 E0.56842
G1 X115.367 Y72.199 E0.59666
G1 X115.635 Y72.696 E0.62483
G1 X115.831 Y73.226 E0.65303
G1 X115.951 Y73.779 E0.68126
G1 X115.998 Y74.553 E0.71994
G1 X116 Y104.209 E2.19949
G1 X115.991 Y104.936 E2.23576
G1 X115.944 Y105.499 E2.26395
G1 X115.818 Y106.05 E2.29215
G1 X115.616 Y106.578 E2.32035
G1 X115.341 Y107.072 E2.34856
G1 X114.999 Y107.522 E2.37676
G1 X114.597 Y107.92 E2.40498
G1 X114.144 Y108.257 E2.43315
G1 X113.647 Y108.527 E2.46136
G1 X113.117 Y108.724 E2.48957
G1 X112.565 Y108.845 E2.51777
G1 X111.782 Y108.893 E2.5569
G1 X110.635 Y108.896 E2.61413
G1 X108.705 Y108.895 E2.71042
G1 X107.952 Y108.885 E2.74799
G1 X107.388 Y108.837 E2.77623
G1 X106.838 Y108.71 E2.80439
G1 X106.31 Y108.506 E2.83263
G1 X105.816 Y108.231 E2.86084
G1 X105.367 Y107.888 E2.88902
G1 X104.97 Y107.486 E2.91721
G1 X104.633 Y107.031 E2.94546
G1 X104.365 Y106.534 E2.97363
G1 X104.169 Y106.004 E3.00182
G1 X104.049 Y105.451 E3.03005
G1 X104.001 Y104.661 E3.06954
G1 X104 Y74.955 E4.55158
G1 X104.009 Y74.29 E4.58476
G1 X104.057 Y73.727 E4.61295
G1 X104.183 Y73.176 E4.64115
G1 X104.386 Y72.648 E4.66937
G1 X104.662 Y72.154 E4.6976
G0 F3600 X105.058 Y72.282
G1 F1800 X105.397 Y71.866 E4.72437
G1 X105.794 Y71.506 E4.75111
G1 X106.241 Y71.208 E4.77791
G1 X106.726 Y70.98 E4.80465
G1 X107.24 Y70.827 E4.83141
G1 X107.908 Y70.745 E4.86498
G1 X109.366 Y70.734 E4.93773
G1 X110.538 Y70.738 E4.9962
G1 X111.279 Y70.735 E5.03317
G1 X112.043 Y70.745 E5.07129
G1 X112.577 Y70.793 E5.09803
G1 X113.098 Y70.919 E5.12478
G1 X113.595 Y71.122 E5.15156
G1 X114.056 Y71.396 E5.17832
G1 X114.471 Y71.735 E5.20505
G1 X114.831 Y72.133 E5.23182
G1 X115.128 Y72.579 E5.25856
G1 X115.356 Y73.065 E5.28534
G1 X115.508 Y73.579 E5.31208
G1 X115.59 Y74.244 E5.34551
G1 X115.6 Y104.204 E6.84022
G1 X115.591 Y104.931 E6.87649
G1 X115.544 Y105.465 E6.90324
G1 X115.419 Y105.986 E6.92997
G1 X115.217 Y106.483 E6.95673
G1 X114.944 Y106.945 E6.9835
G1 X114.606 Y107.361 E7.01025
G1 X114.209 Y107.722 E7.03702
G1 X113.763 Y108.02 E7.06378
G1 X113.278 Y108.248 E7.09051
G1 X112.764 Y108.402 E7.11728
G1 X112.092 Y108.485 E7.15107
G1 X110.634 Y108.496 E7.22381
G1 X108.705 Y108.495 E7.32005
G1 X107.957 Y108.485 E7.35737
G1 X107.423 Y108.437 E7.38412
G1 X106.902 Y108.311 E7.41086
G1 X106.405 Y108.108 E7.43764
G1 X105.944 Y107.834 E7.4644
G1 X105.529 Y107.495 E7.49113
G1 X105.169 Y107.097 E7.51791
G1 X104.872 Y106.651 E7.54464
G1 X104.644 Y106.165 E7.57142
G1 X104.492 Y105.651 E7.59816
G1 X104.41 Y104.983 E7.63174
G1 X104.4 Y74.96 E9.12959
G1 X104.409 Y74.295 E9.16277
G1 X104.457 Y73.761 E9.18952
G1 X104.583 Y73.24 E9.21626
G1 X104.785 Y72.743 E9.24303
G1 X105.058 Y72.282 E9.26976
G0 F3600 X105.454 Y72.417
G1 F1800 X105.789 Y72.039 E9.29496
G1 X106.18 Y71.718 E9.3202
G1 X106.617 Y71.463 E9.34544
G1 X107.088 Y71.279 E9.37067
G1 X107.582 Y71.173 E9.39587
G1 X108.24 Y71.136 E9.42875
G1 X109.366 Y71.134 E9.48493
G1 X110.538 Y71.138 E9.5434
G1 X111.28 Y71.135 E9.58042
G1 X112.037 Y71.145 E9.61819
G1 X112.54 Y71.192 E9.64339
G1 X113.03 Y71.318 E9.66863
G1 X113.494 Y71.52 E9.69388
G1 X113.92 Y71.792 E9.7191
G1 X114.298 Y72.127 E9.7443
G1 X114.618 Y72.518 E9.7695
G1 X114.873 Y72.955 E9.79475
G1 X115.056 Y73.426 E9.81996
G1 X115.163 Y73.92 E9.84517
G1 X115.199 Y74.575 E9.8779
G1 X115.2 Y104.199 E11.35585
G1 X115.191 Y104.926 E11.39212
G1 X115.145 Y105.429 E11.41732
G1 X115.02 Y105.919 E11.44255
G1 X114.819 Y106.383 E11.46778
G1 X114.548 Y106.81 E11.49301
G1 X114.213 Y107.189 E11.51825
G1 X113.823 Y107.51 E11.54345
G1 X113.387 Y107.766 E11.56867
G1 X112.916 Y107.949 E11.59388
G1 X112.422 Y108.057 E11.61911
G1 X111.76 Y108.094 E11.65219
G1 X108.705 Y108.095 E11.8046
G1 X107.963 Y108.085 E11.84162
G1 X107.46 Y108.038 E11.86683
G1 X106.97 Y107.912 E11.89207
G1 X106.506 Y107.71 E11.91732
G1 X106.08 Y107.438 E11.94253
G1 X105.702 Y107.103 E11.96773
G1 X105.382 Y106.712 E11.99294
G1 X105.127 Y106.275 E12.01818
G1 X104.944 Y105.804 E12.04339
G1 X104.837 Y105.31 E12.06861
G1 X104.801 Y104.64 E12.10208
G1 X104.8 Y74.966 E13.58252
G1 X104.809 Y74.301 E13.6157
G1 X104.856 Y73.797 E13.64096
G1 X104.982 Y73.308 E13.66615
G1 X105.183 Y72.844 E13.69138
G1 X105.454 Y72.417 E13.71661
G1 F1500 E7.21661
;MESH:clip2.1.stl
G0 F3600 X107.335 Y74.949
G0 X108.614 Y74.949
G0 X108.757 Y88.892
G0 X111.285 Y90.656
G0 X111.215 Y90.726
;TYPE:WALL-INNER
G1 F1500 E13.71661
G1 F1800 X108.785 Y90.726 E13.83784
G1 X108.785 Y104.295 E14.5148
G1 X108.6 Y104.295 E14.52403
G1 X108.6 Y90.726 E14.83713
G1 X108.6 Y88.864 E14.93002
G1 X108.6 Y74.935 E15.62494
G1 X108.785 Y74.935 E15.63417
G1 X108.785 Y88.864 E15.95557
G1 X111.215 Y88.864 E16.07681
G1 X111.215 Y74.935 E16.77173
G1 X111.4 Y74.935 E16.78096
G1 X111.4 Y88.864 E17.10236
G1 X111.4 Y90.726 E17.19525
G1 X111.4 Y104.295 E17.87221
G1 X111.215 Y104.295 E17.88144
G1 X111.215 Y90.726 E18.19454
G0 F3600 X110.815 Y91.126
;TYPE:WALL-OUTER
G1 F1800 X109.185 Y91.126 E18.27586
G1 X109.185 Y104.695 E18.95282
G1 X108.2 Y104.695 E19.00196
G1 X108.2 Y74.535 E20.50665
G1 X109.185 Y74.535 E20.55579
G1 X109.185 Y88.464 E21.25071
G1 X110.815 Y88.464 E21.33203
G1 X110.815 Y74.535 E22.02695
G1 X111.8 Y74.535 E22.07609
G1 X111.8 Y104.695 E23.58078
G1 X110.815 Y104.695 E23.62993
G1 X110.815 Y91.126 E24.30689
G0 F3600 X110.615 Y91.126
G0 X111.01 Y90.336
;TYPE:SKIN
G1 F1800 X108.99 Y90.336 E24.40766
G1 X108.99 Y89.254 E24.46164
G1 X111.01 Y89.254 E24.56242
G1 X111.01 Y90.336 E24.6164
G0 F3600 X110.829 Y89.899
G1 F1800 X110.364 Y89.434 E24.64921
G0 F3600 X109.798 Y89.434
G1 F1800 X110.52 Y90.156 E24.70015
G0 F3600 X109.955 Y90.156
G1 F1800 X109.233 Y89.434 E24.75109
G0 F3600 X109.168 Y89.935
G1 F1800 X109.389 Y90.156 E24.76669
;MESH:NONMESH
G0 F600 X109.389 Y90.156 Z0.6
G0 F3600 X111.285 Y90.656
G0 X111.215 Y90.726
;TIME_ELAPSED:22.530038
;LAYER:1
M140 S60
M106 S255
;TYPE:WALL-INNER
;MESH:clip2.1.stl
G1 F2700 X108.785 Y90.726 E24.88792
G1 X108.785 Y104.295 E25.56488
G1 X108.6 Y104.295 E25.57411
G1 X108.6 Y90.726 E25.8872
G1 X108.6 Y88.864 E25.9801
G1 X108.6 Y74.935 E26.67502
G1 X108.785 Y74.935 E26.68425
G1 X108.785 Y88.864 E27.00565
G1 X111.215 Y88.864 E27.12688
G1 X111.215 Y74.935 E27.8218
G1 X111.4 Y74.935 E27.83103
G1 X111.4 Y88.864 E28.15244
G1 X111.4 Y90.726 E28.24533
G1 X111.4 Y104.295 E28.92229
G1 X111.215 Y104.295 E28.93152
G1 X111.215 Y90.726 E29.24461
G0 F5400 X110.815 Y91.126
;TYPE:WALL-OUTER
G1 F1800 X109.185 Y91.126 E29.32594
G1 X109.185 Y104.695 E30.0029
G1 X108.2 Y104.695 E30.05204
G1 X108.2 Y74.535 E31.55673
G1 X109.185 Y74.535 E31.60587
G1 X109.185 Y88.464 E32.30079
G1 X110.815 Y88.464 E32.38211
G1 X110.815 Y74.535 E33.07703
G1 X111.8 Y74.535 E33.12617
G1 X111.8 Y104.695 E34.63086
G1 X110.815 Y104.695 E34.68
G1 X110.815 Y91.126 E35.35696
G0 F5400 X110.615 Y91.126
G0 X111.01 Y90.336
;TYPE:SKIN
G1 F1800 X108.99 Y90.336 E35.45774
G1 X108.99 Y89.254 E35.51172
G1 X111.01 Y89.254 E35.6125
G1 X111.01 Y90.336 E35.66648
G0 F5400 X110.829 Y89.989
G1 F1800 X110.662 Y90.156 E35.67826
G0 F5400 X110.096 Y90.156
G1 F1800 X110.818 Y89.434 E35.72921
G0 F5400 X110.252 Y89.434
G1 F1800 X109.53 Y90.156 E35.78015
G0 F5400 X109.169 Y89.951
G1 F1800 X109.687 Y89.434 E35.81666
;MESH:NONMESH
G0 F600 X109.687 Y89.434 Z0.9
G0 F5400 X111.285 Y90.656
G0 X111.215 Y90.726
;TIME_ELAPSED:29.931071
;LAYER:2
;TYPE:WALL-INNER
;MESH:clip2.1.stl
G1 F3600 X108.785 Y90.726 E35.93789
G1 X108.785 Y104.295 E36.61485
G1 X108.6 Y104.295 E36.62408
G1 X108.6 Y90.726 E36.93718
G1 X108.6 Y88.864 E37.03007
G1 X108.6 Y74.935 E37.72499
G1 X108.785 Y74.935 E37.73422
G1 X108.785 Y88.864 E38.05562
G1 X111.215 Y88.864 E38.17686
G1 X111.215 Y74.935 E38.87178
G1 X111.4 Y74.935 E38.88101
G1 X111.4 Y88.864 E39.20241
G1 X111.4 Y90.726 E39.2953
G1 X111.4 Y104.295 E39.97226
G1 X111.215 Y104.295 E39.98149
G1 X111.215 Y90.726 E40.29459
G0 F7200 X110.815 Y91.126
;TYPE:WALL-OUTER
G1 F1800 X109.185 Y91.126 E40.37591
G1 X109.185 Y104.695 E41.05287
G1 X108.2 Y104.695 E41.10201
G1 X108.2 Y74.535 E42.6067
G1 X109.185 Y74.535 E42.65584
G1 X109.185 Y88.464 E43.35076
G1 X110.815 Y88.464 E43.43208
G1 X110.815 Y74.535 E44.127
G1 X111.8 Y74.535 E44.17614
G1 X111.8 Y104.695 E45.68083
G1 X110.815 Y104.695 E45.72997
G1 X110.815 Y91.126 E46.40693
G0 F7200 X110.615 Y91.126
G0 X111.01 Y90.336
;TYPE:SKIN
G1 F1800 X108.99 Y90.336 E46.50771
G1 X108.99 Y89.254 E46.56169
G1 X111.01 Y89.254 E46.66247
G1 X111.01 Y90.336 E46.71645
G0 F7200 X110.829 Y89.899
G1 F1800 X110.364 Y89.434 E46.74926
G0 F7200 X109.798 Y89.434
G1 F1800 X110.52 Y90.156 E46.8002
G0 F7200 X109.955 Y90.156
G1 F1800 X109.233 Y89.434 E46.85114
G0 F7200 X109.168 Y89.935
G1 F1800 X109.389 Y90.156 E46.86674
;MESH:NONMESH
G0 F600 X109.389 Y90.156 Z1.2
G0 F7200 X111.285 Y90.656
G0 X111.215 Y90.726
;TIME_ELAPSED:36.705822
;LAYER:3
;TYPE:WALL-INNER
;MESH:clip2.1.stl
G1 F3600 X108.785 Y90.726 E46.98797
G1 X108.785 Y104.295 E47.66493
G1 X108.6 Y104.295 E47.67416
G1 X108.6 Y90.726 E47.98725
G1 X108.6 Y88.864 E48.08015
G1 X108.6 Y74.935 E48.77507
G1 X108.785 Y74.935 E48.7843
G1 X108.785 Y88.864 E49.1057
G1 X111.215 Y88.864 E49.22693
G1 X111.215 Y74.935 E49.92185
G1 X111.4 Y74.935 E49.93108
G1 X111.4 Y88.864 E50.25248
G1 X111.4 Y90.726 E50.34538
G1 X111.4 Y104.295 E51.02234
G1 X111.215 Y104.295 E51.03157
G1 X111.215 Y90.726 E51.34466
G0 F7200 X110.815 Y91.126
;TYPE:WALL-OUTER
G1 F1800 X109.185 Y91.126 E51.42598
G1 X109.185 Y104.695 E52.10294
G1 X108.2 Y104.695 E52.15209
G1 X108.2 Y74.535 E53.65678
G1 X109.185 Y74.535 E53.70592
G1 X109.185 Y88.464 E54.40084
G1 X110.815 Y88.464 E54.48216
G1 X110.815 Y74.535 E55.17708
G1 X111.8 Y74.535 E55.22622
G1 X111.8 Y104.695 E56.73091
G1 X110.815 Y104.695 E56.78005
G1 X110.815 Y91.126 E57.45701
G0 F7200 X110.615 Y91.126
G0 X110.615 Y90.326
;MESH:NONMESH
G0 F600 X110.615 Y90.326 Z1.5
G0 F7200 X111.215 Y90.726
;TIME_ELAPSED:43.052730
;LAYER:4
;TYPE:WALL-INNER
;MESH:clip2.1.stl
G1 F3600 X108.785 Y90.726 E57.57825
G1 X108.785 Y104.295 E58.25521
G1 X108.6 Y104.295 E58.26443
G1 X108.6 Y90.726 E58.57753
G1 X108.6 Y88.864 E58.67042
G1 X108.6 Y74.935 E59.36535
G1 X108.785 Y74.935 E59.37457
G1 X108.785 Y88.864 E59.69598
G1 X111.215 Y88.864 E59.81721
G1 X111.215 Y74.935 E60.51213
G1 X111.4 Y74.935 E60.52136
G1 X111.4 Y88.864 E60.84276
G1 X111.4 Y90.726 E60.93566
G1 X111.4 Y104.295 E61.61262
G1 X111.215 Y104.295 E61.62185
G1 X111.215 Y90.726 E61.93494
G0 F7200 X110.815 Y91.126
;TYPE:WALL-OUTER
G1 F1800 X109.185 Y91.126 E62.01626
G1 X109.185 Y104.695 E62.69322
G1 X108.2 Y104.695 E62.74236
G1 X108.2 Y74.535 E64.24705
G1 X109.185 Y74.535 E64.29619
G1 X109.185 Y88.464 E64.99111
G1 X110.815 Y88.464 E65.07243
G1 X110.815 Y74.535 E65.76736
G1 X111.8 Y74.535 E65.8165
G1 X111.8 Y104.695 E67.32119
G1 X110.815 Y104.695 E67.37033
G1 X110.815 Y91.126 E68.04729
G0 F7200 X110.615 Y91.126
G0 X110.615 Y90.326
;MESH:NONMESH
G0 F600 X110.615 Y90.326 Z1.8
G0 F7200 X111.215 Y90.726
;TIME_ELAPSED:49.399639
;LAYER:5
;TYPE:WALL-INNER
;MESH:clip2.1.stl
G1 F3600 X108.785 Y90.726 E68.16852
G1 X108.785 Y104.295 E68.84548
G1 X108.6 Y104.295 E68.85471
G1 X108.6 Y90.726 E69.1678
G1 X108.6 Y88.864 E69.2607
G1 X108.6 Y74.935 E69.95562
G1 X108.785 Y74.935 E69.96485
G1 X108.785 Y88.864 E70.28625
G1 X111.215 Y88.864 E70.40748
G1 X111.215 Y74.935 E71.10241
G1 X111.4 Y74.935 E71.11163
G1 X111.4 Y88.864 E71.43304
G1 X111.4 Y90.726 E71.52593
G1 X111.4 Y104.295 E72.20289
G1 X111.215 Y104.295 E72.21212
G1 X111.215 Y90.726 E72.52522
G0 F7200 X110.815 Y91.126
;TYPE:WALL-OUTER
G1 F1800 X109.185 Y91.126 E72.60654
G1 X109.185 Y104.695 E73.2835
G1 X108.2 Y104.695 E73.33264
G1 X108.2 Y74.535 E74.83733
G1 X109.185 Y74.535 E74.88647
G1 X109.185 Y88.464 E75.58139
G1 X110.815 Y88.464 E75.66271
G1 X110.815 Y74.535 E76.35763
G1 X111.8 Y74.535 E76.40677
G1 X111.8 Y104.695 E77.91146
G1 X110.815 Y104.695 E77.9606
G1 X110.815 Y91.126 E78.63756
G0 F7200 X110.615 Y91.126
G0 X110.615 Y90.326
;MESH:NONMESH
G0 F600 X110.615 Y90.326 Z2.1
G0 F7200 X111.215 Y90.726
;TIME_ELAPSED:55.746548
;LAYER:6
;TYPE:WALL-INNER
;MESH:clip2.1.stl
G1 F3600 X108.785 Y90.726 E78.7588
G1 X108.785 Y104.295 E79.43576
G1 X108.6 Y104.295 E79.44499
G1 X108.6 Y90.726 E79.75808
G1 X108.6 Y88.864 E79.85098
G1 X108.6 Y74.935 E80.5459
G1 X108.785 Y74.935 E80.55513
G1 X108.785 Y88.864 E80.87653
G1 X111.215 Y88.864 E80.99776
G1 X111.215 Y74.935 E81.69268
G1 X111.4 Y74.935 E81.70191
G1 X111.4 Y88.864 E82.02331
G1 X111.4 Y90.726 E82.11621
G1 X111.4 Y104.295 E82.79317
G1 X111.215 Y104.295 E82.8024
G1 X111.215 Y90.726 E83.11549
G0 F7200 X110.815 Y91.126
;TYPE:WALL-OUTER
G1 F1800 X109.185 Y91.126 E83.19681
G1 X109.185 Y104.695 E83.87377
G1 X108.2 Y104.695 E83.92291
G1 X108.2 Y74.535 E85.4276
G1 X109.185 Y74.535 E85.47674
G1 X109.185 Y88.464 E86.17166
G1 X110.815 Y88.464 E86.25299
G1 X110.815 Y74.535 E86.94791
G1 X111.8 Y74.535 E86.99705
G1 X111.8 Y104.695 E88.50174
G1 X110.815 Y104.695 E88.55088
G1 X110.815 Y91.126 E89.22784
G0 F7200 X110.615 Y91.126
G0 X110.615 Y90.326
;MESH:NONMESH
G0 F600 X110.615 Y90.326 Z2.4
G0 F7200 X111.215 Y90.726
;TIME_ELAPSED:62.093456
;LAYER:7
;TYPE:WALL-INNER
;MESH:clip2.1.stl
G1 F3600 X108.785 Y90.726 E89.34907
G1 X108.785 Y104.295 E90.02603
G1 X108.6 Y104.295 E90.03526
G1 X108.6 Y90.726 E90.34836
G1 X108.6 Y88.864 E90.44125
G1 X108.6 Y74.935 E91.13617
G1 X108.785 Y74.935 E91.1454
G1 X108.785 Y88.864 E91.4668
G1 X111.215 Y88.864 E91.58804
G1 X111.215 Y74.935 E92.28296
G1 X111.4 Y74.935 E92.29219
G1 X111.4 Y88.864 E92.61359
G1 X111.4 Y90.726 E92.70648
G1 X111.4 Y104.295 E93.38344
G1 X111.215 Y104.295 E93.39267
G1 X111.215 Y90.726 E93.70577
G0 F7200 X110.815 Y91.126
;TYPE:WALL-OUTER
G1 F1800 X109.185 Y91.126 E93.78709
G1 X109.185 Y104.695 E94.46405
G1 X108.2 Y104.695 E94.51319
G1 X108.2 Y74.535 E96.01788
G1 X109.185 Y74.535 E96.06702
G1 X109.185 Y88.464 E96.76194
G1 X110.815 Y88.464 E96.84326
G1 X110.815 Y74.535 E97.53818
G1 X111.8 Y74.535 E97.58732
G1 X111.8 Y104.695 E99.09201
G1 X110.815 Y104.695 E99.14115
G1 X110.815 Y91.126 E99.81811
G0 F7200 X110.615 Y91.126
G0 X110.615 Y90.326
;MESH:NONMESH
G0 F600 X110.615 Y90.326 Z2.7
G0 F7200 X111.215 Y90.726
;TIME_ELAPSED:68.440365
;LAYER:8
;TYPE:WALL-INNER
;MESH:clip2.1.stl
G1 F3600 X108.785 Y90.726 E99.93935
G1 X108.785 Y104.295 E100.61631
G1 X108.6 Y104.295 E100.62554
G1 X108.6 Y90.726 E100.93863
G1 X108.6 Y88.864 E101.03153
G1 X108.6 Y74.935 E101.72645
G1 X108.785 Y74.935 E101.73568
G1 X108.785 Y88.864 E102.05708
G1 X111.215 Y88.864 E102.17831
G1 X111.215 Y74.935 E102.87323
G1 X111.4 Y74.935 E102.88246
G1 X111.4 Y88.864 E103.20386
G1 X111.4 Y90.726 E103.29676
G1 X111.4 Y104.295 E103.97372
G1 X111.215 Y104.295 E103.98295
G1 X111.215 Y90.726 E104.29604
G0 F7200 X110.815 Y91.126
;TYPE:WALL-OUTER
G1 F1800 X109.185 Y91.126 E104.37736
G1 X109.185 Y104.695 E105.05432
G1 X108.2 Y104.695 E105.10346
G1 X108.2 Y74.535 E106.60815
G1 X109.185 Y74.535 E106.6573
G1 X109.185 Y88.464 E107.35222
G1 X110.815 Y88.464 E107.43354
G1 X110.815 Y74.535 E108.12846
G1 X111.8 Y74.535 E108.1776
G1 X111.8 Y104.695 E109.68229
G1 X110.815 Y104.695 E109.73143
G1 X110.815 Y91.126 E110.40839
G0 F7200 X110.615 Y91.126
G0 X110.615 Y90.326
;MESH:NONMESH
G0 F600 X110.615 Y90.326 Z3
G0 F7200 X111.215 Y90.726
