;FLAVOR:Marlin
;TIME:1725
;Filament used: 2.55504m
;Layer height: 0.3
;MINX:76.4
;MINY:96.28
;MINZ:0.3
;MAXX:143.6
;MAXY:133.48
;MAXZ:6
;Generated with Cura_SteamEngine 4.5.0
M140 S60
M105
M190 S60
M104 S200
M105
M109 S200
M82 ;absolute extrusion mode
G28 ;Home
G1 Z15.0 F6000 ;Move the platform down 15mm
;Prime the extruder
G92 E0
G1 F200 E3
G92 E0
G92 E0
G92 E0
G1 F1500 E-6.5
;LAYER_COUNT:20
;LAYER:0
M107
G0 F3600 X77.794 Y97.051 Z0.3
;TYPE:SKIRT
G1 F1500 E0
G1 F1800 X78.241 Y96.753 E0.0268
G1 X78.726 Y96.525 E0.05354
G1 X79.24 Y96.372 E0.08029
G1 X79.908 Y96.29 E0.11387
G1 X139.345 Y96.28 E3.0792
G1 X140.043 Y96.29 E3.11402
G1 X140.577 Y96.338 E3.14077
G1 X141.098 Y96.464 E3.16751
G1 X141.595 Y96.667 E3.1943
G1 X142.056 Y96.941 E3.22105
G1 X142.471 Y97.28 E3.24779
G1 X142.831 Y97.678 E3.27456
G1 X143.128 Y98.124 E3.30129
G1 X143.356 Y98.61 E3.32808
G1 X143.508 Y99.124 E3.35482
G1 X143.59 Y99.789 E3.38825
G1 X143.6 Y129.189 E4.85502
G1 X143.591 Y129.916 E4.89129
G1 X143.544 Y130.45 E4.91804
G1 X143.419 Y130.971 E4.94477
G1 X143.217 Y131.468 E4.97153
G1 X142.944 Y131.93 E4.9983
G1 X142.606 Y132.346 E5.02505
G1 X142.209 Y132.707 E5.05182
G1 X141.763 Y133.005 E5.07858
G1 X141.278 Y133.233 E5.10531
G1 X140.764 Y133.387 E5.13208
G1 X140.092 Y133.47 E5.16586
G1 X80.661 Y133.48 E8.13089
G1 X79.963 Y133.471 E8.16572
G1 X79.428 Y133.424 E8.19251
G1 X78.907 Y133.298 E8.21925
G1 X78.41 Y133.096 E8.24602
G1 X77.949 Y132.823 E8.27275
G1 X77.533 Y132.484 E8.29952
G1 X77.172 Y132.088 E8.32625
G1 X76.874 Y131.642 E8.35301
G1 X76.646 Y131.156 E8.3798
G1 X76.493 Y130.642 E8.40655
G1 X76.41 Y129.968 E8.44043
G1 X76.4 Y100.505 E9.91035
G1 X76.409 Y99.84 E9.94353
G1 X76.457 Y99.306 E9.97028
G1 X76.583 Y98.785 E9.99702
G1 X76.785 Y98.288 E10.02378
G1 X77.058 Y97.827 E10.05051
G1 X77.397 Y97.411 E10.07729
G1 X77.794 Y97.051 E10.10402
G0 F3600 X78.18 Y97.263
G1 F1800 X78.617 Y97.008 E10.12926
G1 X79.088 Y96.824 E10.15449
G1 X79.582 Y96.718 E10.1797
G1 X80.24 Y96.681 E10.21258
G1 X139.339 Y96.68 E13.16104
G1 X140.037 Y96.69 E13.19587
G1 X140.54 Y96.737 E13.22107
G1 X141.03 Y96.863 E13.24631
G1 X141.494 Y97.065 E13.27156
G1 X141.92 Y97.337 E13.29678
G1 X142.298 Y97.672 E13.32197
G1 X142.618 Y98.063 E13.34718
G1 X142.873 Y98.5 E13.37242
G1 X143.056 Y98.971 E13.39763
G1 X143.163 Y99.465 E13.42285
G1 X143.199 Y100.12 E13.45558
G1 X143.2 Y129.184 E14.90559
G1 X143.191 Y129.911 E14.94186
G1 X143.145 Y130.414 E14.96706
G1 X143.02 Y130.904 E14.99229
G1 X142.819 Y131.368 E15.01752
G1 X142.548 Y131.795 E15.04275
G1 X142.213 Y132.174 E15.06798
G1 X141.823 Y132.495 E15.09318
G1 X141.387 Y132.751 E15.11841
G1 X140.916 Y132.934 E15.14362
G1 X140.422 Y133.042 E15.16885
G1 X139.76 Y133.079 E15.20193
G1 X80.666 Y133.08 E18.15014
G1 X79.968 Y133.071 E18.18496
G1 X79.464 Y133.024 E18.21022
G1 X78.974 Y132.899 E18.23545
G1 X78.51 Y132.698 E18.26067
G1 X78.084 Y132.427 E18.28586
G1 X77.705 Y132.092 E18.3111
G1 X77.384 Y131.701 E18.33634
G1 X77.129 Y131.265 E18.36154
G1 X76.945 Y130.794 E18.38677
G1 X76.838 Y130.3 E18.41198
G1 X76.801 Y129.624 E18.44576
G1 X76.8 Y100.511 E19.89821
G1 X76.809 Y99.846 E19.93139
G1 X76.856 Y99.342 E19.95665
G1 X76.982 Y98.853 E19.98184
G1 X77.183 Y98.389 E20.00707
G1 X77.454 Y97.962 E20.0323
G1 X77.789 Y97.584 E20.0575
G1 X78.18 Y97.263 E20.08274
G1 F1500 E13.58274
;MESH:clip1.5.stl
G0 F3600 X80.614 Y99.215
G0 X80.614 Y100.494
G0 X80.67 Y129.21
G0 X80.6 Y129.28
;TYPE:WALL-INNER
G1 F1500 E20.08274
G1 F1800 X80.6 Y100.48 E21.51957
G1 X139.4 Y100.48 E24.45312
G1 X139.4 Y129.28 E25.88996
G1 X80.6 Y129.28 E28.8235
G0 F3600 X80.2 Y129.68
;TYPE:WALL-OUTER
G1 F1800 X80.2 Y100.08 E30.30025
G1 X139.8 Y100.08 E33.27371
G1 X139.8 Y129.68 E34.75046
G1 X80.2 Y129.68 E37.72391
G0 F3600 X80.2 Y129.48
G0 X80.99 Y128.89
;TYPE:SKIN
G1 F1800 X80.99 Y100.87 E39.12183
G1 X139.01 Y100.87 E42.01646
G1 X139.01 Y128.89 E43.41439
G1 X80.99 Y128.89 E46.30902
G0 F3600 X81.757 Y128.708
G1 F1800 X81.169 Y128.121 E46.35047
G0 F3600 X81.169 Y127.555
G1 F1800 X82.322 Y128.708 E46.43182
G0 F3600 X82.888 Y128.708
G1 F1800 X81.169 Y126.99 E46.55307
G0 F3600 X81.169 Y126.424
G1 F1800 X83.454 Y128.708 E46.71425
G0 F3600 X84.019 Y128.708
G1 F1800 X81.169 Y125.858 E46.91534
G0 F3600 X81.169 Y125.292
G1 F1800 X84.585 Y128.708 E47.15635
G0 F3600 X85.151 Y128.708
G1 F1800 X81.169 Y124.727 E47.43727
G0 F3600 X81.169 Y124.161
G1 F1800 X85.716 Y128.708 E47.75808
G0 F3600 X86.282 Y128.708
G1 F1800 X81.169 Y123.595 E48.11883
G0 F3600 X81.169 Y123.03
G1 F1800 X86.848 Y128.708 E48.51948
G0 F3600 X87.413 Y128.708
G1 F1800 X81.169 Y122.464 E48.96003
G0 F3600 X81.169 Y121.898
G1 F1800 X87.979 Y128.708 E49.44051
G0 F3600 X88.545 Y128.708
G1 F1800 X81.169 Y121.333 E49.96089
G0 F3600 X81.169 Y120.767
G1 F1800 X89.111 Y128.708 E50.52121
G0 F3600 X89.676 Y128.708
G1 F1800 X81.169 Y120.201 E51.12142
G0 F3600 X81.169 Y119.636
G1 F1800 X90.242 Y128.708 E51.76154
G0 F3600 X90.808 Y128.708
G1 F1800 X81.169 Y119.07 E52.44159
G0 F3600 X81.169 Y118.504
G1 F1800 X91.373 Y128.708 E53.16153
G0 F3600 X91.939 Y128.708
G1 F1800 X81.169 Y117.939 E53.92138
G0 F3600 X81.169 Y117.373
G1 F1800 X92.505 Y128.708 E54.72116
G0 F3600 X93.07 Y128.708
G1 F1800 X81.169 Y116.807 E55.56084
G0 F3600 X81.169 Y116.241
G1 F1800 X93.636 Y128.708 E56.44046
G0 F3600 X94.202 Y128.708
G1 F1800 X81.169 Y115.676 E57.35997
G0 F3600 X81.169 Y115.11
G1 F1800 X94.767 Y128.708 E58.31938
G0 F3600 X95.333 Y128.708
G1 F1800 X81.169 Y114.544 E59.31873
G0 F3600 X81.169 Y113.979
G1 F1800 X95.899 Y128.708 E60.35797
G0 F3600 X96.464 Y128.708
G1 F1800 X81.169 Y113.413 E61.43712
G0 F3600 X81.169 Y112.847
G1 F1800 X97.03 Y128.708 E62.5562
G0 F3600 X97.596 Y128.708
G1 F1800 X81.169 Y112.282 E63.71518
G0 F3600 X81.169 Y111.716
G1 F1800 X98.161 Y128.708 E64.91405
G0 F3600 X98.727 Y128.708
G1 F1800 X81.169 Y111.15 E66.15286
G0 F3600 X81.169 Y110.585
G1 F1800 X99.293 Y128.708 E67.43158
G0 F3600 X99.859 Y128.708
G1 F1800 X81.169 Y110.019 E68.75022
G0 F3600 X81.169 Y109.453
G1 F1800 X100.424 Y128.708 E70.10877
G0 F3600 X100.99 Y128.708
G1 F1800 X81.169 Y108.888 E71.50721
G0 F3600 X81.169 Y108.322
G1 F1800 X101.556 Y128.708 E72.94559
G0 F3600 X102.121 Y128.708
G1 F1800 X81.169 Y107.756 E74.42386
G0 F3600 X81.169 Y107.191
G1 F1800 X102.687 Y128.708 E75.94204
G0 F3600 X103.253 Y128.708
G1 F1800 X81.169 Y106.625 E77.50015
G0 F3600 X81.169 Y106.059
G1 F1800 X103.818 Y128.708 E79.09816
G0 F3600 X104.384 Y128.708
G1 F1800 X81.169 Y105.493 E80.7361
G0 F3600 X81.169 Y104.928
G1 F1800 X104.95 Y128.708 E82.41394
G0 F3600 X105.515 Y128.708
G1 F1800 X81.169 Y104.362 E84.13169
G0 F3600 X81.169 Y103.796
G1 F1800 X106.081 Y128.708 E85.88936
G0 F3600 X106.647 Y128.708
G1 F1800 X81.169 Y103.231 E87.68694
G0 F3600 X81.169 Y102.665
G1 F1800 X107.212 Y128.708 E89.52441
G0 F3600 X107.778 Y128.708
G1 F1800 X81.169 Y102.099 E91.40182
G0 F3600 X81.169 Y101.534
G1 F1800 X108.344 Y128.708 E93.31913
G0 F3600 X108.91 Y128.708
G1 F1800 X81.25 Y101.049 E95.27066
G0 F3600 X81.816 Y101.049
G1 F1800 X109.475 Y128.708 E97.22215
G0 F3600 X110.042 Y128.709
G1 F1800 X82.382 Y101.049 E99.17371
G0 F3600 X82.947 Y101.049
G1 F1800 X110.607 Y128.709 E101.12527
G0 F3600 X111.173 Y128.709
G1 F1800 X83.513 Y101.049 E103.07683
G0 F3600 X84.079 Y101.049
G1 F1800 X111.739 Y128.709 E105.0284
G0 F3600 X112.304 Y128.709
G1 F1800 X84.644 Y101.049 E106.97996
G0 F3600 X85.21 Y101.049
G1 F1800 X112.87 Y128.709 E108.93152
G0 F3600 X113.436 Y128.709
G1 F1800 X85.776 Y101.049 E110.88308
G0 F3600 X86.341 Y101.049
G1 F1800 X114.001 Y128.709 E112.83465
G0 F3600 X114.567 Y128.709
G1 F1800 X86.907 Y101.049 E114.78621
G0 F3600 X87.473 Y101.049
G1 F1800 X115.133 Y128.709 E116.73777
G0 F3600 X115.698 Y128.709
G1 F1800 X88.039 Y101.049 E118.6893
G0 F3600 X88.604 Y101.049
G1 F1800 X116.264 Y128.709 E120.64086
G0 F3600 X116.83 Y128.709
G1 F1800 X89.17 Y101.049 E122.59242
G0 F3600 X89.736 Y101.049
G1 F1800 X117.395 Y128.709 E124.54395
G0 F3600 X117.961 Y128.709
G1 F1800 X90.301 Y101.049 E126.49551
G0 F3600 X90.867 Y101.049
G1 F1800 X118.527 Y128.709 E128.44708
G0 F3600 X119.093 Y128.709
G1 F1800 X91.433 Y101.049 E130.39864
G0 F3600 X91.998 Y101.049
G1 F1800 X119.658 Y128.709 E132.3502
G0 F3600 X120.224 Y128.709
G1 F1800 X92.564 Y101.049 E134.30176
G0 F3600 X93.13 Y101.049
G1 F1800 X120.79 Y128.709 E136.25332
G0 F3600 X121.355 Y128.709
G1 F1800 X93.695 Y101.049 E138.20489
G0 F3600 X94.261 Y101.049
G1 F1800 X121.921 Y128.709 E140.15645
G0 F3600 X122.487 Y128.709
G1 F1800 X94.827 Y101.049 E142.10801
G0 F3600 X95.392 Y101.049
G1 F1800 X123.052 Y128.709 E144.05957
G0 F3600 X123.618 Y128.709
G1 F1800 X95.958 Y101.049 E146.01114
G0 F3600 X96.524 Y101.049
G1 F1800 X124.184 Y128.709 E147.9627
G0 F3600 X124.749 Y128.709
G1 F1800 X97.09 Y101.049 E149.91423
G0 F3600 X97.655 Y101.049
G1 F1800 X125.315 Y128.709 E151.86579
G0 F3600 X125.881 Y128.709
G1 F1800 X98.221 Y101.049 E153.81735
G0 F3600 X98.787 Y101.049
G1 F1800 X126.446 Y128.709 E155.76888
G0 F3600 X127.012 Y128.709
G1 F1800 X99.352 Y101.049 E157.72044
G0 F3600 X99.918 Y101.049
G1 F1800 X127.578 Y128.709 E159.672
G0 F3600 X128.144 Y128.709
G1 F1800 X100.484 Y101.049 E161.62357
G0 F3600 X101.049 Y101.049
G1 F1800 X128.709 Y128.709 E163.57513
G0 F3600 X129.275 Y128.709
G1 F1800 X101.615 Y101.049 E165.52669
G0 F3600 X102.181 Y101.049
G1 F1800 X129.841 Y128.709 E167.47825
G0 F3600 X130.406 Y128.709
G1 F1800 X102.746 Y101.049 E169.42981
G0 F3600 X103.312 Y101.049
G1 F1800 X130.972 Y128.709 E171.38138
G0 F3600 X131.538 Y128.709
G1 F1800 X103.878 Y101.049 E173.33294
G0 F3600 X104.443 Y101.049
G1 F1800 X132.103 Y128.709 E175.2845
G0 F3600 X132.669 Y128.709
G1 F1800 X105.009 Y101.049 E177.23606
G0 F3600 X105.575 Y101.049
G1 F1800 X133.235 Y128.709 E179.18763
G0 F3600 X133.8 Y128.709
G1 F1800 X106.14 Y101.049 E181.13919
G0 F3600 X106.706 Y101.049
G1 F1800 X134.366 Y128.709 E183.09075
G0 F3600 X134.932 Y128.709
G1 F1800 X107.272 Y101.049 E185.04231
G0 F3600 X107.838 Y101.049
G1 F1800 X135.497 Y128.709 E186.99384
G0 F3600 X136.063 Y128.709
G1 F1800 X108.403 Y101.049 E188.9454
G0 F3600 X108.969 Y101.049
G1 F1800 X136.629 Y128.709 E190.89697
G0 F3600 X137.194 Y128.709
G1 F1800 X109.535 Y101.049 E192.84849
G0 F3600 X110.1 Y101.049
G1 F1800 X137.76 Y128.709 E194.80006
G0 F3600 X138.326 Y128.709
G1 F1800 X110.666 Y101.049 E196.75162
G0 F3600 X111.232 Y101.049
G1 F1800 X138.829 Y128.646 E198.69874
G0 F3600 X138.829 Y128.081
G1 F1800 X111.797 Y101.049 E200.60599
G0 F3600 X112.363 Y101.049
G1 F1800 X138.829 Y127.515 E202.47331
G0 F3600 X138.829 Y126.949
G1 F1800 X112.929 Y101.049 E204.30069
G0 F3600 X113.494 Y101.049
G1 F1800 X138.829 Y126.384 E206.08821
G0 F3600 X138.829 Y125.818
G1 F1800 X114.06 Y101.049 E207.8358
G0 F3600 X114.626 Y101.049
G1 F1800 X138.829 Y125.252 E209.54345
G0 F3600 X138.829 Y124.686
G1 F1800 X115.191 Y101.049 E211.21121
G0 F3600 X115.757 Y101.049
G1 F1800 X138.829 Y124.121 E212.83906
G0 F3600 X138.829 Y123.555
G1 F1800 X116.323 Y101.049 E214.42698
G0 F3600 X116.888 Y101.049
G1 F1800 X138.829 Y122.989 E215.975
G0 F3600 X138.829 Y122.424
G1 F1800 X117.454 Y101.049 E217.48312
G0 F3600 X118.02 Y101.049
G1 F1800 X138.829 Y121.858 E218.95131
G0 F3600 X138.829 Y121.292
G1 F1800 X118.586 Y101.049 E220.37956
G0 F3600 X119.151 Y101.049
G1 F1800 X138.829 Y120.727 E221.76795
G0 F3600 X138.829 Y120.161
G1 F1800 X119.717 Y101.049 E223.11641
G0 F3600 X120.283 Y101.049
G1 F1800 X138.829 Y119.595 E224.42493
G0 F3600 X138.829 Y119.03
G1 F1800 X120.848 Y101.049 E225.69358
G0 F3600 X121.414 Y101.049
G1 F1800 X138.829 Y118.464 E226.92231
G0 F3600 X138.829 Y117.898
G1 F1800 X121.98 Y101.049 E228.11109
G0 F3600 X122.545 Y101.049
G1 F1800 X138.829 Y117.333 E229.26002
G0 F3600 X138.829 Y116.767
G1 F1800 X123.111 Y101.049 E230.36901
G0 F3600 X123.677 Y101.049
G1 F1800 X138.829 Y116.201 E231.43806
G0 F3600 X138.829 Y115.636
G1 F1800 X124.242 Y101.049 E232.46726
G0 F3600 X124.808 Y101.049
G1 F1800 X138.829 Y115.07 E233.45651
G0 F3600 X138.829 Y114.504
G1 F1800 X125.374 Y101.049 E234.40584
G0 F3600 X125.939 Y101.049
G1 F1800 X138.829 Y113.938 E235.31526
G0 F3600 X138.829 Y113.373
G1 F1800 X126.505 Y101.049 E236.18478
G0 F3600 X127.071 Y101.049
G1 F1800 X138.829 Y112.807 E237.01438
G0 F3600 X138.829 Y112.241
G1 F1800 X127.637 Y101.049 E237.80403
G0 F3600 X128.202 Y101.049
G1 F1800 X138.829 Y111.676 E238.55382
G0 F3600 X138.829 Y111.11
G1 F1800 X128.768 Y101.049 E239.26368
G0 F3600 X129.334 Y101.049
G1 F1800 X138.829 Y110.544 E239.9336
G0 F3600 X138.829 Y109.979
G1 F1800 X129.899 Y101.049 E240.56366
G0 F3600 X130.465 Y101.049
G1 F1800 X138.829 Y109.413 E241.15379
G0 F3600 X138.829 Y108.847
G1 F1800 X131.031 Y101.049 E241.70398
G0 F3600 X131.596 Y101.049
G1 F1800 X138.829 Y108.282 E242.21431
G0 F3600 X138.829 Y107.716
G1 F1800 X132.162 Y101.049 E242.6847
G0 F3600 X132.728 Y101.049
G1 F1800 X138.829 Y107.15 E243.11516
G0 F3600 X138.829 Y106.585
G1 F1800 X133.293 Y101.049 E243.50575
G0 F3600 X133.859 Y101.049
G1 F1800 X138.829 Y106.019 E243.85641
G0 F3600 X138.829 Y105.453
G1 F1800 X134.425 Y101.049 E244.16714
G0 F3600 X134.99 Y101.049
G1 F1800 X138.829 Y104.887 E244.43797
G0 F3600 X138.829 Y104.322
G1 F1800 X135.556 Y101.049 E244.6689
G0 F3600 X136.122 Y101.049
G1 F1800 X138.829 Y103.756 E244.85989
G0 F3600 X138.829 Y103.19
G1 F1800 X136.687 Y101.049 E245.01098
G0 F3600 X137.253 Y101.049
G1 F1800 X138.829 Y102.625 E245.12218
G0 F3600 X138.829 Y102.059
G1 F1800 X137.819 Y101.049 E245.19344
G0 F3600 X138.385 Y101.049
G1 F1800 X138.829 Y101.493 E245.22477
;MESH:NONMESH
G0 F600 X138.829 Y101.493 Z0.6
G0 F3600 X80.67 Y129.21
G0 X80.6 Y129.28
;TIME_ELAPSED:172.840413
;LAYER:1
M140 S60
M106 S255
;TYPE:WALL-INNER
;MESH:clip1.5.stl
G1 F2700 X80.6 Y100.48 E246.6616
G1 X139.4 Y100.48 E249.59515
G1 X139.4 Y129.28 E251.03199
G1 X80.6 Y129.28 E253.96553
G0 F5400 X80.2 Y129.68
;TYPE:WALL-OUTER
G1 F1800 X80.2 Y100.08 E255.44228
G1 X139.8 Y100.08 E258.41574
G1 X139.8 Y129.68 E259.89249
G1 X80.2 Y129.68 E262.86594
G0 F5400 X80.2 Y129.48
G0 X80.99 Y128.89
;TYPE:SKIN
G1 F1800 X80.99 Y100.87 E264.26387
G1 X139.01 Y100.87 E267.15849
G1 X139.01 Y128.89 E268.55642
G1 X80.99 Y128.89 E271.45105
G0 F5400 X81.17 Y101.546
G1 F1800 X81.667 Y101.049 E271.48611
G0 F5400 X82.232 Y101.049
G1 F1800 X81.17 Y102.111 E271.56104
G0 F5400 X81.17 Y102.677
G1 F1800 X82.798 Y101.049 E271.67591
G0 F5400 X83.364 Y101.049
G1 F1800 X81.17 Y103.243 E271.83071
G0 F5400 X81.17 Y103.808
G1 F1800 X83.93 Y101.049 E272.0254
G0 F5400 X84.495 Y101.049
G1 F1800 X81.17 Y104.374 E272.26
G0 F5400 X81.17 Y104.94
G1 F1800 X85.061 Y101.049 E272.53453
G0 F5400 X85.627 Y101.049
G1 F1800 X81.17 Y105.505 E272.84896
G0 F5400 X81.17 Y106.071
G1 F1800 X86.192 Y101.049 E273.20329
G0 F5400 X86.758 Y101.049
G1 F1800 X81.17 Y106.637 E273.59755
G0 F5400 X81.17 Y107.203
G1 F1800 X87.324 Y101.049 E274.03175
G0 F5400 X87.889 Y101.049
G1 F1800 X81.17 Y107.768 E274.50581
G0 F5400 X81.17 Y108.334
G1 F1800 X88.455 Y101.049 E275.01981
G0 F5400 X89.021 Y101.049
G1 F1800 X81.17 Y108.9 E275.57374
G0 F5400 X81.17 Y109.465
G1 F1800 X89.586 Y101.049 E276.16754
G0 F5400 X90.152 Y101.049
G1 F1800 X81.17 Y110.031 E276.80126
G0 F5400 X81.17 Y110.597
G1 F1800 X90.718 Y101.049 E277.47493
G0 F5400 X91.283 Y101.049
G1 F1800 X81.17 Y111.162 E278.18845
G0 F5400 X81.17 Y111.728
G1 F1800 X91.849 Y101.049 E278.94191
G0 F5400 X92.415 Y101.049
G1 F1800 X81.17 Y112.294 E279.73531
G0 F5400 X81.17 Y112.859
G1 F1800 X92.981 Y101.049 E280.5686
G0 F5400 X93.546 Y101.049
G1 F1800 X81.17 Y113.425 E281.4418
G0 F5400 X81.17 Y113.991
G1 F1800 X94.112 Y101.049 E282.35493
G0 F5400 X94.678 Y101.049
G1 F1800 X81.17 Y114.556 E283.30795
G0 F5400 X81.17 Y115.122
G1 F1800 X95.243 Y101.049 E284.30088
G0 F5400 X95.809 Y101.049
G1 F1800 X81.17 Y115.688 E285.33374
G0 F5400 X81.17 Y116.254
G1 F1800 X96.375 Y101.049 E286.40653
G0 F5400 X96.94 Y101.049
G1 F1800 X81.17 Y116.819 E287.51919
G0 F5400 X81.17 Y117.385
G1 F1800 X97.506 Y101.049 E288.67179
G0 F5400 X98.072 Y101.049
G1 F1800 X81.17 Y117.951 E289.86431
G0 F5400 X81.17 Y118.516
G1 F1800 X98.637 Y101.049 E291.09671
G0 F5400 X99.203 Y101.049
