;FLAVOR:Marlin
;TIME:1228
;Filament used: 2.32377m
;Layer height: 0.3
;MINX:103.4
;MINY:61.34
;MINZ:0.3
;MAXX:116.6
;MAXY:128.54
;MAXZ:30
;Generated with Cura_SteamEngine 4.5.0
M140 S60
M105
M190 S60
M104 S200
M105
M109 S200
M82 ;absolute extrusion mode
G28 ;Home
G1 Z15.0 F6000 ;Move the platform down 15mm
;Prime the extruder
G92 E0
G1 F200 E3
G92 E0
G92 E0
G92 E0
G1 F1500 E-6.5
;LAYER_COUNT:100
;LAYER:0
M107
G0 F3600 X104.058 Y62.887 Z0.3
;TYPE:SKIRT
G1 F1500 E0
G1 F1800 X104.397 Y62.471 E0.02677
G1 X104.794 Y62.111 E0.05351
G1 X105.241 Y61.813 E0.08031
G1 X105.726 Y61.585 E0.10705
G1 X106.24 Y61.432 E0.1338
G1 X106.908 Y61.35 E0.16738
G1 X108.495 Y61.34 E0.24656
G1 X110.433 Y61.347 E0.34325
G1 X112.279 Y61.34 E0.43534
G1 X113.043 Y61.35 E0.47346
G1 X113.577 Y61.398 E0.50021
G1 X114.098 Y61.524 E0.52696
G1 X114.595 Y61.727 E0.55374
G1 X115.056 Y62.001 E0.58049
G1 X115.471 Y62.34 E0.60723
G1 X115.831 Y62.738 E0.634
G1 X116.128 Y63.184 E0.66074
G1 X116.356 Y63.67 E0.68752
G1 X116.508 Y64.184 E0.71426
G1 X116.59 Y64.849 E0.74769
G1 X116.6 Y124.249 E3.71117
G1 X116.591 Y124.976 E3.74744
G1 X116.544 Y125.51 E3.77418
G1 X116.419 Y126.031 E3.80091
G1 X116.217 Y126.528 E3.82768
G1 X115.944 Y126.99 E3.85445
G1 X115.606 Y127.406 E3.88119
G1 X115.209 Y127.767 E3.90796
G1 X114.763 Y128.065 E3.93472
G1 X114.278 Y128.293 E3.96146
G1 X113.764 Y128.447 E3.98823
G1 X113.092 Y128.53 E4.02201
G1 X111.505 Y128.54 E4.10119
G1 X109.58 Y128.533 E4.19723
G1 X108.668 Y128.54 E4.24273
G1 X107.661 Y128.54 E4.29297
G1 X106.963 Y128.531 E4.3278
G1 X106.428 Y128.484 E4.35459
G1 X105.907 Y128.358 E4.38133
G1 X105.41 Y128.156 E4.4081
G1 X104.949 Y127.883 E4.43483
G1 X104.533 Y127.544 E4.4616
G1 X104.172 Y127.148 E4.48833
G1 X103.874 Y126.702 E4.51509
G1 X103.646 Y126.216 E4.54188
G1 X103.493 Y125.702 E4.56863
G1 X103.41 Y125.028 E4.60251
G1 X103.4 Y65.565 E7.56913
G1 X103.409 Y64.9 E7.60231
G1 X103.457 Y64.366 E7.62906
G1 X103.583 Y63.845 E7.6558
G1 X103.785 Y63.348 E7.68257
G1 X104.058 Y62.887 E7.7093
G0 F3600 X104.454 Y63.022
G1 F1800 X104.789 Y62.644 E7.7345
G1 X105.18 Y62.323 E7.75974
G1 X105.617 Y62.068 E7.78498
G1 X106.088 Y61.884 E7.81021
G1 X106.582 Y61.778 E7.83541
G1 X107.24 Y61.741 E7.86829
G1 X108.493 Y61.74 E7.93081
G1 X110.433 Y61.747 E8.02759
G1 X112.281 Y61.74 E8.11979
G1 X113.037 Y61.75 E8.15751
G1 X113.54 Y61.797 E8.18271
G1 X114.03 Y61.923 E8.20796
G1 X114.494 Y62.125 E8.2332
G1 X114.92 Y62.397 E8.25842
G1 X115.298 Y62.732 E8.28362
G1 X115.618 Y63.123 E8.30883
G1 X115.873 Y63.56 E8.33407
G1 X116.056 Y64.031 E8.35928
G1 X116.163 Y64.525 E8.3845
G1 X116.199 Y65.18 E8.41722
G1 X116.2 Y124.244 E11.36394
G1 X116.191 Y124.971 E11.40021
G1 X116.145 Y125.474 E11.42541
G1 X116.02 Y125.964 E11.45064
G1 X115.819 Y126.428 E11.47587
G1 X115.548 Y126.855 E11.5011
G1 X115.213 Y127.234 E11.52633
G1 X114.823 Y127.555 E11.55153
G1 X114.387 Y127.811 E11.57676
G1 X113.916 Y127.994 E11.60197
G1 X113.422 Y128.102 E11.6272
G1 X112.76 Y128.139 E11.66028
G1 X111.507 Y128.14 E11.72279
G1 X109.579 Y128.133 E11.81898
G1 X108.665 Y128.14 E11.86458
G1 X107.666 Y128.14 E11.91442
G1 X106.968 Y128.131 E11.94924
G1 X106.464 Y128.084 E11.9745
G1 X105.974 Y127.959 E11.99973
G1 X105.51 Y127.758 E12.02495
G1 X105.084 Y127.487 E12.05014
G1 X104.705 Y127.152 E12.07538
G1 X104.384 Y126.761 E12.10062
G1 X104.129 Y126.325 E12.12582
G1 X103.945 Y125.854 E12.15105
G1 X103.838 Y125.36 E12.17626
G1 X103.801 Y124.684 E12.21004
G1 X103.8 Y65.571 E15.1592
G1 X103.809 Y64.906 E15.19238
G1 X103.856 Y64.402 E15.21763
G1 X103.982 Y63.913 E15.24283
G1 X104.183 Y63.449 E15.26805
G1 X104.454 Y63.022 E15.29329
G1 F1500 E8.79329
;MESH:clip1.5.stl
G0 F3600 X106.335 Y65.554
G0 X107.614 Y65.554
G0 X108.372 Y89.058
G0 X111.67 Y101.27
G0 X111.6 Y101.34
;TYPE:WALL-INNER
G1 F1500 E15.29329
G1 F1800 X108.4 Y101.34 E15.45293
G1 X108.4 Y124.34 E16.60041
G1 X107.6 Y124.34 E16.64032
G1 X107.6 Y65.54 E19.57386
G1 X108.4 Y65.54 E19.61378
G1 X108.4 Y89.03 E20.7857
G1 X111.6 Y89.03 E20.94535
G1 X111.6 Y65.54 E22.11727
G1 X112.4 Y65.54 E22.15718
G1 X112.4 Y124.34 E25.09072
G1 X111.6 Y124.34 E25.13064
G1 X111.6 Y101.34 E26.27811
G0 F3600 X111.2 Y101.74
;TYPE:WALL-OUTER
G1 F1800 X108.8 Y101.74 E26.39785
G1 X108.8 Y124.74 E27.54532
G1 X107.2 Y124.74 E27.62515
G1 X107.2 Y65.14 E30.5986
G1 X108.8 Y65.14 E30.67843
G1 X108.8 Y88.63 E31.85035
G1 X111.2 Y88.63 E31.97008
G1 X111.2 Y65.14 E33.142
G1 X112.8 Y65.14 E33.22183
G1 X112.8 Y124.74 E36.19528
G1 X111.2 Y124.74 E36.27511
G1 X111.2 Y101.74 E37.42258
G0 F3600 X111 Y101.74
G0 X111 Y101.24
G0 X111.99 Y100.95
;TYPE:SKIN
G1 F1800 X108.01 Y100.95 E37.62115
G1 X108.01 Y123.95 E38.76862
G1 X107.99 Y123.95 E38.76962
G1 X107.99 Y65.93 E41.66425
G1 X108.01 Y65.93 E41.66525
G1 X108.01 Y89.42 E42.83717
G1 X111.99 Y89.42 E43.03573
G1 X111.99 Y65.93 E44.20765
G1 X112.01 Y65.93 E44.20865
G1 X112.01 Y123.95 E47.10328
G1 X111.99 Y123.95 E47.10428
G1 X111.99 Y100.95 E48.25175
G0 F3600 X108.689 Y100.769
G1 F1800 X108.168 Y100.249 E48.28847
G0 F3600 X108.168 Y99.683
G1 F1800 X109.255 Y100.769 E48.36513
G0 F3600 X109.82 Y100.769
G1 F1800 X108.168 Y99.117 E48.48169
G0 F3600 X108.168 Y98.552
G1 F1800 X110.386 Y100.769 E48.63815
G0 F3600 X110.952 Y100.769
G1 F1800 X108.168 Y97.986 E48.83454
G0 F3600 X108.168 Y97.42
G1 F1800 X111.517 Y100.769 E49.07083
G0 F3600 X111.828 Y100.515
G1 F1800 X108.168 Y96.855 E49.32906
G0 F3600 X108.168 Y96.289
G1 F1800 X111.828 Y99.949 E49.58729
G0 F3600 X111.828 Y99.383
G1 F1800 X108.168 Y95.723 E49.84553
G0 F3600 X108.168 Y95.158
G1 F1800 X111.828 Y98.818 E50.10376
G0 F3600 X111.828 Y98.252
G1 F1800 X108.168 Y94.592 E50.36199
G0 F3600 X108.168 Y94.026
G1 F1800 X111.828 Y97.686 E50.62022
G0 F3600 X111.828 Y97.121
G1 F1800 X108.168 Y93.461 E50.87846
G0 F3600 X108.168 Y92.895
G1 F1800 X111.828 Y96.555 E51.13669
G0 F3600 X111.828 Y95.989
G1 F1800 X108.168 Y92.329 E51.39492
G0 F3600 X108.168 Y91.764
G1 F1800 X111.828 Y95.424 E51.65316
G0 F3600 X111.828 Y94.858
G1 F1800 X108.168 Y91.198 E51.91139
G0 F3600 X108.168 Y90.632
G1 F1800 X111.828 Y94.292 E52.16962
G0 F3600 X111.828 Y93.727
G1 F1800 X108.168 Y90.067 E52.42785
G0 F3600 X108.267 Y89.6
G1 F1800 X111.828 Y93.161 E52.6791
G0 F3600 X111.828 Y92.595
G1 F1800 X108.833 Y89.6 E52.89042
G0 F3600 X109.399 Y89.6
G1 F1800 X111.828 Y92.029 E53.06179
G0 F3600 X111.828 Y91.464
G1 F1800 X109.965 Y89.6 E53.19327
G0 F3600 X110.53 Y89.6
G1 F1800 X111.828 Y90.898 E53.28486
G0 F3600 X111.828 Y90.332
G1 F1800 X111.096 Y89.6 E53.3365
G0 F3600 X111.662 Y89.6
G1 F1800 X111.828 Y89.767 E53.34825
;MESH:NONMESH
G0 F600 X111.828 Y89.767 Z0.6
G0 F3600 X111.67 Y101.27
G0 X111.6 Y101.34
;TIME_ELAPSED:41.506487
;LAYER:1
M140 S60
M106 S255
;TYPE:WALL-INNER
;MESH:clip1.5.stl
G1 F2700 X108.4 Y101.34 E53.5079
G1 X108.4 Y124.34 E54.65537
G1 X107.6 Y124.34 E54.69529
G1 X107.6 Y65.54 E57.62883
G1 X108.4 Y65.54 E57.66874
G1 X108.4 Y89.03 E58.84066
G1 X111.6 Y89.03 E59.00031
G1 X111.6 Y65.54 E60.17223
G1 X112.4 Y65.54 E60.21214
G1 X112.4 Y124.34 E63.14569
G1 X111.6 Y124.34 E63.1856
G1 X111.6 Y101.34 E64.33307
G0 F5400 X111.2 Y101.74
;TYPE:WALL-OUTER
G1 F1800 X108.8 Y101.74 E64.45281
G1 X108.8 Y124.74 E65.60029
G1 X107.2 Y124.74 E65.68011
G1 X107.2 Y65.14 E68.65357
G1 X108.8 Y65.14 E68.73339
G1 X108.8 Y88.63 E69.90531
G1 X111.2 Y88.63 E70.02505
G1 X111.2 Y65.14 E71.19697
G1 X112.8 Y65.14 E71.27679
G1 X112.8 Y124.74 E74.25025
G1 X111.2 Y124.74 E74.33007
G1 X111.2 Y101.74 E75.47755
G0 F5400 X111 Y101.74
G0 X111 Y101.24
G0 X111.99 Y100.95
;TYPE:SKIN
G1 F1800 X108.01 Y100.95 E75.67611
G1 X108.01 Y123.95 E76.82359
G1 X107.99 Y123.95 E76.82458
G1 X107.99 Y65.93 E79.71921
G1 X108.01 Y65.93 E79.72021
G1 X108.01 Y89.42 E80.89213
G1 X111.99 Y89.42 E81.09069
G1 X111.99 Y65.93 E82.26262
G1 X112.01 Y65.93 E82.26361
G1 X112.01 Y123.95 E85.15824
G1 X111.99 Y123.95 E85.15924
G1 X111.99 Y100.95 E86.30672
G0 F5400 X111.828 Y100.303
G1 F1800 X111.362 Y100.769 E86.33959
G0 F5400 X110.796 Y100.769
G1 F1800 X111.828 Y99.737 E86.41241
G0 F5400 X111.828 Y99.171
G1 F1800 X110.23 Y100.769 E86.52515
G0 F5400 X109.665 Y100.769
G1 F1800 X111.828 Y98.606 E86.67777
G0 F5400 X111.828 Y98.04
G1 F1800 X109.099 Y100.769 E86.87031
G0 F5400 X108.533 Y100.769
G1 F1800 X111.828 Y97.474 E87.10279
G0 F5400 X111.828 Y96.908
G1 F1800 X108.168 Y100.568 E87.36102
G0 F5400 X108.168 Y100.003
G1 F1800 X111.828 Y96.343 E87.61926
G0 F5400 X111.828 Y95.777
G1 F1800 X108.168 Y99.437 E87.87749
G0 F5400 X108.168 Y98.871
G1 F1800 X111.828 Y95.211 E88.13572
G0 F5400 X111.828 Y94.646
G1 F1800 X108.168 Y98.306 E88.39396
G0 F5400 X108.168 Y97.74
G1 F1800 X111.828 Y94.08 E88.65219
G0 F5400 X111.828 Y93.514
G1 F1800 X108.168 Y97.174 E88.91042
G0 F5400 X108.168 Y96.609
G1 F1800 X111.828 Y92.949 E89.16865
G0 F5400 X111.828 Y92.383
G1 F1800 X108.168 Y96.043 E89.42689
G0 F5400 X108.168 Y95.477
G1 F1800 X111.828 Y91.817 E89.68512
G0 F5400 X111.828 Y91.252
G1 F1800 X108.168 Y94.912 E89.94335
G0 F5400 X108.168 Y94.346
G1 F1800 X111.828 Y90.686 E90.20159
G0 F5400 X111.828 Y90.12
G1 F1800 X108.168 Y93.78 E90.45982
G0 F5400 X108.168 Y93.215
G1 F1800 X111.783 Y89.6 E90.71488
G0 F5400 X111.217 Y89.6
G1 F1800 X108.168 Y92.649 E90.93
G0 F5400 X108.168 Y92.083
G1 F1800 X110.652 Y89.6 E91.10522
G0 F5400 X110.086 Y89.6
G1 F1800 X108.168 Y91.518 E91.24055
G0 F5400 X108.168 Y90.952
G1 F1800 X109.52 Y89.6 E91.33594
G0 F5400 X108.955 Y89.6
G1 F1800 X108.168 Y90.386 E91.39143
G0 F5400 X108.168 Y89.82
G1 F1800 X108.389 Y89.6 E91.40699
;MESH:NONMESH
G0 F600 X108.389 Y89.6 Z0.9
G0 F5400 X111.67 Y101.27
G0 X111.6 Y101.34
;TIME_ELAPSED:65.457090
;LAYER:2
;TYPE:WALL-INNER
;MESH:clip1.5.stl
G1 F3600 X108.4 Y101.34 E91.56664
G1 X108.4 Y124.34 E92.71411
G1 X107.6 Y124.34 E92.75402
G1 X107.6 Y65.54 E95.68757
G1 X108.4 Y65.54 E95.72748
G1 X108.4 Y89.03 E96.8994
G1 X111.6 Y89.03 E97.05905
G1 X111.6 Y65.54 E98.23097
G1 X112.4 Y65.54 E98.27088
G1 X112.4 Y124.34 E101.20443
G1 X111.6 Y124.34 E101.24434
G1 X111.6 Y101.34 E102.39181
G0 F7200 X111.2 Y101.74
;TYPE:WALL-OUTER
G1 F1800 X108.8 Y101.74 E102.51155
G1 X108.8 Y124.74 E103.65902
G1 X107.2 Y124.74 E103.73885
G1 X107.2 Y65.14 E106.71231
G1 X108.8 Y65.14 E106.79213
G1 X108.8 Y88.63 E107.96405
G1 X111.2 Y88.63 E108.08379
G1 X111.2 Y65.14 E109.25571
G1 X112.8 Y65.14 E109.33553
G1 X112.8 Y124.74 E112.30899
G1 X111.2 Y124.74 E112.38881
G1 X111.2 Y101.74 E113.53629
G0 F7200 X111 Y101.74
G0 X111 Y101.24
G0 X111.99 Y100.95
;TYPE:SKIN
G1 F1800 X108.01 Y100.95 E113.73485
G1 X108.01 Y123.95 E114.88232
G1 X107.99 Y123.95 E114.88332
G1 X107.99 Y65.93 E117.77795
G1 X108.01 Y65.93 E117.77895
G1 X108.01 Y89.42 E118.95087
G1 X111.99 Y89.42 E119.14943
G1 X111.99 Y65.93 E120.32135
G1 X112.01 Y65.93 E120.32235
G1 X112.01 Y123.95 E123.21698
G1 X111.99 Y123.95 E123.21798
G1 X111.99 Y100.95 E124.36545
G0 F7200 X108.689 Y100.769
G1 F1800 X108.168 Y100.249 E124.40218
G0 F7200 X108.168 Y99.683
G1 F1800 X109.255 Y100.769 E124.47884
G0 F7200 X109.82 Y100.769
G1 F1800 X108.168 Y99.117 E124.59539
G0 F7200 X108.168 Y98.552
G1 F1800 X110.386 Y100.769 E124.75185
G0 F7200 X110.952 Y100.769
G1 F1800 X108.168 Y97.986 E124.94824
G0 F7200 X108.168 Y97.42
G1 F1800 X111.517 Y100.769 E125.18453
G0 F7200 X111.828 Y100.515
G1 F1800 X108.168 Y96.855 E125.44276
G0 F7200 X108.168 Y96.289
G1 F1800 X111.828 Y99.949 E125.701
G0 F7200 X111.828 Y99.383
G1 F1800 X108.168 Y95.723 E125.95923
G0 F7200 X108.168 Y95.158
G1 F1800 X111.828 Y98.818 E126.21746
G0 F7200 X111.828 Y98.252
G1 F1800 X108.168 Y94.592 E126.4757
G0 F7200 X108.168 Y94.026
G1 F1800 X111.828 Y97.686 E126.73393
G0 F7200 X111.828 Y97.121
G1 F1800 X108.168 Y93.461 E126.99216
G0 F7200 X108.168 Y92.895
G1 F1800 X111.828 Y96.555 E127.25039
G0 F7200 X111.828 Y95.989
G1 F1800 X108.168 Y92.329 E127.50863
G0 F7200 X108.168 Y91.764
G1 F1800 X111.828 Y95.424 E127.76686
G0 F7200 X111.828 Y94.858
G1 F1800 X108.168 Y91.198 E128.02509
G0 F7200 X108.168 Y90.632
G1 F1800 X111.828 Y94.292 E128.28333
G0 F7200 X111.828 Y93.727
G1 F1800 X108.168 Y90.067 E128.54156
G0 F7200 X108.267 Y89.6
G1 F1800 X111.828 Y93.161 E128.79281
G0 F7200 X111.828 Y92.595
G1 F1800 X108.833 Y89.6 E129.00412
G0 F7200 X109.399 Y89.6
G1 F1800 X111.828 Y92.029 E129.1755
G0 F7200 X111.828 Y91.464
G1 F1800 X109.965 Y89.6 E129.30698
G0 F7200 X110.53 Y89.6
G1 F1800 X111.828 Y90.898 E129.39856
G0 F7200 X111.828 Y90.332
G1 F1800 X111.096 Y89.6 E129.45021
G0 F7200 X111.662 Y89.6
G1 F1800 X111.828 Y89.767 E129.46195
;MESH:NONMESH
G0 F600 X111.828 Y89.767 Z1.2
G0 F7200 X111.67 Y101.27
G0 X111.6 Y101.34
;TIME_ELAPSED:88.234315
;LAYER:3
;TYPE:WALL-INNER
;MESH:clip1.5.stl
G1 F3600 X108.4 Y101.34 E129.6216
G1 X108.4 Y124.34 E130.76908
G1 X107.6 Y124.34 E130.80899
G1 X107.6 Y65.54 E133.74253
G1 X108.4 Y65.54 E133.78244
G1 X108.4 Y89.03 E134.95437
G1 X111.6 Y89.03 E135.11401
G1 X111.6 Y65.54 E136.28594
G1 X112.4 Y65.54 E136.32585
G1 X112.4 Y124.34 E139.25939
G1 X111.6 Y124.34 E139.2993
G1 X111.6 Y101.34 E140.44678
G0 F7200 X111.2 Y101.74
;TYPE:WALL-OUTER
G1 F1800 X108.8 Y101.74 E140.56651
G1 X108.8 Y124.74 E141.71399
G1 X107.2 Y124.74 E141.79381
G1 X107.2 Y65.14 E144.76727
G1 X108.8 Y65.14 E144.84709
G1 X108.8 Y88.63 E146.01901
G1 X111.2 Y88.63 E146.13875
G1 X111.2 Y65.14 E147.31067
G1 X112.8 Y65.14 E147.3905
G1 X112.8 Y124.74 E150.36395
G1 X111.2 Y124.74 E150.44378
G1 X111.2 Y101.74 E151.59125
G0 F7200 X111 Y101.74
G0 X111 Y100.94
;MESH:NONMESH
G0 F600 X111 Y100.94 Z1.5
G0 F7200 X111.6 Y101.34
;TIME_ELAPSED:99.638723
;LAYER:4
;TYPE:WALL-INNER
;MESH:clip1.5.stl
G1 F3600 X108.4 Y101.34 E151.7509
G1 X108.4 Y124.34 E152.89837
G1 X107.6 Y124.34 E152.93829
G1 X107.6 Y65.54 E155.87183
G1 X108.4 Y65.54 E155.91174
G1 X108.4 Y89.03 E157.08366
G1 X111.6 Y89.03 E157.24331
G1 X111.6 Y65.54 E158.41523
G1 X112.4 Y65.54 E158.45515
G1 X112.4 Y124.34 E161.38869
G1 X111.6 Y124.34 E161.4286
G1 X111.6 Y101.34 E162.57608
G0 F7200 X111.2 Y101.74
;TYPE:WALL-OUTER
G1 F1800 X108.8 Y101.74 E162.69581
G1 X108.8 Y124.74 E163.84329
G1 X107.2 Y124.74 E163.92311
G1 X107.2 Y65.14 E166.89657
G1 X108.8 Y65.14 E166.97639
G1 X108.8 Y88.63 E168.14831
G1 X111.2 Y88.63 E168.26805
G1 X111.2 Y65.14 E169.43997
G1 X112.8 Y65.14 E169.51979
G1 X112.8 Y124.74 E172.49325
G1 X111.2 Y124.74 E172.57308
G1 X111.2 Y101.74 E173.72055
G0 F7200 X111 Y101.74
G0 X111 Y100.94
;MESH:NONMESH
G0 F600 X111 Y100.94 Z1.8
G0 F7200 X111.6 Y101.34
;TIME_ELAPSED:111.043132
;LAYER:5
;TYPE:WALL-INNER
;MESH:clip1.5.stl
G1 F3600 X108.4 Y101.34 E173.8802
G1 X108.4 Y124.34 E175.02767
G1 X107.6 Y124.34 E175.06759
G1 X107.6 Y65.54 E178.00113
G1 X108.4 Y65.54 E178.04104
G1 X108.4 Y89.03 E179.21296
G1 X111.6 Y89.03 E179.37261
G1 X111.6 Y65.54 E180.54453
G1 X112.4 Y65.54 E180.58444
G1 X112.4 Y124.34 E183.51799
G1 X111.6 Y124.34 E183.5579
G1 X111.6 Y101.34 E184.70537
G0 F7200 X111.2 Y101.74
;TYPE:WALL-OUTER
G1 F1800 X108.8 Y101.74 E184.82511
G1 X108.8 Y124.74 E185.97259
G1 X107.2 Y124.74 E186.05241
G1 X107.2 Y65.14 E189.02587
G1 X108.8 Y65.14 E189.10569
G1 X108.8 Y88.63 E190.27761
G1 X111.2 Y88.63 E190.39735
G1 X111.2 Y65.14 E191.56927
G1 X112.8 Y65.14 E191.64909
G1 X112.8 Y124.74 E194.62255
G1 X111.2 Y124.74 E194.70237
G1 X111.2 Y101.74 E195.84985
G0 F7200 X111 Y101.74
G0 X111 Y100.94
;MESH:NONMESH
G0 F600 X111 Y100.94 Z2.1
G0 F7200 X111.6 Y101.34
;TIME_ELAPSED:122.447540
;LAYER:6
;TYPE:WALL-INNER
;MESH:clip1.5.stl
G1 F3600 X108.4 Y101.34 E196.0095
G1 X108.4 Y124.34 E197.15697
G1 X107.6 Y124.34 E197.19688
G1 X107.6 Y65.54 E200.13043
G1 X108.4 Y65.54 E200.17034
G1 X108.4 Y89.03 E201.34226
G1 X111.6 Y89.03 E201.50191
G1 X111.6 Y65.54 E202.67383
G1 X112.4 Y65.54 E202.71374
G1 X112.4 Y124.34 E205.64729
G1 X111.6 Y124.34 E205.6872
G1 X111.6 Y101.34 E206.83467
G0 F7200 X111.2 Y101.74
;TYPE:WALL-OUTER
G1 F1800 X108.8 Y101.74 E206.95441
G1 X108.8 Y124.74 E208.10188
G1 X107.2 Y124.74 E208.18171
G1 X107.2 Y65.14 E211.15516
G1 X108.8 Y65.14 E211.23499
G1 X108.8 Y88.63 E212.40691
G1 X111.2 Y88.63 E212.52665
G1 X111.2 Y65.14 E213.69857
G1 X112.8 Y65.14 E213.77839
G1 X112.8 Y124.74 E216.75185
G1 X111.2 Y124.74 E216.83167
G1 X111.2 Y101.74 E217.97915
G0 F7200 X111 Y101.74
G0 X111 Y100.94
;MESH:NONMESH
