;FLAVOR:Marlin
;TIME:6003
;Filament used: 10.7352m
;Layer height: 0.3
;MINX:73.4
;MINY:79.4
;MINZ:0.3
;MAXX:136.6
;MAXY:140.615
;MAXZ:24
;Generated with Cura_SteamEngine 4.5.0
M140 S60
M105
M190 S60
M104 S200
M105
M109 S200
M82 ;absolute extrusion mode
G28 ;Home
G1 Z15.0 F6000 ;Move the platform down 15mm
;Prime the extruder
G92 E0
G1 F200 E3
G92 E0
G92 E0
G92 E0
G1 F1500 E-6.5
;LAYER_COUNT:80
;LAYER:0
M107
G0 F3600 X74.402 Y80.527 Z0.3
;TYPE:SKIRT
G1 F1500 E0
G1 F1800 X74.8 Y80.168 E0.02674
G1 X75.246 Y79.871 E0.05347
G1 X75.732 Y79.643 E0.08026
G1 X76.246 Y79.491 E0.107
G1 X76.909 Y79.41 E0.14032
G1 X82.366 Y79.4 E0.41257
G1 X83.581 Y79.417 E0.47319
G1 X86.352 Y79.417 E0.61144
G1 X87.249 Y79.401 E0.6562
G1 X92.366 Y79.4 E0.91149
G1 X93.581 Y79.417 E0.97211
G1 X96.352 Y79.417 E1.11036
G1 X97.249 Y79.401 E1.15511
G1 X102.356 Y79.4 E1.4099
G1 X103.92 Y79.422 E1.48794
G1 X106.656 Y79.422 E1.62444
G1 X107.272 Y79.415 E1.65517
G1 X112.382 Y79.415 E1.91011
G1 X113.247 Y79.427 E1.95327
G1 X115.992 Y79.427 E2.09022
G1 X117.135 Y79.402 E2.14726
G1 X122.315 Y79.4 E2.40569
G1 X123.581 Y79.417 E2.46886
G1 X126.352 Y79.417 E2.6071
G1 X127.249 Y79.401 E2.65186
G1 X132.345 Y79.4 E2.9061
G1 X133.043 Y79.41 E2.94093
G1 X133.577 Y79.458 E2.96768
G1 X134.098 Y79.584 E2.99442
G1 X134.595 Y79.787 E3.0212
G1 X135.056 Y80.061 E3.04796
G1 X135.471 Y80.4 E3.07469
G1 X135.831 Y80.798 E3.10147
G1 X136.128 Y81.244 E3.1282
G1 X136.356 Y81.73 E3.15498
G1 X136.508 Y82.244 E3.18172
G1 X136.59 Y82.909 E3.21515
G1 X136.6 Y136.314 E5.87954
G1 X136.59 Y137.038 E5.91566
G1 X136.542 Y137.572 E5.94241
G1 X136.416 Y138.093 E5.96915
G1 X136.214 Y138.59 E5.99592
G1 X135.94 Y139.051 E6.02267
G1 X135.601 Y139.466 E6.04941
G1 X135.204 Y139.827 E6.07618
G1 X134.758 Y140.124 E6.10291
G1 X134.272 Y140.352 E6.12969
G1 X133.758 Y140.505 E6.15645
G1 X133.125 Y140.585 E6.18828
G1 X127.634 Y140.6 E6.46223
G1 X126.419 Y140.583 E6.52285
G1 X123.648 Y140.583 E6.6611
G1 X122.751 Y140.599 E6.70586
G1 X117.618 Y140.6 E6.96194
G1 X116.753 Y140.588 E7.0051
G1 X114.008 Y140.588 E7.14205
G1 X112.865 Y140.613 E7.19909
G1 X107.696 Y140.615 E7.45697
G1 X106.08 Y140.593 E7.5376
G1 X103.344 Y140.593 E7.6741
G1 X102.728 Y140.6 E7.70483
G1 X97.634 Y140.6 E7.95897
G1 X96.419 Y140.583 E8.0196
G1 X93.648 Y140.583 E8.15784
G1 X92.751 Y140.599 E8.2026
G1 X87.634 Y140.6 E8.45789
G1 X86.419 Y140.583 E8.51851
G1 X83.648 Y140.583 E8.65676
G1 X82.751 Y140.599 E8.70152
G1 X77.655 Y140.6 E8.95576
G1 X76.957 Y140.59 E8.99058
G1 X76.423 Y140.542 E9.01733
G1 X75.902 Y140.416 E9.04407
G1 X75.405 Y140.213 E9.07086
G1 X74.944 Y139.939 E9.09761
G1 X74.529 Y139.6 E9.12435
G1 X74.169 Y139.202 E9.15112
G1 X73.872 Y138.756 E9.17786
G1 X73.644 Y138.27 E9.20464
G1 X73.492 Y137.756 E9.23138
G1 X73.41 Y137.088 E9.26496
G1 X73.4 Y83.62 E11.93249
G1 X73.41 Y82.955 E11.96567
G1 X73.458 Y82.421 E11.99241
G1 X73.585 Y81.9 E12.01917
G1 X73.788 Y81.403 E12.04595
G1 X74.062 Y80.942 E12.07271
G1 X74.402 Y80.527 E12.09947
G0 F3600 X74.794 Y80.701
G1 F1800 X75.185 Y80.38 E12.12471
G1 X75.622 Y80.126 E12.14993
G1 X76.093 Y79.943 E12.17514
G1 X76.588 Y79.837 E12.20039
G1 X77.24 Y79.801 E12.23297
G1 X82.361 Y79.8 E12.48846
G1 X83.576 Y79.817 E12.54908
G1 X86.359 Y79.817 E12.68793
G1 X87.256 Y79.801 E12.73269
G1 X92.361 Y79.8 E12.98738
G1 X93.576 Y79.817 E13.048
G1 X96.359 Y79.817 E13.18684
G1 X97.256 Y79.801 E13.2316
G1 X102.35 Y79.8 E13.48574
G1 X103.914 Y79.822 E13.56378
G1 X106.661 Y79.822 E13.70083
G1 X107.277 Y79.815 E13.73156
G1 X112.376 Y79.815 E13.98595
G1 X113.241 Y79.827 E14.02911
G1 X116.001 Y79.827 E14.16681
G1 X117.144 Y79.802 E14.22385
G1 X122.315 Y79.8 E14.48183
G1 X123.576 Y79.817 E14.54474
G1 X126.359 Y79.817 E14.68359
G1 X127.256 Y79.801 E14.72835
G1 X132.339 Y79.8 E14.98194
G1 X133.037 Y79.81 E15.01677
G1 X133.54 Y79.857 E15.04197
G1 X134.03 Y79.983 E15.06721
G1 X134.494 Y80.185 E15.09246
G1 X134.92 Y80.457 E15.11768
G1 X135.298 Y80.792 E15.14287
G1 X135.618 Y81.183 E15.16808
G1 X135.873 Y81.62 E15.19332
G1 X136.056 Y82.091 E15.21853
G1 X136.163 Y82.585 E15.24375
G1 X136.199 Y83.24 E15.27648
G1 X136.2 Y136.308 E17.92405
G1 X136.19 Y137.032 E17.96018
G1 X136.143 Y137.536 E17.98543
G1 X136.017 Y138.025 E18.01062
G1 X135.816 Y138.489 E18.03585
G1 X135.544 Y138.915 E18.06107
G1 X135.209 Y139.294 E18.0863
G1 X134.818 Y139.614 E18.11151
G1 X134.382 Y139.87 E18.13673
G1 X133.91 Y140.053 E18.16199
G1 X133.416 Y140.159 E18.1872
G1 X132.79 Y140.198 E18.21849
G1 X127.639 Y140.2 E18.47547
G1 X126.424 Y140.183 E18.5361
G1 X123.641 Y140.183 E18.67494
G1 X122.744 Y140.199 E18.7197
G1 X117.624 Y140.2 E18.97514
G1 X116.759 Y140.188 E19.0183
G1 X113.999 Y140.188 E19.15599
G1 X112.856 Y140.213 E19.21303
G1 X107.696 Y140.215 E19.47046
G1 X106.086 Y140.193 E19.55079
G1 X103.339 Y140.193 E19.68784
G1 X102.723 Y140.2 E19.71858
G1 X97.639 Y140.2 E19.97222
G1 X96.424 Y140.183 E20.03284
G1 X93.641 Y140.183 E20.17169
G1 X92.744 Y140.199 E20.21645
G1 X87.639 Y140.2 E20.47113
G1 X86.424 Y140.183 E20.53176
G1 X83.641 Y140.183 E20.6706
G1 X82.744 Y140.199 E20.71536
G1 X77.661 Y140.2 E20.96895
G1 X76.963 Y140.19 E21.00378
G1 X76.46 Y140.143 E21.02898
G1 X75.97 Y140.017 E21.05422
G1 X75.506 Y139.815 E21.07947
G1 X75.08 Y139.543 E21.10469
G1 X74.702 Y139.208 E21.12989
G1 X74.382 Y138.817 E21.15509
G1 X74.127 Y138.38 E21.18034
G1 X73.944 Y137.909 E21.20555
G1 X73.837 Y137.415 E21.23076
G1 X73.801 Y136.745 E21.26424
G1 X73.8 Y83.626 E23.91436
G1 X73.81 Y82.961 E23.94754
G1 X73.858 Y82.458 E23.97275
G1 X73.984 Y81.968 E23.99799
G1 X74.186 Y81.504 E24.02323
G1 X74.458 Y81.078 E24.04845
G1 X74.794 Y80.701 E24.07364
G1 F1500 E17.57364
;MESH:clip2.2.stl(5)
G0 F3600 X77.614 Y82.335
G0 X77.614 Y83.614
G0 X78.172 Y109.428
G0 X81.87 Y109.93
G0 X81.8 Y110
;TYPE:WALL-INNER
G1 F1500 E24.07364
G1 F1800 X78.2 Y110 E24.25325
G1 X78.2 Y136.4 E25.57035
G1 X77.6 Y136.4 E25.60029
G1 X77.6 Y83.6 E28.23449
G1 X78.2 Y83.6 E28.26442
G1 X78.2 Y109.4 E29.55159
G1 X81.8 Y109.4 E29.73119
G1 X81.8 Y83.6 E31.01836
G1 X82.4 Y83.6 E31.0483
G1 X82.4 Y136.4 E33.6825
G1 X81.8 Y136.4 E33.71243
G1 X81.8 Y110 E35.02953
G0 F3600 X81.4 Y110.4
;TYPE:WALL-OUTER
G1 F1800 X78.6 Y110.4 E35.16923
G1 X78.6 Y136.8 E36.48633
G1 X77.2 Y136.8 E36.55617
G1 X77.2 Y83.2 E39.23029
G1 X78.6 Y83.2 E39.30013
G1 X78.6 Y109 E40.5873
G1 X81.4 Y109 E40.72699
G1 X81.4 Y83.2 E42.01416
G1 X82.8 Y83.2 E42.08401
G1 X82.8 Y136.8 E44.75812
G1 X81.4 Y136.8 E44.82797
G1 X81.4 Y110.4 E46.14507
G0 F3600 X81.2 Y110.4
G0 X81.2 Y109.9
G0 X78.172 Y109.972
G0 X77.953 Y136.219
;TYPE:SKIN
G1 F1800 X77.779 Y136.045 E46.15735
G0 F3600 X78.02 Y135.719
G1 F1800 X77.779 Y135.479 E46.17432
G0 F3600 X78.02 Y135.154
G1 F1800 X77.779 Y134.913 E46.19132
G0 F3600 X78.02 Y134.588
G1 F1800 X77.779 Y134.348 E46.20829
G0 F3600 X78.02 Y134.022
G1 F1800 X77.779 Y133.782 E46.22526
G0 F3600 X78.02 Y133.457
G1 F1800 X77.779 Y133.216 E46.24226
G0 F3600 X78.02 Y132.891
G1 F1800 X77.779 Y132.651 E46.25923
G0 F3600 X78.02 Y132.325
G1 F1800 X77.779 Y132.085 E46.2762
G0 F3600 X78.02 Y131.76
G1 F1800 X77.779 Y131.519 E46.2932
G0 F3600 X78.02 Y131.194
G1 F1800 X77.779 Y130.954 E46.31017
G0 F3600 X78.02 Y130.628
G1 F1800 X77.779 Y130.388 E46.32714
G0 F3600 X78.02 Y130.063
G1 F1800 X77.779 Y129.822 E46.34414
G0 F3600 X78.02 Y129.497
G1 F1800 X77.779 Y129.256 E46.36115
G0 F3600 X78.02 Y128.931
G1 F1800 X77.779 Y128.691 E46.37812
G0 F3600 X78.02 Y128.366
G1 F1800 X77.779 Y128.125 E46.39512
G0 F3600 X78.02 Y127.8
G1 F1800 X77.779 Y127.559 E46.41212
G0 F3600 X78.02 Y127.234
G1 F1800 X77.779 Y126.994 E46.42909
G0 F3600 X78.02 Y126.668
G1 F1800 X77.779 Y126.428 E46.44606
G0 F3600 X78.02 Y126.103
G1 F1800 X77.779 Y125.862 E46.46306
G0 F3600 X78.02 Y125.537
G1 F1800 X77.779 Y125.297 E46.48003
G0 F3600 X78.02 Y124.971
G1 F1800 X77.779 Y124.731 E46.497
G0 F3600 X78.02 Y124.406
G1 F1800 X77.779 Y124.165 E46.51401
G0 F3600 X78.02 Y123.84
G1 F1800 X77.779 Y123.6 E46.53097
G0 F3600 X78.02 Y123.274
G1 F1800 X77.779 Y123.034 E46.54794
G0 F3600 X78.02 Y122.709
G1 F1800 X77.779 Y122.468 E46.56495
G0 F3600 X78.02 Y122.143
G1 F1800 X77.779 Y121.903 E46.58191
G0 F3600 X78.02 Y121.577
G1 F1800 X77.779 Y121.337 E46.59888
G0 F3600 X78.02 Y121.012
G1 F1800 X77.779 Y120.771 E46.61589
G0 F3600 X78.02 Y120.446
G1 F1800 X77.779 Y120.206 E46.63286
G0 F3600 X78.02 Y119.88
G1 F1800 X77.779 Y119.64 E46.64982
G0 F3600 X78.02 Y119.315
G1 F1800 X77.779 Y119.074 E46.66683
G0 F3600 X78.02 Y118.749
G1 F1800 X77.779 Y118.508 E46.68383
G0 F3600 X78.02 Y118.183
G1 F1800 X77.779 Y117.943 E46.7008
G0 F3600 X78.02 Y117.618
G1 F1800 X77.779 Y117.377 E46.7178
G0 F3600 X78.02 Y117.052
G1 F1800 X77.779 Y116.811 E46.73481
G0 F3600 X78.02 Y116.486
G1 F1800 X77.779 Y116.246 E46.75178
G0 F3600 X78.02 Y115.92
G1 F1800 X77.779 Y115.68 E46.76875
G0 F3600 X78.02 Y115.355
G1 F1800 X77.779 Y115.114 E46.78575
G0 F3600 X78.02 Y114.789
G1 F1800 X77.779 Y114.549 E46.80272
G0 F3600 X78.02 Y114.223
G1 F1800 X77.779 Y113.983 E46.81969
G0 F3600 X78.02 Y113.658
G1 F1800 X77.779 Y113.417 E46.83669
G0 F3600 X78.02 Y113.092
G1 F1800 X77.779 Y112.852 E46.85366
G0 F3600 X78.02 Y112.526
G1 F1800 X77.779 Y112.286 E46.87063
G0 F3600 X78.02 Y111.961
G1 F1800 X77.779 Y111.72 E46.88763
G0 F3600 X78.02 Y111.395
G1 F1800 X77.779 Y111.155 E46.9046
G0 F3600 X78.02 Y110.829
G1 F1800 X77.779 Y110.589 E46.92157
G0 F3600 X78.02 Y110.264
G1 F1800 X77.779 Y110.023 E46.93857
G0 F3600 X78.14 Y109.818
G1 F1800 X77.779 Y109.458 E46.96401
G0 F3600 X78.02 Y109.132
G1 F1800 X77.779 Y108.892 E46.98098
G0 F3600 X78.02 Y108.567
G1 F1800 X77.779 Y108.326 E46.99798
G0 F3600 X78.02 Y108.001
G1 F1800 X77.779 Y107.76 E47.01498
G0 F3600 X78.02 Y107.435
G1 F1800 X77.779 Y107.195 E47.03195
G0 F3600 X78.02 Y106.869
G1 F1800 X77.779 Y106.629 E47.04892
G0 F3600 X78.02 Y106.304
G1 F1800 X77.779 Y106.063 E47.06593
G0 F3600 X78.02 Y105.738
G1 F1800 X77.779 Y105.498 E47.08289
G0 F3600 X78.02 Y105.172
G1 F1800 X77.779 Y104.932 E47.09986
G0 F3600 X78.02 Y104.607
G1 F1800 X77.779 Y104.366 E47.11687
G0 F3600 X78.02 Y104.041
G1 F1800 X77.779 Y103.801 E47.13384
G0 F3600 X78.02 Y103.475
G1 F1800 X77.779 Y103.235 E47.1508
G0 F3600 X78.02 Y102.91
G1 F1800 X77.779 Y102.669 E47.16781
G0 F3600 X78.02 Y102.344
G1 F1800 X77.779 Y102.104 E47.18478
G0 F3600 X78.02 Y101.778
G1 F1800 X77.779 Y101.538 E47.20174
G0 F3600 X78.02 Y101.213
G1 F1800 X77.779 Y100.972 E47.21875
G0 F3600 X78.02 Y100.647
G1 F1800 X77.779 Y100.407 E47.23572
G0 F3600 X78.02 Y100.081
G1 F1800 X77.779 Y99.841 E47.25269
G0 F3600 X78.02 Y99.516
G1 F1800 X77.779 Y99.275 E47.26969
G0 F3600 X78.02 Y98.95
G1 F1800 X77.779 Y98.709 E47.28669
G0 F3600 X78.02 Y98.384
G1 F1800 X77.779 Y98.144 E47.30366
G0 F3600 X78.02 Y97.819
G1 F1800 X77.779 Y97.578 E47.32067
G0 F3600 X78.02 Y97.253
G1 F1800 X77.779 Y97.012 E47.33767
G0 F3600 X78.02 Y96.687
G1 F1800 X77.779 Y96.447 E47.35464
G0 F3600 X78.02 Y96.121
G1 F1800 X77.779 Y95.881 E47.37161
G0 F3600 X78.02 Y95.556
G1 F1800 X77.779 Y95.315 E47.38861
G0 F3600 X78.02 Y94.99
G1 F1800 X77.779 Y94.75 E47.40558
G0 F3600 X78.02 Y94.424
G1 F1800 X77.779 Y94.184 E47.42255
G0 F3600 X78.02 Y93.859
G1 F1800 X77.779 Y93.618 E47.43955
G0 F3600 X78.02 Y93.293
G1 F1800 X77.779 Y93.053 E47.45652
G0 F3600 X78.02 Y92.727
G1 F1800 X77.779 Y92.487 E47.47349
G0 F3600 X78.02 Y92.162
G1 F1800 X77.779 Y91.921 E47.49049
G0 F3600 X78.02 Y91.596
G1 F1800 X77.779 Y91.356 E47.50746
G0 F3600 X78.02 Y91.03
G1 F1800 X77.779 Y90.79 E47.52443
G0 F3600 X78.02 Y90.465
G1 F1800 X77.779 Y90.224 E47.54143
G0 F3600 X78.02 Y89.899
G1 F1800 X77.779 Y89.659 E47.5584
G0 F3600 X78.02 Y89.333
G1 F1800 X77.779 Y89.093 E47.57537
G0 F3600 X78.02 Y88.768
G1 F1800 X77.779 Y88.527 E47.59238
G0 F3600 X78.02 Y88.202
G1 F1800 X77.779 Y87.961 E47.60938
G0 F3600 X78.02 Y87.636
G1 F1800 X77.779 Y87.396 E47.62635
G0 F3600 X78.02 Y87.071
G1 F1800 X77.779 Y86.83 E47.64335
G0 F3600 X78.02 Y86.505
G1 F1800 X77.779 Y86.264 E47.66036
G0 F3600 X78.02 Y85.939
G1 F1800 X77.779 Y85.699 E47.67732
G0 F3600 X78.02 Y85.373
G1 F1800 X77.779 Y85.133 E47.69429
G0 F3600 X78.02 Y84.808
G1 F1800 X77.779 Y84.567 E47.7113
G0 F3600 X78.02 Y84.242
G1 F1800 X77.779 Y84.002 E47.72827
G0 F3600 X78.172 Y109.428
G0 X81.828 Y109.428
G0 X81.979 Y84.242
G1 F1800 X82.22 Y84.482 E47.74523
G0 F3600 X81.979 Y84.808
G1 F1800 X82.22 Y85.048 E47.7622
G0 F3600 X81.979 Y85.373
G1 F1800 X82.22 Y85.614 E47.77921
G0 F3600 X81.979 Y85.939
G1 F1800 X82.22 Y86.18 E47.79621
G0 F3600 X81.979 Y86.505
G1 F1800 X82.22 Y86.745 E47.81318
G0 F3600 X81.979 Y87.071
G1 F1800 X82.22 Y87.311 E47.83015
G0 F3600 X81.979 Y87.636
G1 F1800 X82.22 Y87.877 E47.84715
G0 F3600 X81.979 Y88.202
G1 F1800 X82.22 Y88.442 E47.86412
G0 F3600 X81.979 Y88.768
G1 F1800 X82.22 Y89.008 E47.88109
G0 F3600 X81.979 Y89.333
G1 F1800 X82.22 Y89.574 E47.89809
G0 F3600 X81.979 Y89.899
G1 F1800 X82.22 Y90.139 E47.91506
G0 F3600 X81.979 Y90.465
G1 F1800 X82.22 Y90.705 E47.93203
G0 F3600 X81.979 Y91.03
G1 F1800 X82.22 Y91.271 E47.94903
G0 F3600 X81.979 Y91.596
G1 F1800 X82.22 Y91.836 E47.966
G0 F3600 X81.979 Y92.162
G1 F1800 X82.22 Y92.402 E47.98297
G0 F3600 X81.979 Y92.727
G1 F1800 X82.22 Y92.968 E47.99997
G0 F3600 X81.979 Y93.293
G1 F1800 X82.22 Y93.533 E48.01694
G0 F3600 X81.979 Y93.859
G1 F1800 X82.22 Y94.099 E48.03391
G0 F3600 X81.979 Y94.424
G1 F1800 X82.22 Y94.665 E48.05092
G0 F3600 X81.979 Y94.99
G1 F1800 X82.22 Y95.231 E48.06792
G0 F3600 X81.979 Y95.556
G1 F1800 X82.22 Y95.796 E48.08489
G0 F3600 X81.979 Y96.121
G1 F1800 X82.22 Y96.362 E48.10189
G0 F3600 X81.979 Y96.687
G1 F1800 X82.22 Y96.928 E48.1189
G0 F3600 X81.979 Y97.253
G1 F1800 X82.22 Y97.493 E48.13586
G0 F3600 X81.979 Y97.819
G1 F1800 X82.22 Y98.059 E48.15283
G0 F3600 X81.979 Y98.384
G1 F1800 X82.22 Y98.625 E48.16984
G0 F3600 X81.979 Y98.95
G1 F1800 X82.22 Y99.19 E48.18681
G0 F3600 X81.979 Y99.516
G1 F1800 X82.22 Y99.756 E48.20377
G0 F3600 X81.979 Y100.081
G1 F1800 X82.22 Y100.322 E48.22078
G0 F3600 X81.979 Y100.647
G1 F1800 X82.22 Y100.887 E48.23775
G0 F3600 X81.979 Y101.213
G1 F1800 X82.22 Y101.453 E48.25471
G0 F3600 X81.979 Y101.778
G1 F1800 X82.22 Y102.019 E48.27172
G0 F3600 X81.979 Y102.344
G1 F1800 X82.22 Y102.584 E48.28869
G0 F3600 X81.979 Y102.91
G1 F1800 X82.22 Y103.15 E48.30566
G0 F3600 X81.979 Y103.475
G1 F1800 X82.22 Y103.716 E48.32266
G0 F3600 X81.979 Y104.041
G1 F1800 X82.22 Y104.281 E48.33963
G0 F3600 X81.979 Y104.607
G1 F1800 X82.22 Y104.847 E48.3566
G0 F3600 X81.979 Y105.172
G1 F1800 X82.22 Y105.413 E48.3736
G0 F3600 X81.979 Y105.738
G1 F1800 X82.22 Y105.979 E48.3906
G0 F3600 X81.979 Y106.304
G1 F1800 X82.22 Y106.544 E48.40757
G0 F3600 X81.979 Y106.869
G1 F1800 X82.22 Y107.11 E48.42458
G0 F3600 X81.979 Y107.435
G1 F1800 X82.22 Y107.676 E48.44158
G0 F3600 X81.979 Y108.001
G1 F1800 X82.22 Y108.241 E48.45855
G0 F3600 X81.979 Y108.567
G1 F1800 X82.22 Y108.807 E48.47552
G0 F3600 X81.979 Y109.132
G1 F1800 X82.22 Y109.373 E48.49252
G0 F3600 X81.861 Y109.579
G1 F1800 X82.22 Y109.938 E48.51785
G0 F3600 X81.979 Y110.264
G1 F1800 X82.22 Y110.504 E48.53482
G0 F3600 X81.979 Y110.829
G1 F1800 X82.22 Y111.07 E48.55182
G0 F3600 X81.979 Y111.395
G1 F1800 X82.22 Y111.635 E48.56879
G0 F3600 X81.979 Y111.961
G1 F1800 X82.22 Y112.201 E48.58576
G0 F3600 X81.979 Y112.526
G1 F1800 X82.22 Y112.767 E48.60277
G0 F3600 X81.979 Y113.092
G1 F1800 X82.22 Y113.332 E48.61973
G0 F3600 X81.979 Y113.658
G1 F1800 X82.22 Y113.898 E48.6367
G0 F3600 X81.979 Y114.223
G1 F1800 X82.22 Y114.464 E48.65371
G0 F3600 X81.979 Y114.789
G1 F1800 X82.22 Y115.03 E48.67071
G0 F3600 X81.979 Y115.355
G1 F1800 X82.22 Y115.595 E48.68768
G0 F3600 X81.979 Y115.92
G1 F1800 X82.22 Y116.161 E48.70468
G0 F3600 X81.979 Y116.486
G1 F1800 X82.22 Y116.727 E48.72169
G0 F3600 X81.979 Y117.052
G1 F1800 X82.22 Y117.292 E48.73865
G0 F3600 X81.979 Y117.618
G1 F1800 X82.22 Y117.858 E48.75562
G0 F3600 X81.979 Y118.183
G1 F1800 X82.22 Y118.424 E48.77263
G0 F3600 X81.979 Y118.749
G1 F1800 X82.22 Y118.989 E48.7896
G0 F3600 X81.979 Y119.315
G1 F1800 X82.22 Y119.555 E48.80656
G0 F3600 X81.979 Y119.88
G1 F1800 X82.22 Y120.121 E48.82357
G0 F3600 X81.979 Y120.446
G1 F1800 X82.22 Y120.686 E48.84054
