;FLAVOR:Marlin
;TIME:4978
;Filament used: 8.94191m
;Layer height: 0.3
;MINX:68.163
;MINY:53.818
;MINZ:0.3
;MAXX:140.213
;MAXY:132.206
;MAXZ:31.8
;Generated with Cura_SteamEngine 4.5.0
M140 S60
M105
M190 S60
M104 S200
M105
M109 S200
M82 ;absolute extrusion mode
G28 ;Home
G1 Z15.0 F6000 ;Move the platform down 15mm
;Prime the extruder
G92 E0
G1 F200 E3
G92 E0
G92 E0
G92 E0
G1 F1500 E-6.5
;LAYER_COUNT:106
;LAYER:0
M107
G0 F3600 X69.156 Y75.202 Z0.3
;TYPE:SKIRT
G1 F1500 E0
G1 F1800 X69.547 Y74.881 E0.02524
G1 X70.362 Y74.405 E0.07233
G1 X71.709 Y73.675 E0.14876
G1 X74.069 Y72.311 E0.28475
G1 X76.421 Y70.86 E0.42263
G1 X78.708 Y69.36 E0.55908
G1 X80.965 Y67.783 E0.69645
G1 X83.136 Y66.177 E0.83117
G1 X85.291 Y64.484 E0.9679
G1 X86.331 Y63.62 E1.03535
G1 X86.938 Y63.128 E1.07433
G1 X87.355 Y62.841 E1.09959
G1 X87.811 Y62.624 E1.12478
G1 X88.296 Y62.481 E1.15001
G1 X88.859 Y62.414 E1.1783
G1 X89.869 Y62.384 E1.22871
G1 X92.597 Y62.264 E1.36494
G1 X95.343 Y62.067 E1.50229
G1 X98.048 Y61.795 E1.63792
G1 X100.778 Y61.442 E1.77526
G1 X103.508 Y61.011 E1.91314
G1 X106.165 Y60.513 E2.04801
G1 X108.842 Y59.933 E2.18467
G1 X111.49 Y59.282 E2.32071
G1 X114.122 Y58.554 E2.45695
G1 X116.768 Y57.741 E2.59505
G1 X119.339 Y56.871 E2.73046
G1 X121.937 Y55.908 E2.8687
G1 X124.449 Y54.895 E3.00383
G1 X125.609 Y54.39 E3.06695
G1 X126.339 Y54.084 E3.10644
G1 X126.82 Y53.926 E3.13169
G1 X127.409 Y53.84 E3.16139
G1 X127.921 Y53.818 E3.18696
G1 X130.163 Y53.818 E3.29881
G1 X133.397 Y53.825 E3.46016
G1 X134.027 Y53.818 E3.49159
G1 X136.352 Y53.818 E3.60759
G1 X137.05 Y53.828 E3.64241
G1 X137.553 Y53.875 E3.66762
G1 X138.043 Y54.001 E3.69286
G1 X138.507 Y54.203 E3.71811
G1 X138.933 Y54.475 E3.74332
G1 X139.311 Y54.81 E3.76852
G1 X139.631 Y55.201 E3.79373
G1 X139.886 Y55.638 E3.81897
G1 X140.069 Y56.109 E3.84418
G1 X140.176 Y56.603 E3.8694
G1 X140.212 Y57.258 E3.90212
G1 X140.213 Y128.31 E7.44692
G1 X140.204 Y129.037 E7.4832
G1 X140.158 Y129.54 E7.5084
G1 X140.033 Y130.03 E7.53362
G1 X139.832 Y130.494 E7.55885
G1 X139.561 Y130.921 E7.58408
G1 X139.226 Y131.3 E7.60932
G1 X138.836 Y131.621 E7.63452
G1 X138.4 Y131.877 E7.65974
G1 X137.929 Y132.06 E7.68495
G1 X137.435 Y132.168 E7.71018
G1 X136.773 Y132.205 E7.74326
G1 X134.441 Y132.206 E7.8596
G1 X131.207 Y132.199 E8.02095
G1 X130.577 Y132.206 E8.05238
G1 X128.252 Y132.206 E8.16838
G1 X127.554 Y132.196 E8.2032
G1 X127.023 Y132.144 E8.22982
G1 X123.93 Y131.609 E8.38642
G1 X121.24 Y131.226 E8.52198
G1 X118.473 Y130.912 E8.66091
G1 X115.794 Y130.684 E8.79505
G1 X113.047 Y130.528 E8.93232
G1 X110.288 Y130.45 E9.07002
G1 X108.206 Y130.443 E9.1739
G1 X107.541 Y130.448 E9.20707
G1 X106.514 Y130.448 E9.25831
G1 X105.816 Y130.438 E9.29314
G1 X105.326 Y130.393 E9.31769
G1 X102.744 Y129.955 E9.44834
G1 X100.059 Y129.572 E9.58366
G1 X97.291 Y129.258 E9.72264
G1 X94.612 Y129.03 E9.85678
G1 X91.863 Y128.874 E9.99415
G1 X88.873 Y128.792 E10.14337
G1 X88.213 Y128.705 E10.17659
G1 X87.685 Y128.577 E10.20369
G1 X85.907 Y128.116 E10.29533
G1 X83.204 Y127.495 E10.4337
G1 X80.528 Y126.957 E10.56987
G1 X77.827 Y126.499 E10.70655
G1 X75.136 Y126.117 E10.84215
G1 X71.035 Y125.673 E11.04795
G1 X70.539 Y125.579 E11.07313
G1 X70.063 Y125.408 E11.09837
G1 X69.62 Y125.164 E11.1236
G1 X69.221 Y124.854 E11.14881
G1 X68.876 Y124.484 E11.17404
G1 X68.593 Y124.065 E11.19927
G1 X68.38 Y123.607 E11.22447
G1 X68.242 Y123.12 E11.24972
G1 X68.167 Y122.321 E11.28976
G1 X68.163 Y78.152 E13.49336
G1 X68.173 Y77.463 E13.52774
G1 X68.221 Y76.959 E13.553
G1 X68.347 Y76.47 E13.57819
G1 X68.548 Y76.006 E13.60342
G1 X68.82 Y75.58 E13.62863
G1 X69.156 Y75.202 E13.65387
G1 F1500 E7.15387
;MESH:clip2.2.stl(1)
G0 F3600 X71.977 Y76.835
G0 X71.977 Y78.114
G0 X72.235 Y99.628
G0 X75.533 Y99.83
G0 X75.463 Y99.9
;TYPE:WALL-INNER
G1 F1500 E13.65387
G1 F1800 X72.263 Y99.9 E13.81351
G1 X72.263 Y121.9 E14.9111
G1 X71.963 Y121.9 E14.92607
G1 X71.963 Y99.9 E15.74925
G1 X71.963 Y99.6 E15.76422
G1 X71.963 Y78.1 E16.83686
G1 X72.263 Y78.1 E16.85183
G1 X72.263 Y99.6 E17.65631
G1 X75.463 Y99.6 E17.77604
G1 X75.463 Y78.1 E18.84868
G1 X75.763 Y78.1 E18.86365
G1 X75.763 Y99.6 E19.66813
G1 X75.763 Y99.9 E19.6831
G1 X75.763 Y121.9 E20.78068
G1 X75.463 Y121.9 E20.79565
G1 X75.463 Y99.9 E21.61884
G0 F3600 X75.063 Y100.3
;TYPE:WALL-OUTER
G1 F1800 X72.663 Y100.3 E21.73857
G1 X72.663 Y122.3 E22.83616
G1 X71.563 Y122.3 E22.89104
G1 X71.563 Y77.7 E25.11614
G1 X72.663 Y77.7 E25.17102
G1 X72.663 Y99.2 E26.24366
G1 X75.063 Y99.2 E26.36339
G1 X75.063 Y77.7 E27.43603
G1 X76.163 Y77.7 E27.49091
G1 X76.163 Y122.3 E29.71602
G1 X75.063 Y122.3 E29.7709
G1 X75.063 Y100.3 E30.86848
G0 F3600 X74.863 Y100.3
G1 F1500 E24.36848
;MESH:clip2.2.stl
G0 F3600 X74.863 Y99.8
G0 X75.743 Y95.599
G0 X77.028 Y95.599
G0 X88.286 Y95.599
G0 X89.571 Y95.599
G0 X94.288 Y95.599
G0 X94.218 Y95.669
;TYPE:WALL-INNER
G1 F1500 E30.86848
G1 F1800 X90.351 Y95.669 E31.06141
G1 X90.351 Y125.003 E32.52488
G1 X89.551 Y125.003 E32.5648
G1 X89.551 Y66.203 E35.49834
G1 X90.351 Y66.203 E35.53825
G1 X90.351 Y94.869 E36.96841
G1 X94.218 Y94.869 E37.16133
G1 X94.218 Y66.203 E38.59148
G1 X95.018 Y66.203 E38.6314
G1 X95.018 Y125.003 E41.56494
G1 X94.218 Y125.003 E41.60485
G1 X94.218 Y95.669 E43.06833
G0 F3600 X93.818 Y96.069
;TYPE:WALL-OUTER
G1 F1800 X90.751 Y96.069 E43.22134
G1 X90.751 Y125.403 E44.68482
G1 X89.151 Y125.403 E44.76465
G1 X89.151 Y65.803 E47.7381
G1 X90.751 Y65.803 E47.81793
G1 X90.751 Y94.469 E49.24808
G1 X93.818 Y94.469 E49.40109
G1 X93.818 Y65.803 E50.83125
G1 X95.418 Y65.803 E50.91107
G1 X95.418 Y125.403 E53.88453
G1 X93.818 Y125.403 E53.96435
G1 X93.818 Y96.069 E55.42783
G0 F3600 X93.618 Y96.069
G0 X93.618 Y95.569
G0 X94.608 Y95.279
;TYPE:SKIN
G1 F1800 X89.961 Y95.279 E55.65967
G1 X89.961 Y124.613 E57.12315
G1 X89.941 Y124.613 E57.12415
G1 X89.941 Y66.593 E60.01878
G1 X89.961 Y66.593 E60.01977
G1 X89.961 Y95.259 E61.44993
G1 X94.608 Y95.259 E61.68177
G1 X94.608 Y66.593 E63.11192
G1 X94.628 Y66.593 E63.11292
G1 X94.628 Y124.613 E66.00755
G1 X94.608 Y124.613 E66.00854
G1 X94.608 Y95.279 E67.47202
G1 F1500 E60.97202
;MESH:clip2.2.stl(2)
G0 F3600 X94.998 Y97.244
G0 X96.283 Y97.244
G0 X105.188 Y97.244
G0 X106.473 Y97.244
G0 X111.19 Y97.244
G0 X111.12 Y97.314
;TYPE:WALL-INNER
G1 F1500 E67.47202
G1 F1800 X107.253 Y97.314 E67.66495
G1 X107.253 Y126.648 E69.12843
G1 X106.453 Y126.648 E69.16834
G1 X106.453 Y67.848 E72.10188
G1 X107.253 Y67.848 E72.1418
G1 X107.253 Y96.514 E73.57195
G1 X111.12 Y96.514 E73.76487
G1 X111.12 Y67.848 E75.19503
G1 X111.92 Y67.848 E75.23494
G1 X111.92 Y126.648 E78.16848
G1 X111.12 Y126.648 E78.2084
G1 X111.12 Y97.314 E79.67187
G0 F3600 X110.72 Y97.714
;TYPE:WALL-OUTER
G1 F1800 X107.653 Y97.714 E79.82489
G1 X107.653 Y127.048 E81.28837
G1 X106.053 Y127.048 E81.36819
G1 X106.053 Y67.448 E84.34165
G1 X107.653 Y67.448 E84.42147
G1 X107.653 Y96.114 E85.85162
G1 X110.72 Y96.114 E86.00464
G1 X110.72 Y67.448 E87.43479
G1 X112.32 Y67.448 E87.51461
G1 X112.32 Y127.048 E90.48807
G1 X110.72 Y127.048 E90.56789
G1 X110.72 Y97.714 E92.03137
G0 F3600 X110.52 Y97.714
G0 X110.52 Y97.214
G0 X111.51 Y96.924
;TYPE:SKIN
G1 F1800 X106.863 Y96.924 E92.26321
G1 X106.863 Y126.258 E93.72669
G1 X106.843 Y126.258 E93.72769
G1 X106.843 Y68.238 E96.62232
G1 X106.863 Y68.238 E96.62332
G1 X106.863 Y96.904 E98.05347
G1 X111.51 Y96.904 E98.28531
G1 X111.51 Y68.238 E99.71546
G1 X111.53 Y68.238 E99.71646
G1 X111.53 Y126.258 E102.61109
G1 X111.51 Y126.258 E102.61209
G1 X111.51 Y96.924 E104.07557
G1 F1500 E97.57557
;MESH:clip2.1.stl
G0 F3600 X113.185 Y96.373
G0 X126.926 Y96.373
G0 X128.211 Y96.373
G0 X134.42 Y96.373
G0 X134.35 Y96.443
;TYPE:WALL-INNER
G1 F1500 E104.07557
G1 F1800 X130.254 Y96.443 E104.27992
G1 X130.254 Y128.406 E105.87456
G1 X128.191 Y128.406 E105.97748
G1 X128.191 Y57.618 E109.50911
G1 X130.254 Y57.618 E109.61203
G1 X130.254 Y90.429 E111.24898
G1 X134.35 Y90.429 E111.45333
G1 X134.35 Y57.618 E113.09028
G1 X136.413 Y57.618 E113.1932
G1 X136.413 Y128.406 E116.72483
G1 X134.35 Y128.406 E116.82775
G1 X134.35 Y96.443 E118.42239
G0 F3600 X133.95 Y96.843
;TYPE:WALL-OUTER
G1 F1800 X130.654 Y96.843 E118.58683
G1 X130.654 Y128.806 E120.18147
G1 X127.791 Y128.806 E120.32431
G1 X127.791 Y57.218 E123.89585
G1 X130.654 Y57.218 E124.03868
G1 X130.654 Y90.029 E125.67563
G1 X133.95 Y90.029 E125.84007
G1 X133.95 Y57.218 E127.47702
G1 X136.813 Y57.218 E127.61985
G1 X136.813 Y128.806 E131.19139
G1 X133.95 Y128.806 E131.33423
G1 X133.95 Y96.843 E132.92887
G0 F3600 X133.75 Y96.843
G0 X133.75 Y96.343
G0 X134.74 Y96.053
;TYPE:SKIN
G1 F1800 X129.864 Y96.053 E133.17213
G1 X129.864 Y128.016 E134.76677
G1 X128.581 Y128.016 E134.83078
G1 X128.581 Y58.008 E138.3235
G1 X129.864 Y58.008 E138.3875
G1 X129.864 Y90.819 E140.02445
G1 X134.74 Y90.819 E140.26772
G1 X134.74 Y58.008 E141.90466
G1 X136.023 Y58.008 E141.96867
G1 X136.023 Y128.016 E145.46139
G1 X134.74 Y128.016 E145.5254
G1 X134.74 Y96.053 E147.12004
G0 F3600 X130.226 Y96.415
G0 X128.967 Y127.835
G1 F1800 X128.759 Y127.628 E147.13468
G0 F3600 X128.759 Y127.062
G1 F1800 X129.532 Y127.835 E147.18922
G0 F3600 X129.683 Y127.42
G1 F1800 X128.759 Y126.497 E147.25437
G0 F3600 X128.759 Y125.931
G1 F1800 X129.683 Y126.854 E147.31953
G0 F3600 X129.683 Y126.289
G1 F1800 X128.759 Y125.365 E147.38472
G0 F3600 X128.759 Y124.8
G1 F1800 X129.683 Y125.723 E147.44988
G0 F3600 X129.683 Y125.157
G1 F1800 X128.759 Y124.234 E147.51504
G0 F3600 X128.759 Y123.668
G1 F1800 X129.683 Y124.592 E147.58023
G0 F3600 X129.683 Y124.026
G1 F1800 X128.759 Y123.103 E147.64539
G0 F3600 X128.759 Y122.537
G1 F1800 X129.683 Y123.46 E147.71055
G0 F3600 X129.683 Y122.895
G1 F1800 X128.759 Y121.971 E147.77574
G0 F3600 X128.759 Y121.405
G1 F1800 X129.683 Y122.329 E147.84094
G0 F3600 X129.683 Y121.763
G1 F1800 X128.759 Y120.84 E147.90609
G0 F3600 X128.759 Y120.274
G1 F1800 X129.683 Y121.198 E147.97129
G0 F3600 X129.683 Y120.632
G1 F1800 X128.759 Y119.708 E148.03648
G0 F3600 X128.759 Y119.143
G1 F1800 X129.683 Y120.066 E148.10164
G0 F3600 X129.683 Y119.501
G1 F1800 X128.759 Y118.577 E148.16683
G0 F3600 X128.759 Y118.011
G1 F1800 X129.683 Y118.935 E148.23202
G0 F3600 X129.683 Y118.369
G1 F1800 X128.759 Y117.446 E148.29718
G0 F3600 X128.759 Y116.88
G1 F1800 X129.683 Y117.803 E148.36234
G0 F3600 X129.683 Y117.238
G1 F1800 X128.759 Y116.314 E148.42753
G0 F3600 X128.759 Y115.749
G1 F1800 X129.683 Y116.672 E148.49269
G0 F3600 X129.683 Y116.106
G1 F1800 X128.759 Y115.183 E148.55785
G0 F3600 X128.759 Y114.617
G1 F1800 X129.683 Y115.541 E148.62304
G0 F3600 X129.683 Y114.975
G1 F1800 X128.759 Y114.052 E148.6882
G0 F3600 X128.759 Y113.486
G1 F1800 X129.683 Y114.409 E148.75336
G0 F3600 X129.683 Y113.844
G1 F1800 X128.759 Y112.92 E148.81855
G0 F3600 X128.759 Y112.355
G1 F1800 X129.683 Y113.278 E148.88371
G0 F3600 X129.683 Y112.712
G1 F1800 X128.759 Y111.789 E148.94887
G0 F3600 X128.759 Y111.223
G1 F1800 X129.683 Y112.147 E149.01406
G0 F3600 X129.683 Y111.581
G1 F1800 X128.759 Y110.657 E149.07925
G0 F3600 X128.759 Y110.092
G1 F1800 X129.683 Y111.015 E149.14441
G0 F3600 X129.683 Y110.45
G1 F1800 X128.759 Y109.526 E149.2096
G0 F3600 X128.759 Y108.96
G1 F1800 X129.683 Y109.884 E149.2748
G0 F3600 X129.683 Y109.318
G1 F1800 X128.759 Y108.395 E149.33996
G0 F3600 X128.759 Y107.829
G1 F1800 X129.683 Y108.753 E149.40515
G0 F3600 X129.683 Y108.187
G1 F1800 X128.759 Y107.263 E149.47034
G0 F3600 X128.759 Y106.698
G1 F1800 X129.683 Y107.621 E149.5355
G0 F3600 X129.683 Y107.055
G1 F1800 X128.759 Y106.132 E149.60066
G0 F3600 X128.759 Y105.566
G1 F1800 X129.683 Y106.49 E149.66585
G0 F3600 X129.683 Y105.924
G1 F1800 X128.759 Y105.001 E149.73101
G0 F3600 X128.759 Y104.435
G1 F1800 X129.683 Y105.358 E149.79617
G0 F3600 X129.683 Y104.793
G1 F1800 X128.759 Y103.869 E149.86136
G0 F3600 X128.759 Y103.304
G1 F1800 X129.683 Y104.227 E149.92652
G0 F3600 X129.683 Y103.661
G1 F1800 X128.759 Y102.738 E149.99168
G0 F3600 X128.759 Y102.172
G1 F1800 X129.683 Y103.096 E150.05687
G0 F3600 X129.683 Y102.53
G1 F1800 X128.759 Y101.607 E150.12203
G0 F3600 X128.759 Y101.041
G1 F1800 X129.683 Y101.964 E150.18719
G0 F3600 X129.683 Y101.399
G1 F1800 X128.759 Y100.475 E150.25238
G0 F3600 X128.759 Y99.909
G1 F1800 X129.683 Y100.833 E150.31757
G0 F3600 X129.683 Y100.267
G1 F1800 X128.759 Y99.344 E150.38273
G0 F3600 X128.759 Y98.778
G1 F1800 X129.683 Y99.702 E150.44792
G0 F3600 X129.683 Y99.136
G1 F1800 X128.759 Y98.212 E150.51312
G0 F3600 X128.759 Y97.647
G1 F1800 X129.683 Y98.57 E150.57827
G0 F3600 X129.683 Y98.004
G1 F1800 X128.759 Y97.081 E150.64343
G0 F3600 X128.759 Y96.515
G1 F1800 X129.683 Y97.439 E150.70863
G0 F3600 X129.683 Y96.873
G1 F1800 X128.759 Y95.95 E150.77378
G0 F3600 X128.759 Y95.384
G1 F1800 X129.683 Y96.307 E150.83894
G0 F3600 X129.814 Y95.873
G1 F1800 X128.759 Y94.818 E150.91338
G0 F3600 X128.759 Y94.253
G1 F1800 X130.379 Y95.873 E151.02768
G0 F3600 X130.945 Y95.873
G1 F1800 X128.759 Y93.687 E151.18191
G0 F3600 X128.759 Y93.121
G1 F1800 X131.511 Y95.873 E151.37608
G0 F3600 X132.076 Y95.873
G1 F1800 X128.759 Y92.556 E151.61011
G0 F3600 X128.759 Y91.99
G1 F1800 X132.642 Y95.873 E151.88408
G0 F3600 X133.208 Y95.873
G1 F1800 X128.759 Y91.424 E152.19798
G0 F3600 X128.759 Y90.858
G1 F1800 X133.773 Y95.873 E152.55178
G0 F3600 X134.339 Y95.873
G1 F1800 X128.759 Y90.293 E152.94548
G0 F3600 X128.759 Y89.727
G1 F1800 X129.683 Y90.651 E153.01067
G0 F3600 X130.031 Y90.998
G1 F1800 X134.905 Y95.873 E153.35459
G0 F3600 X134.919 Y95.887
G1 F1800 X135.842 Y96.809 E153.41968
G0 F3600 X135.842 Y96.244
G1 F1800 X130.596 Y90.998 E153.78981
G0 F3600 X131.162 Y90.998
G1 F1800 X135.842 Y95.678 E154.12001
G0 F3600 X135.842 Y95.112
G1 F1800 X131.728 Y90.998 E154.41028
G0 F3600 X132.294 Y90.998
G1 F1800 X135.842 Y94.547 E154.66064
G0 F3600 X135.842 Y93.981
G1 F1800 X132.859 Y90.998 E154.87111
G0 F3600 X133.425 Y90.998
G1 F1800 X135.842 Y93.415 E155.04164
G0 F3600 X135.842 Y92.85
G1 F1800 X133.991 Y90.998 E155.17228
G0 F3600 X134.556 Y90.998
G1 F1800 X135.842 Y92.284 E155.26301
G0 F3600 X135.842 Y91.718
G1 F1800 X134.918 Y90.795 E155.32817
G0 F3600 X134.918 Y90.229
G1 F1800 X135.842 Y91.153 E155.39336
G0 F3600 X135.842 Y90.587
G1 F1800 X134.918 Y89.663 E155.45856
G0 F3600 X134.918 Y89.098
G1 F1800 X135.842 Y90.021 E155.52371
G0 F3600 X135.842 Y89.456
G1 F1800 X134.918 Y88.532 E155.58891
G0 F3600 X134.918 Y87.966
G1 F1800 X135.842 Y88.89 E155.6541
G0 F3600 X135.842 Y88.324
G1 F1800 X134.918 Y87.401 E155.71926
G0 F3600 X134.918 Y86.835
G1 F1800 X135.842 Y87.759 E155.78445
G0 F3600 X135.842 Y87.193
G1 F1800 X134.918 Y86.269 E155.84964
G0 F3600 X134.918 Y85.704
G1 F1800 X135.842 Y86.627 E155.9148
G0 F3600 X135.842 Y86.061
G1 F1800 X134.918 Y85.138 E155.97996
G0 F3600 X134.918 Y84.572
G1 F1800 X135.842 Y85.496 E156.04515
G0 F3600 X135.842 Y84.93
G1 F1800 X134.918 Y84.007 E156.11031
G0 F3600 X134.918 Y83.441
G1 F1800 X135.842 Y84.364 E156.17547
G0 F3600 X135.842 Y83.799
G1 F1800 X134.918 Y82.875 E156.24066
G0 F3600 X134.918 Y82.31
G1 F1800 X135.842 Y83.233 E156.30582
G0 F3600 X135.842 Y82.667
G1 F1800 X134.918 Y81.744 E156.37098
G0 F3600 X134.918 Y81.178
G1 F1800 X135.842 Y82.102 E156.43617
G0 F3600 X135.842 Y81.536
G1 F1800 X134.918 Y80.613 E156.50133
G0 F3600 X134.918 Y80.047
G1 F1800 X135.842 Y80.97 E156.56649
G0 F3600 X135.842 Y80.405
G1 F1800 X134.918 Y79.481 E156.63168
G0 F3600 X134.918 Y78.915
G1 F1800 X135.842 Y79.839 E156.69687
G0 F3600 X135.842 Y79.273
G1 F1800 X134.918 Y78.35 E156.76203
G0 F3600 X134.918 Y77.784
G1 F1800 X135.842 Y78.708 E156.82722
G0 F3600 X135.842 Y78.142
G1 F1800 X134.918 Y77.218 E156.89242
G0 F3600 X134.918 Y76.653
G1 F1800 X135.842 Y77.576 E156.95758
G0 F3600 X135.842 Y77.01
G1 F1800 X134.918 Y76.087 E157.02273
G0 F3600 X134.918 Y75.521
G1 F1800 X135.842 Y76.445 E157.08793
G0 F3600 X135.842 Y75.879
G1 F1800 X134.918 Y74.956 E157.15309
G0 F3600 X134.918 Y74.39
G1 F1800 X135.842 Y75.313 E157.21824
G0 F3600 X135.842 Y74.748
G1 F1800 X134.918 Y73.824 E157.28344
G0 F3600 X134.918 Y73.259
G1 F1800 X135.842 Y74.182 E157.34859
G0 F3600 X135.842 Y73.616
G1 F1800 X134.918 Y72.693 E157.41375
G0 F3600 X134.918 Y72.127
G1 F1800 X135.842 Y73.051 E157.47895
