;FLAVOR:Marlin
;TIME:2413
;Filament used: 3.37326m
;Layer height: 0.3
;MINX:28.989
;MINY:72.695
;MINZ:0.3
;MAXX:201.373
;MAXY:152.278
;MAXZ:7.5
;Generated with Cura_SteamEngine 4.5.0
M140 S60
M105
M190 S60
M104 S200
M105
M109 S200
M82 ;absolute extrusion mode
G28 ;Home
G1 Z15.0 F6000 ;Move the platform down 15mm
;Prime the extruder
G92 E0
G1 F200 E3
G92 E0
G92 E0
G92 E0
G1 F1500 E-6.5
;LAYER_COUNT:25
;LAYER:0
M107
G0 F3600 X44.561 Y73.596 Z0.3
;TYPE:SKIRT
G1 F1500 E0
G1 F1800 X45.021 Y73.385 E0.02525
G1 X45.78 Y73.171 E0.06459
G1 X46.771 Y72.922 E0.11557
G1 X47.336 Y72.787 E0.14455
G1 X47.999 Y72.7 E0.17791
G1 X49.055 Y72.698 E0.2306
G1 X50.017 Y72.761 E0.27869
G1 X52.79 Y72.918 E0.41726
G1 X55.543 Y72.996 E0.55466
G1 X58.259 Y72.996 E0.69016
G1 X61.007 Y72.918 E0.82732
G1 X64.257 Y72.719 E0.98977
G1 X65.382 Y72.695 E1.0459
G1 X65.771 Y72.698 E1.06531
G1 X66.485 Y72.789 E1.10122
G1 X67.849 Y73.122 E1.17127
G1 X68.479 Y73.285 E1.20374
G1 X69.303 Y73.568 E1.2472
G1 X70.964 Y74.195 E1.33578
G1 X73.574 Y75.1 E1.4736
G1 X76.171 Y75.918 E1.60944
G1 X78.821 Y76.671 E1.74688
G1 X81.491 Y77.35 E1.88433
G1 X84.144 Y77.942 E2.01994
G1 X86.821 Y78.462 E2.15599
G1 X89.514 Y78.907 E2.29217
G1 X92.238 Y79.278 E2.42933
G1 X94.982 Y79.574 E2.56702
G1 X97.688 Y79.788 E2.70244
G1 X100.439 Y79.927 E2.83987
G1 X103.157 Y79.988 E2.9755
G1 X105.891 Y79.971 E3.1119
G1 X109.265 Y79.845 E3.28035
G1 X109.795 Y79.816 E3.30683
G1 X110.462 Y79.832 E3.34012
G1 X114.413 Y80.186 E3.53802
G1 X115.181 Y80.267 E3.57655
G1 X116.663 Y80.573 E3.65205
G1 X119.83 Y81.24 E3.81352
G1 X122.51 Y81.715 E3.94931
G1 X125.263 Y82.122 E4.08815
G1 X127.932 Y82.44 E4.22225
G1 X130.673 Y82.689 E4.35956
G1 X133.423 Y82.86 E4.49702
G1 X136.138 Y82.952 E4.63255
G1 X138.892 Y82.967 E4.76995
G1 X141.608 Y82.905 E4.90549
G1 X144.359 Y82.765 E5.04291
G1 X147.101 Y82.547 E5.18014
G1 X149.774 Y82.258 E5.31428
G1 X152.533 Y81.881 E5.4532
G1 X155.217 Y81.437 E5.58893
G1 X157.91 Y80.912 E5.72581
G1 X160.562 Y80.316 E5.86142
G1 X163.115 Y79.67 E5.99281
G1 X169.709 Y77.903 E6.33339
G1 X170.377 Y77.732 E6.36779
G1 X170.875 Y77.646 E6.393
G1 X171.381 Y77.64 E6.41825
G1 X171.932 Y77.726 E6.44607
G1 X173.018 Y77.993 E6.50187
G1 X184.839 Y81.16 E7.11242
G1 X185.552 Y81.359 E7.14935
G1 X186.027 Y81.534 E7.1746
G1 X186.468 Y81.78 E7.1998
G1 X186.892 Y82.119 E7.22688
G1 X196.361 Y91.573 E7.89444
G1 X196.867 Y92.095 E7.93071
G1 X197.189 Y92.485 E7.95594
G1 X197.446 Y92.92 E7.98115
G1 X197.633 Y93.398 E8.00676
G1 X201.093 Y106.267 E8.67159
G1 X201.281 Y107.002 E8.70944
G1 X201.367 Y107.5 E8.73466
G1 X201.373 Y108.006 E8.7599
G1 X201.287 Y108.558 E8.78777
G1 X201.023 Y109.63 E8.84285
G1 X197.853 Y121.46 E9.45388
G1 X197.65 Y122.178 E9.4911
G1 X197.475 Y122.652 E9.51631
G1 X197.227 Y123.093 E9.54155
G1 X196.911 Y123.491 E9.56691
G1 X187.448 Y132.974 E10.23528
G1 X186.921 Y133.486 E10.27194
G1 X186.532 Y133.809 E10.29716
G1 X186.096 Y134.066 E10.32241
G1 X185.605 Y134.258 E10.34871
G1 X184.439 Y134.581 E10.40908
G1 X172.687 Y137.73 E11.01607
G1 X172.011 Y137.902 E11.05087
G1 X171.512 Y137.988 E11.07613
G1 X171.007 Y137.994 E11.10133
G1 X170.459 Y137.909 E11.129
G1 X169.176 Y137.594 E11.19491
G1 X166.516 Y136.981 E11.33109
G1 X163.821 Y136.439 E11.46824
G1 X161.107 Y135.977 E11.60559
G1 X158.438 Y135.597 E11.74009
G1 X155.663 Y135.282 E11.87942
G1 X152.987 Y135.055 E12.01341
G1 X150.242 Y134.9 E12.15057
G1 X147.487 Y134.822 E12.28808
G1 X144.77 Y134.822 E12.42363
G1 X142.019 Y134.9 E12.56093
G1 X139.269 Y135.057 E12.69835
G1 X136.591 Y135.285 E12.83244
G1 X133.824 Y135.599 E12.97137
G1 X131.134 Y135.982 E13.10693
G1 X128.418 Y136.448 E13.24441
G1 X125.77 Y136.979 E13.37915
G1 X123.099 Y137.594 E13.5159
G1 X120.402 Y138.296 E13.65493
G1 X118.39 Y138.875 E13.75939
G1 X116.816 Y139.346 E13.84135
G1 X116.037 Y139.57 E13.88179
G1 X112.828 Y140.088 E14.04396
G1 X110.157 Y140.575 E14.17942
G1 X107.457 Y141.146 E14.3171
G1 X104.807 Y141.786 E14.45311
G1 X102.154 Y142.507 E14.59027
G1 X99.546 Y143.295 E14.72619
G1 X96.938 Y144.164 E14.86334
G1 X94.367 Y145.103 E14.99989
G1 X91.815 Y146.118 E15.13692
G1 X89.297 Y147.202 E15.27369
G1 X86.839 Y148.344 E15.4089
G1 X84.37 Y149.577 E15.54659
G1 X81.941 Y150.886 E15.68425
G1 X81.445 Y151.144 E15.71214
G1 X80.967 Y151.368 E15.73848
G1 X80.335 Y151.63 E15.77261
G1 X79.593 Y151.87 E15.81152
G1 X78.928 Y152.039 E15.84575
G1 X78.259 Y152.171 E15.87977
G1 X77.757 Y152.232 E15.905
G1 X77.176 Y152.276 E15.93407
G1 X76.442 Y152.273 E15.97069
G1 X75.554 Y152.19 E16.01518
G1 X74.057 Y151.947 E16.09085
G1 X71.36 Y151.528 E16.22701
G1 X68.612 Y151.179 E16.36521
G1 X65.883 Y150.913 E16.50201
G1 X63.165 Y150.724 E16.63794
G1 X60.452 Y150.613 E16.7734
G1 X57.699 Y150.578 E16.91076
G1 X54.946 Y150.62 E17.04813
G1 X52.232 Y150.74 E17.18366
G1 X49.48 Y150.939 E17.32132
G1 X46.784 Y151.21 E17.4565
G1 X44.016 Y151.568 E17.59575
G1 X41.362 Y151.989 E17.72981
G1 X40.824 Y152.086 E17.75708
G1 X40.253 Y152.177 E17.78593
G1 X39.495 Y152.265 E17.824
G1 X38.648 Y152.278 E17.86626
G1 X38.041 Y152.238 E17.89661
G1 X37.542 Y152.183 E17.92166
G1 X36.938 Y152.074 E17.95228
G1 X36.302 Y151.924 E17.98488
G1 X35.518 Y151.674 E18.02593
G1 X34.875 Y151.42 E18.06042
G1 X33.959 Y150.978 E18.11117
G1 X33.136 Y150.488 E18.15895
G1 X32.156 Y149.765 E18.21971
G1 X31.757 Y149.423 E18.24593
G1 X31.209 Y148.875 E18.28459
G1 X30.831 Y148.439 E18.31338
G1 X30.501 Y148.015 E18.34019
G1 X30.164 Y147.508 E18.37056
G1 X29.907 Y147.067 E18.39602
G1 X29.526 Y146.238 E18.44154
G1 X29.27 Y145.513 E18.4799
G1 X29.15 Y145.012 E18.5056
G1 X29.02 Y144.225 E18.5454
G1 X28.989 Y143.699 E18.57169
G1 X28.994 Y142.964 E18.60836
G1 X29.113 Y142.092 E18.65226
G1 X29.251 Y141.506 E18.6823
G1 X29.447 Y140.887 E18.71469
G1 X29.712 Y140.252 E18.74902
G1 X30.726 Y138.109 E18.8673
G1 X31.833 Y135.6 E19.00412
G1 X32.856 Y133.095 E19.13911
G1 X33.825 Y130.517 E19.27651
G1 X34.72 Y127.915 E19.41379
G1 X35.536 Y125.305 E19.55022
G1 X36.273 Y122.685 E19.68601
G1 X36.95 Y119.996 E19.82435
G1 X37.533 Y117.356 E19.95923
G1 X38.055 Y114.636 E20.09741
G1 X38.489 Y111.972 E20.23207
G1 X38.857 Y109.219 E20.37064
G1 X39.139 Y106.544 E20.50484
G1 X39.351 Y103.768 E20.64373
G1 X39.483 Y101.049 E20.77954
G1 X39.537 Y98.333 E20.91507
G1 X39.514 Y95.581 E21.05238
G1 X39.413 Y92.825 E21.18997
G1 X39.237 Y90.114 E21.3255
G1 X38.983 Y87.388 E21.46209
G1 X38.798 Y85.855 E21.53913
G1 X38.739 Y85.221 E21.5709
G1 X38.758 Y84.237 E21.62
G1 X38.941 Y83.29 E21.66812
G1 X39.153 Y82.696 E21.69958
G1 X39.364 Y82.228 E21.7252
G1 X40.32 Y80.396 E21.82829
G1 X41.574 Y77.893 E21.96796
G1 X42.277 Y76.382 E22.0511
G1 X42.57 Y75.77 E22.08496
G1 X42.823 Y75.332 E22.11019
G1 X43.495 Y74.522 E22.1627
G1 X44.141 Y73.877 E22.20824
G1 X44.561 Y73.596 E22.23345
G1 F1500 E15.73345
;MESH:gizmo_case_v1_joint_small.stl(2)
G0 F3600 X45.56 Y76.008
G0 X46.121 Y76.697
G0 X47.172 Y79.537
G0 X43.754 Y82.899
G0 X42.931 Y83.884
G0 X42.691 Y85.242
G0 X43.42 Y86.366
G0 X44.589 Y87.103
G0 X45.853 Y87.368
G0 X47.128 Y86.98
G0 X47.82 Y86.057
G0 X48.848 Y83.438
G0 X48.919 Y83.369
;TYPE:WALL-OUTER
G1 F1500 E22.23345
G1 F1800 X49.123 Y83.369 E22.24363
G1 X50.866 Y83.378 E22.33059
G1 X64.701 Y83.434 E23.02083
G1 X64.703 Y83.434 E23.02093
G1 X64.907 Y83.434 E23.0311
G1 X64.903 Y83.23 E23.03765
G1 X64.902 Y83.228 E23.03777
G1 X64.886 Y82.709 E23.06367
G1 X64.878 Y81.9 E23.10403
G1 X64.883 Y81.058 E23.14604
G1 X64.942 Y77.224 E23.33734
G1 X64.949 Y76.088 E23.39402
G1 X65.334 Y76.088 E23.41323
G1 X65.534 Y76.088 E23.42321
G1 X65.534 Y76.288 E23.42967
G1 X65.53 Y77.065 E23.46843
G1 X65.473 Y80.834 E23.65649
G1 X65.464 Y82.069 E23.71811
G1 X65.491 Y83.337 E23.78138
G1 X65.607 Y84.609 E23.8451
G1 X65.926 Y85.865 E23.90976
G1 X66.654 Y86.902 E23.97297
G1 X67.892 Y87.325 E24.03824
G1 X69.143 Y87.098 E24.10167
G1 X70.315 Y86.396 E24.16983
G1 X71.092 Y85.239 E24.23936
G1 X70.889 Y83.969 E24.30352
G1 X70.099 Y82.985 E24.36648
G1 X69.101 Y82.131 E24.43201
G1 X68.104 Y81.327 E24.49591
G1 X67.2 Y80.472 E24.55799
G1 X66.586 Y79.521 E24.61446
G1 X66.496 Y78.484 E24.66639
G1 X66.97 Y77.474 E24.72206
G1 X67.554 Y76.841 E24.76502
G1 X67.703 Y76.68 E24.77597
G1 X67.849 Y76.844 E24.78286
G1 X68.085 Y77.11 E24.8006
G1 X67.607 Y77.595 E24.83457
G1 X67.331 Y77.965 E24.8576
G1 X67.1 Y78.445 E24.88418
G1 X67.019 Y78.875 E24.90601
G1 X67.164 Y79.411 E24.93371
G1 X67.391 Y79.79 E24.95575
G1 X67.94 Y80.399 E24.99666
G1 X68.59 Y80.972 E25.03989
G1 X69.588 Y81.769 E25.10361
G1 X70.248 Y82.324 E25.14663
G1 X70.84 Y82.905 E25.18801
G1 X71.148 Y83.279 E25.21218
G1 X71.365 Y83.611 E25.23197
G1 X71.55 Y84.003 E25.2536
G1 X71.651 Y84.317 E25.27005
G1 X71.709 Y84.739 E25.2913
G1 X71.691 Y85.135 E25.31108
G1 X71.603 Y85.52 E25.33078
G1 X71.466 Y85.861 E25.34912
G1 X71.244 Y86.233 E25.37073
G1 X70.754 Y86.787 E25.40763
G1 X70.393 Y87.085 E25.43098
G1 X69.757 Y87.468 E25.46802
G1 X68.993 Y87.764 E25.5089
G1 X68.526 Y87.87 E25.53279
G1 X67.781 Y87.908 E25.57001
G1 X67.363 Y87.856 E25.59102
G1 X66.915 Y87.719 E25.6144
G1 X66.582 Y87.559 E25.63283
G1 X66.274 Y87.347 E25.65148
G1 X65.967 Y87.052 E25.67272
G1 X65.732 Y86.748 E25.69189
G1 X65.386 Y86.081 E25.72938
G1 X65.227 Y85.628 E25.75333
G1 X65.057 Y84.867 E25.79224
G1 X64.952 Y84.127 E25.82952
G1 X48.875 Y84.064 E26.63161
G1 X48.784 Y84.756 E26.66644
G1 X48.693 Y85.248 E26.6914
G1 X48.464 Y86.021 E26.73162
G1 X48.277 Y86.436 E26.75433
G1 X48.071 Y86.778 E26.77425
G1 X47.842 Y87.068 E26.79268
G1 X47.525 Y87.365 E26.81436
G1 X47.2 Y87.583 E26.83388
G1 X46.866 Y87.739 E26.85227
G1 X46.439 Y87.859 E26.8744
G1 X45.729 Y87.911 E26.90992
G1 X45.255 Y87.863 E26.93368
G1 X44.531 Y87.668 E26.97109
G1 X43.794 Y87.321 E27.01173
G1 X43.392 Y87.057 E27.03573
G1 X42.843 Y86.56 E27.07267
G1 X42.569 Y86.221 E27.09442
G1 X42.348 Y85.841 E27.11635
G1 X42.205 Y85.47 E27.13619
G1 X42.126 Y85.087 E27.1557
G1 X42.114 Y84.721 E27.17397
G1 X42.178 Y84.3 E27.19521
G1 X42.3 Y83.932 E27.21455
G1 X42.48 Y83.577 E27.23441
G1 X42.938 Y82.954 E27.27299
G1 X43.508 Y82.384 E27.31321
G1 X44.168 Y81.824 E27.35639
G1 X45.23 Y80.974 E27.42425
G1 X45.823 Y80.458 E27.46347
G1 X46.43 Y79.792 E27.50843
G1 X46.687 Y79.362 E27.53342
G1 X46.801 Y78.843 E27.55993
G1 X46.712 Y78.39 E27.58296
G1 X46.472 Y77.935 E27.60863
G1 X45.939 Y77.294 E27.65022
G1 X45.741 Y77.106 E27.66384
G1 X45.976 Y76.841 E27.68151
G1 X45.977 Y76.84 E27.68158
G1 X46.121 Y76.678 E27.69239
G1 X46.27 Y76.837 E27.69925
G1 X46.782 Y77.384 E27.73662
G1 X47.314 Y78.42 E27.79473
G1 X47.259 Y79.461 E27.84674
G1 X46.675 Y80.411 E27.90237
G1 X45.778 Y81.276 E27.96454
G1 X44.786 Y82.078 E28.02818
G1 X43.782 Y82.927 E28.09378
G1 X42.967 Y83.9 E28.1571
G1 X42.73 Y85.235 E28.22475
G1 X43.448 Y86.338 E28.29041
G1 X44.604 Y87.066 E28.35856
G1 X45.852 Y87.329 E28.4222
G1 X47.106 Y86.948 E28.48758
G1 X47.862 Y85.937 E28.55056
G1 X48.199 Y84.689 E28.61506
G1 X48.325 Y83.418 E28.67878
G1 X48.358 Y82.149 E28.74211
G1 X48.353 Y80.912 E28.80382
G1 X48.311 Y78.426 E28.92787
G1 X48.295 Y77.182 E28.98994
G1 X48.29 Y76.289 E29.03449
G1 X48.289 Y76.288 E29.03456
G1 X48.289 Y76.088 E29.04454
G1 X48.489 Y76.088 E29.051
G1 X48.49 Y76.088 E29.05105
G1 X48.874 Y76.088 E29.07021
G1 X48.882 Y77.549 E29.1431
G1 X48.939 Y81.055 E29.31804
G1 X48.944 Y81.842 E29.3573
G1 X48.938 Y82.708 E29.40051
G1 X48.924 Y83.165 E29.42332
G1 X48.919 Y83.369 E29.42985
G0 F3600 X49.119 Y83.369
G0 X49.209 Y83.716
;TYPE:SKIN
G1 F1800 X48.925 Y83.715 E29.43699
G1 X48.622 Y83.411 E29.44777
G1 X48.639 Y80.6 E29.51838
G1 X48.584 Y76.586 E29.61923
G1 X48.622 Y76.34 E29.62548
G0 F3600 X48.564 Y76.282
G0 X48.364 Y83.42
G0 X48.238 Y84.696
G0 X47.897 Y85.954
G0 X47.128 Y86.98
G0 X45.853 Y87.368
G0 X44.589 Y87.103
G0 X43.42 Y86.366
G0 X42.691 Y85.242
G0 X42.931 Y83.884
G0 X43.754 Y82.899
G0 X46.874 Y79.795
G0 X46.872 Y77.985
G0 X46.561 Y77.674
G1 F1800 X46.987 Y78.383 E29.64854
G1 X46.999 Y79.243 E29.67253
G1 X46.615 Y79.991 E29.69598
G1 X45.791 Y80.864 E29.72945
G1 X43.635 Y82.667 E29.80783
G1 X42.722 Y83.735 E29.84701
G1 X42.441 Y84.867 E29.87954
G1 X42.424 Y85.133 E29.88697
G1 X42.679 Y85.671 E29.90357
G1 X43.214 Y86.489 E29.93083
G0 F3600 X44.092 Y87.084
G1 F1800 X44.69 Y87.399 E29.95331
G1 X45.73 Y87.591 E29.98849
G1 X46.481 Y87.493 E30.01368
G1 X47.293 Y87.174 E30.0427
G1 X48.037 Y86.221 E30.08291
G1 X48.392 Y85.162 E30.12006
G1 X48.58 Y83.936 E30.16132
G1 X48.649 Y83.722 E30.1688
G1 X54.606 Y83.739 E30.36694
G1 X61.137 Y83.765 E30.58418
G1 X64.828 Y83.779 E30.70695
G1 X65.264 Y84.215 E30.72746
G1 X65.549 Y85.63 E30.77547
G1 X65.826 Y86.191 E30.79629
G1 X66.294 Y86.941 E30.82569
G1 X67.02 Y87.385 E30.854
G1 X68.081 Y87.598 E30.88999
G1 X69.255 Y87.356 E30.92986
G1 X70.332 Y86.737 E30.97118
G1 X70.876 Y86.149 E30.99783
G1 X71.31 Y85.453 E31.02511
G1 X71.336 Y84.63 E31.0525
G1 X71.294 Y84.304 E31.06343
G1 X71.049 Y83.777 E31.08276
G0 F3600 X71.067 Y83.512
G1 F1800 X69.524 Y81.969 E31.13719
G0 F3600 X69.411 Y82.139
G1 F1800 X67.861 Y80.588 E31.19189
G0 F3600 X67.301 Y80.029
G1 F1800 X66.856 Y79.301 E31.21591
G1 X66.774 Y78.653 E31.2343
G1 X67.092 Y77.84 E31.25888
G1 X67.73 Y77.064 E31.28717
G0 F3600 X67.668 Y77.002
G0 X66.623 Y79.509
G0 X70.127 Y82.958
G0 X70.925 Y83.953
G0 X71.131 Y85.247
G0 X70.342 Y86.425
G0 X69.157 Y87.135
G0 X67.89 Y87.364
G0 X66.63 Y86.933
G0 X65.89 Y85.881
G0 X65.568 Y84.615
G0 X65.335 Y76.931
G0 X65.237 Y76.833
G1 F1800 X65.238 Y76.552 E31.29427
G1 X65.223 Y77.951 E31.32962
G1 X65.173 Y82.144 E31.43557
G1 X65.215 Y83.6 E31.47237
G1 X65.159 Y83.826 E31.47826
G0 F3600 X65.124 Y83.718
G1 F1500 E24.97826
;MESH:gizmo_case_v1_joint_small.stl(1)
G0 F3600 X50.745 Y84.052
G0 X50.742 Y84.937
G0 X50.657 Y104.163
G0 X50.657 Y105.042
G0 X50.637 Y111.258
G0 X50.708 Y111.189
;TYPE:WALL-OUTER
G1 F1500 E31.47826
G1 F1800 X50.912 Y111.189 E31.48844
G1 X50.913 Y111.19 E31.48851
G1 X52.342 Y111.197 E31.5598
G1 X64.096 Y111.245 E32.14621
G1 X64.098 Y111.245 E32.14631
G1 X64.301 Y111.245 E32.15644
G1 X64.298 Y111.042 E32.16297
G1 X64.297 Y111.04 E32.16308
G1 X64.278 Y110.288 E32.20061
G1 X64.276 Y109.599 E32.23498
G1 X64.33 Y105.967 E32.4162
G1 X64.336 Y105.028 E32.46305
G1 X64.57 Y105.028 E32.47472
G1 X64.77 Y105.028 E32.4847
G1 X64.77 Y105.228 E32.49116
G1 X64.767 Y105.81 E32.5202
G1 X64.754 Y106.903 E32.57473
G1 X64.719 Y109.006 E32.67967
G1 X64.711 Y110.052 E32.73185
G1 X64.733 Y111.127 E32.7855
G1 X64.831 Y112.207 E32.8396
G1 X65.102 Y113.277 E32.89467
G1 X65.725 Y114.169 E32.94895
G1 X66.786 Y114.537 E33.00498
G1 X67.859 Y114.345 E33.05936
G1 X68.863 Y113.747 E33.11766
G1 X69.537 Y112.748 E33.17778
G1 X69.362 Y111.66 E33.23276
G1 X68.691 Y110.818 E33.28648
G1 X67.844 Y110.091 E33.34216
G1 X66.999 Y109.411 E33.39628
G1 X66.239 Y108.693 E33.44844
G1 X65.854 Y108.099 E33.48375
G1 X65.824 Y108.052 E33.48654
G1 X65.724 Y107.897 E33.49574
G1 X65.68 Y107.388 E33.52123
G1 X65.648 Y107.034 E33.53896
G1 X65.744 Y106.827 E33.55034
G1 X65.94 Y106.406 E33.57351
G1 X65.958 Y106.367 E33.57566
G1 X66.039 Y106.192 E33.58528
G1 X66.486 Y105.705 E33.61826
G1 X66.635 Y105.543 E33.62924
G1 X66.781 Y105.708 E33.63614
G1 X66.917 Y105.86 E33.64632
G1 X66.531 Y106.253 E33.6738
G1 X66.32 Y106.536 E33.69141
G1 X66.295 Y106.57 E33.6935
G1 X66.095 Y106.989 E33.716
G1 X66.026 Y107.357 E33.73468
G1 X66.158 Y107.835 E33.75942
G1 X66.19 Y107.88 E33.76216
G1 X66.553 Y108.4 E33.7938
G1 X67.09 Y108.918 E33.83103
G1 X67.638 Y109.372 E33.86653
G1 X68.204 Y109.823 E33.90264
G1 X68.763 Y110.291 E33.93901
G1 X69.253 Y110.771 E33.97323
G1 X69.689 Y111.349 E34.00935
G1 X69.866 Y111.716 E34.02968
G1 X69.948 Y111.972 E34.04309
G1 X69.995 Y112.323 E34.06076
G1 X69.979 Y112.653 E34.07724
G1 X69.906 Y112.973 E34.09362
G1 X69.794 Y113.25 E34.10852
G1 X69.431 Y113.789 E34.14094
G1 X68.909 Y114.268 E34.17629
G1 X68.367 Y114.596 E34.20789
G1 X67.727 Y114.845 E34.24216
G1 X67.323 Y114.938 E34.26284
G1 X66.717 Y114.969 E34.29311
G1 X66.351 Y114.925 E34.3115
G1 X65.974 Y114.808 E34.3312
G1 X65.699 Y114.675 E34.34644
G1 X65.446 Y114.501 E34.36176
G1 X65.192 Y114.257 E34.37933
G1 X64.84 Y113.741 E34.41049
G1 X64.585 Y113.109 E34.44449
